;FLAVOR:Marlin
;TIME:1710
;Filament used: 0.55715m
;Layer height: 0.2
;MINX:105.556
;MINY:70.97
;MINZ:0.2
;MAXX:138.29
;MAXY:143.202
;MAXZ:10
;Generated with Cura_SteamEngine 4.2.1
M140 S50
M105
M190 S50
M104 S200
M105
M109 S200
M82 ;absolute extrusion mode
M201 X500.00 Y500.00 Z100.00 E5000.00 ;Setup machine max acceleration
M203 X500.00 Y500.00 Z10.00 E50.00 ;Setup machine max feedrate
M204 P500.00 R1000.00 T500.00 ;Setup Print/Retract/Travel acceleration
M205 X8.00 Y8.00 Z0.40 E5.00 ;Setup Jerk
M220 S100 ;Reset Feedrate
M221 S100 ;Reset Flowrate

G28 ;Home

G92 E0 ;Reset Extruder
G1 Z2.0 F3000 ;Move Z Axis up
G1 X10.1 Y20 Z0.28 F5000.0 ;Move to start position
G1 X10.1 Y200.0 Z0.28 F1500.0 E15 ;Draw the first line
G1 X10.4 Y200.0 Z0.28 F5000.0 ;Move to side a little
G1 X10.4 Y20 Z0.28 F1500.0 E30 ;Draw the second line
G92 E0 ;Reset Extruder
G1 Z2.0 F3000 ;Move Z Axis up

M141 S28
G92 E0
G92 E0
G1 F2700 E-5
;LAYER_COUNT:50
;LAYER:0
M107
G0 F6000 X107.703 Y77.057 Z0.2
;TYPE:SKIRT
G1 F2700 E0
G1 F1200 X108.274 Y76.284 E0.03516
G1 X108.908 Y75.562 E0.07031
G1 X109.599 Y74.895 E0.10545
G1 X110.343 Y74.288 E0.14058
G1 X111.136 Y73.744 E0.17576
G1 X111.97 Y73.269 E0.21088
G1 X112.842 Y72.864 E0.24606
G1 X113.744 Y72.534 E0.2812
G1 X114.644 Y72.285 E0.31536
G1 X115.421 Y72.104 E0.34455
G1 X117.995 Y71.47 E0.44154
G1 X118.429 Y71.357 E0.45794
G1 X119.368 Y71.153 E0.4931
G1 X120.521 Y71.013 E0.53559
G1 X120.676 Y71.002 E0.54128
G1 X121.395 Y70.973 E0.56761
G1 X121.75 Y70.97 E0.58059
G1 X122.711 Y71.002 E0.61577
G1 X123.665 Y71.114 E0.65092
G1 X124.606 Y71.304 E0.68604
G1 X125.529 Y71.573 E0.72121
G1 X126.426 Y71.917 E0.75636
G1 X127.244 Y72.309 E0.78955
G1 X128.694 Y73.076 E0.84956
G1 X129.056 Y73.265 E0.8645
G1 X129.889 Y73.744 E0.89966
G1 X130.678 Y74.29 E0.93476
G1 X131.721 Y75.181 E0.98495
G1 X132.401 Y75.835 E1.01947
G1 X132.562 Y75.992 E1.02769
G1 X134.429 Y77.859 E1.12429
G1 X134.542 Y77.974 E1.13019
G1 X135 Y78.445 E1.15423
G1 X135.641 Y79.161 E1.18939
G1 X136.22 Y79.928 E1.22455
G1 X136.732 Y80.74 E1.25967
G1 X137.176 Y81.592 E1.29482
G1 X137.547 Y82.478 E1.32996
G1 X137.843 Y83.392 E1.36511
G1 X138.063 Y84.327 E1.40025
G1 X138.203 Y85.277 E1.43538
G1 X138.258 Y86.026 E1.46286
G1 X138.281 Y86.598 E1.48381
G1 X138.29 Y87.062 E1.50078
G1 X138.29 Y96.793 E1.8568
G1 X138.289 Y96.959 E1.86288
G1 X138.279 Y97.656 E1.88838
G1 X138.225 Y98.611 E1.92338
G1 X138.187 Y98.998 E1.9376
G1 X137.962 Y101.647 E2.03487
G1 X137.818 Y104.188 E2.12798
G1 X137.75 Y106.635 E2.21754
G1 X137.75 Y109.165 E2.31011
G1 X137.821 Y111.63 E2.40033
G1 X137.967 Y114.21 E2.49487
G1 X138.089 Y115.753 E2.5515
G1 X138.123 Y116.462 E2.57747
G1 X138.133 Y117.032 E2.59833
G1 X138.135 Y117.234 E2.60572
G1 X138.135 Y126.965 E2.96174
G1 X138.134 Y127.13 E2.96778
G1 X138.124 Y127.828 E2.99332
G1 X138.07 Y128.787 E3.02846
G1 X137.937 Y129.739 E3.06363
G1 X137.725 Y130.676 E3.09877
G1 X137.436 Y131.592 E3.13391
G1 X137.071 Y132.481 E3.16907
G1 X136.634 Y133.336 E3.2042
G1 X136.128 Y134.152 E3.23933
G1 X135.555 Y134.923 E3.27448
G1 X135.146 Y135.401 E3.29749
G1 X135.005 Y135.557 E3.30519
G1 X134.693 Y135.889 E3.32186
G1 X134.512 Y136.074 E3.33133
G1 X134.423 Y136.164 E3.33596
G1 X132.267 Y138.32 E3.44751
G1 X132.161 Y138.424 E3.45294
G1 X131.767 Y138.808 E3.47307
G1 X130.922 Y139.555 E3.51433
G1 X130.742 Y139.699 E3.52277
G1 X129.968 Y140.268 E3.55791
G1 X128.91 Y140.899 E3.60298
G1 X127.085 Y141.86 E3.67844
G1 X126.217 Y142.272 E3.7136
G1 X125.318 Y142.61 E3.74874
G1 X124.394 Y142.872 E3.78387
G1 X123.451 Y143.057 E3.81903
G1 X122.2 Y143.178 E3.86502
G1 X121.919 Y143.19 E3.87531
G1 X121.478 Y143.201 E3.89145
G1 X121.253 Y143.202 E3.89968
G1 X120.293 Y143.166 E3.93482
G1 X119.34 Y143.051 E3.96994
G1 X118.395 Y142.855 E4.00525
G1 X117.173 Y142.549 E4.05134
G1 X115.153 Y142.069 E4.1273
G1 X115.05 Y142.044 E4.13118
G1 X114.346 Y141.87 E4.15771
G1 X113.424 Y141.601 E4.19285
G1 X112.527 Y141.256 E4.22801
G1 X111.663 Y140.838 E4.26313
G1 X110.836 Y140.349 E4.29828
G1 X110.052 Y139.793 E4.33344
G1 X109.317 Y139.174 E4.3686
G1 X108.637 Y138.496 E4.40373
G1 X108.015 Y137.764 E4.43888
G1 X107.456 Y136.982 E4.47405
G1 X106.965 Y136.157 E4.50917
G1 X106.543 Y135.294 E4.54432
G1 X106.195 Y134.399 E4.57945
G1 X105.922 Y133.478 E4.61459
G1 X105.728 Y132.537 E4.64975
G1 X105.611 Y131.583 E4.68491
G1 X105.577 Y130.891 E4.71026
G1 X105.559 Y129.964 E4.74418
G1 X105.558 Y129.572 E4.75852
G1 X105.566 Y129.021 E4.77868
G1 X105.583 Y128.537 E4.7964
G1 X105.729 Y125.95 E4.8912
G1 X105.8 Y123.479 E4.98164
G1 X105.802 Y120.948 E5.07424
G1 X105.733 Y118.489 E5.16424
G1 X105.583 Y115.81 E5.26241
G1 X105.567 Y115.353 E5.27914
G1 X105.557 Y114.743 E5.30146
G1 X105.556 Y114.421 E5.31324
G1 X105.566 Y113.556 E5.34489
G1 X105.594 Y112.867 E5.37012
G1 X105.638 Y112.249 E5.39279
G1 X105.787 Y109.631 E5.48873
G1 X105.856 Y107.175 E5.57862
G1 X105.856 Y104.688 E5.66961
G1 X105.755 Y101.745 E5.77734
G1 X105.75 Y101.585 E5.7832
G1 X105.714 Y99.824 E5.84764
G1 X105.713 Y99.427 E5.86217
G1 X105.721 Y98.855 E5.88309
G1 X105.738 Y98.364 E5.90107
G1 X105.884 Y95.778 E5.99583
G1 X105.955 Y93.307 E6.08627
G1 X105.957 Y90.777 E6.17884
G1 X105.888 Y88.316 E6.26891
G1 X105.738 Y85.638 E6.36704
G1 X105.721 Y85.171 E6.38414
G1 X105.711 Y84.527 E6.4077
G1 X105.711 Y84.208 E6.41937
G1 X105.721 Y83.385 E6.44949
G1 X105.772 Y82.426 E6.48462
G1 X105.904 Y81.474 E6.51979
G1 X106.114 Y80.537 E6.55492
G1 X106.401 Y79.62 E6.59007
G1 X106.763 Y78.73 E6.62522
G1 X107.198 Y77.874 E6.66035
G1 X107.703 Y77.057 E6.69549
G0 F6000 X108.139 Y77.198
G1 F1200 X108.709 Y76.448 E6.72996
G1 X109.34 Y75.748 E6.76444
G1 X110.028 Y75.105 E6.79889
G1 X110.768 Y74.522 E6.83336
G1 X111.555 Y74.003 E6.86785
G1 X112.383 Y73.554 E6.90231
G1 X113.246 Y73.176 E6.93678
G1 X114.138 Y72.873 E6.97124
G1 X114.744 Y72.714 E6.99417
G1 X115.465 Y72.546 E7.02125
G1 X118.069 Y71.905 E7.11937
G1 X118.54 Y71.782 E7.13718
G1 X119.461 Y71.584 E7.17164
G1 X120.552 Y71.452 E7.21185
G1 X120.707 Y71.441 E7.21753
G1 X121.399 Y71.413 E7.24287
G1 X121.754 Y71.41 E7.25586
G1 X122.696 Y71.442 E7.29034
G1 X123.631 Y71.554 E7.3248
G1 X124.554 Y71.745 E7.35928
G1 X125.457 Y72.013 E7.39374
G1 X126.334 Y72.357 E7.42821
G1 X127.038 Y72.698 E7.45683
G1 X128.429 Y73.434 E7.5144
G1 X128.853 Y73.655 E7.5319
G1 X129.669 Y74.125 E7.56635
G1 X130.442 Y74.663 E7.60081
G1 X131.416 Y75.498 E7.64774
G1 X132.096 Y76.152 E7.68226
G1 X132.251 Y76.303 E7.69018
G1 X134.118 Y78.17 E7.78678
G1 X134.227 Y78.281 E7.79247
G1 X134.685 Y78.752 E7.81651
G1 X135.312 Y79.454 E7.85094
G1 X135.878 Y80.208 E7.88544
G1 X136.378 Y81.006 E7.91989
G1 X136.808 Y81.845 E7.95438
G1 X137.166 Y82.716 E7.98883
G1 X137.448 Y83.615 E8.02331
G1 X137.653 Y84.535 E8.05779
G1 X137.78 Y85.468 E8.09224
G1 X137.818 Y86.044 E8.11336
G1 X137.841 Y86.616 E8.1343
G1 X137.85 Y87.062 E8.15062
G1 X137.85 Y96.793 E8.50664
G1 X137.849 Y96.952 E8.51246
G1 X137.839 Y97.649 E8.53796
G1 X137.788 Y98.568 E8.57164
G1 X137.736 Y99.101 E8.59123
G1 X137.522 Y101.621 E8.68376
G1 X137.381 Y104.116 E8.77519
G1 X137.31 Y106.659 E8.86826
G1 X137.31 Y109.178 E8.96042
G1 X137.381 Y111.667 E9.05152
G1 X137.526 Y114.226 E9.1453
G1 X137.65 Y115.788 E9.20263
G1 X137.683 Y116.469 E9.22757
G1 X137.693 Y117.039 E9.24843
G1 X137.695 Y117.234 E9.25556
G1 X137.695 Y126.965 E9.61158
G1 X137.694 Y127.124 E9.6174
G1 X137.684 Y127.822 E9.64294
G1 X137.63 Y128.763 E9.67742
G1 X137.497 Y129.695 E9.71187
G1 X137.286 Y130.613 E9.74633
G1 X136.997 Y131.51 E9.78081
G1 X136.633 Y132.379 E9.81528
G1 X136.197 Y133.214 E9.84974
G1 X135.692 Y134.009 E9.8842
G1 X134.82 Y135.106 E9.93547
G1 X134.679 Y135.262 E9.94316
G1 X134.378 Y135.582 E9.95924
G1 X134.197 Y135.767 E9.9687
G1 X134.112 Y135.853 E9.97313
G1 X131.956 Y138.009 E10.08468
G1 X131.854 Y138.109 E10.08991
G1 X131.46 Y138.493 E10.11004
G1 X130.647 Y139.212 E10.14974
G1 X130.467 Y139.356 E10.15818
G1 X129.707 Y139.912 E10.19263
G1 X128.705 Y140.51 E10.23532
G1 X126.88 Y141.471 E10.31078
G1 X126.028 Y141.874 E10.34526
G1 X125.146 Y142.203 E10.37971
G1 X124.238 Y142.457 E10.4142
G1 X123.313 Y142.632 E10.44864
G1 X122.182 Y142.739 E10.49021
G1 X121.901 Y142.751 E10.5005
G1 X121.476 Y142.761 E10.51605
G1 X121.251 Y142.762 E10.52428
G1 X120.31 Y142.726 E10.55874
G1 X119.375 Y142.611 E10.5932
G1 X118.502 Y142.429 E10.62583
G1 X117.219 Y142.107 E10.67422
G1 X115.255 Y141.641 E10.74807
G1 X115.156 Y141.617 E10.7518
G1 X114.452 Y141.443 E10.77833
G1 X113.547 Y141.178 E10.81283
G1 X112.669 Y140.838 E10.84728
G1 X111.823 Y140.424 E10.88174
G1 X111.014 Y139.94 E10.91623
G1 X110.25 Y139.389 E10.95069
G1 X109.535 Y138.776 E10.98515
G1 X108.875 Y138.104 E11.01961
G1 X108.274 Y137.378 E11.05409
G1 X107.736 Y136.604 E11.08858
G1 X107.267 Y135.788 E11.12301
G1 X106.868 Y134.934 E11.1575
G1 X106.543 Y134.05 E11.19196
G1 X106.294 Y133.141 E11.22644
G1 X106.123 Y132.215 E11.26089
G1 X106.017 Y130.882 E11.30982
G1 X105.999 Y129.955 E11.34374
G1 X105.998 Y129.579 E11.35749
G1 X106.006 Y129.028 E11.37765
G1 X106.023 Y128.562 E11.39472
G1 X106.169 Y125.988 E11.48904
G1 X106.24 Y123.492 E11.5804
G1 X106.242 Y120.972 E11.67259
G1 X106.171 Y118.451 E11.76486
G1 X106.022 Y115.785 E11.86255
G1 X106.006 Y115.346 E11.87863
G1 X105.996 Y114.736 E11.90095
G1 X105.996 Y114.426 E11.91229
G1 X106.006 Y113.561 E11.94394
G1 X106.033 Y112.898 E11.96821
G1 X106.08 Y112.236 E11.99249
G1 X106.224 Y109.704 E12.08528
G1 X106.296 Y107.151 E12.17872
G1 X106.296 Y104.673 E12.26938
G1 X106.195 Y101.73 E12.37712
G1 X106.19 Y101.576 E12.38276
G1 X106.154 Y99.815 E12.4472
G1 X106.153 Y99.433 E12.46117
G1 X106.161 Y98.861 E12.4821
G1 X106.178 Y98.389 E12.49938
G1 X106.324 Y95.815 E12.59371
G1 X106.395 Y93.32 E12.68503
G1 X106.397 Y90.8 E12.77722
G1 X106.326 Y88.278 E12.86953
G1 X106.177 Y85.613 E12.96718
G1 X106.161 Y85.164 E12.98362
G1 X106.151 Y84.52 E13.00719
G1 X106.151 Y84.213 E13.01842
G1 X106.161 Y83.39 E13.04853
G1 X106.212 Y82.449 E13.08301
G1 X106.343 Y81.516 E13.11748
G1 X106.553 Y80.598 E13.15193
G1 X106.84 Y79.701 E13.18639
G1 X107.202 Y78.831 E13.22086
G1 X107.636 Y77.995 E13.25533
G1 X108.139 Y77.198 E13.28981
G0 F6000 X108.575 Y77.343
G1 F1200 X109.143 Y76.615 E13.32359
G1 X109.771 Y75.939 E13.35735
G1 X110.456 Y75.319 E13.39115
G1 X111.191 Y74.761 E13.42491
G1 X111.972 Y74.269 E13.45868
G1 X112.793 Y73.846 E13.49247
G1 X113.647 Y73.496 E13.52624
G1 X114.843 Y73.143 E13.57186
G1 X115.525 Y72.984 E13.59748
G1 X118.214 Y72.322 E13.6988
G1 X118.651 Y72.208 E13.71532
G1 X119.554 Y72.014 E13.74912
G1 X120.583 Y71.891 E13.78703
G1 X120.738 Y71.88 E13.79272
G1 X121.403 Y71.853 E13.81707
G1 X121.758 Y71.85 E13.83005
G1 X122.681 Y71.883 E13.86385
G1 X123.597 Y71.994 E13.8976
G1 X124.5 Y72.185 E13.93137
G1 X125.384 Y72.453 E13.96517
G1 X126.241 Y72.797 E13.99895
G1 X126.832 Y73.087 E14.02304
G1 X128.225 Y73.824 E14.0807
G1 X128.649 Y74.045 E14.09819
G1 X129.449 Y74.507 E14.13199
G1 X130.205 Y75.036 E14.16575
G1 X131.111 Y75.815 E14.20946
G1 X131.791 Y76.469 E14.24398
G1 X131.94 Y76.614 E14.25159
G1 X133.807 Y78.481 E14.34819
G1 X133.911 Y78.587 E14.35362
G1 X134.369 Y79.058 E14.37765
G1 X134.984 Y79.748 E14.41147
G1 X135.536 Y80.487 E14.44522
G1 X136.023 Y81.272 E14.47902
G1 X136.439 Y82.096 E14.51279
G1 X136.783 Y82.953 E14.54657
G1 X137.051 Y83.836 E14.58033
G1 X137.242 Y84.74 E14.61414
G1 X137.378 Y86.062 E14.66276
G1 X137.401 Y86.634 E14.6837
G1 X137.41 Y87.062 E14.69937
G1 X137.41 Y96.793 E15.05539
G1 X137.409 Y96.946 E15.06098
G1 X137.399 Y97.643 E15.08649
G1 X137.35 Y98.525 E15.11881
G1 X137.303 Y99.008 E15.13656
G1 X137.083 Y101.596 E15.23159
G1 X136.941 Y104.113 E15.32382
G1 X136.87 Y106.647 E15.41657
G1 X136.87 Y109.157 E15.5084
G1 X136.943 Y111.704 E15.60162
G1 X137.087 Y114.242 E15.69463
G1 X137.212 Y115.823 E15.75265
G1 X137.243 Y116.477 E15.7766
G1 X137.253 Y117.047 E15.79746
G1 X137.255 Y117.234 E15.8043
G1 X137.255 Y126.965 E16.16032
G1 X137.254 Y127.118 E16.16592
G1 X137.244 Y127.816 E16.19146
G1 X137.191 Y128.737 E16.22521
G1 X137.058 Y129.651 E16.259
G1 X136.847 Y130.55 E16.29279
G1 X136.558 Y131.427 E16.32657
G1 X136.195 Y132.276 E16.36035
G1 X135.76 Y133.09 E16.39412
G1 X135.256 Y133.864 E16.42791
G1 X134.493 Y134.811 E16.47241
G1 X134.352 Y134.967 E16.4801
G1 X134.064 Y135.274 E16.4955
G1 X133.883 Y135.459 E16.50497
G1 X133.801 Y135.542 E16.50924
G1 X131.645 Y137.698 E16.62079
G1 X131.547 Y137.794 E16.62581
G1 X131.153 Y138.178 E16.64594
G1 X130.372 Y138.868 E16.68407
G1 X130.192 Y139.012 E16.6925
G1 X129.447 Y139.557 E16.72627
G1 X128.5 Y140.12 E16.76658
G1 X126.675 Y141.081 E16.84204
G1 X125.84 Y141.476 E16.87584
G1 X124.974 Y141.796 E16.90961
G1 X124.084 Y142.041 E16.94339
G1 X123.176 Y142.207 E16.97716
G1 X122.163 Y142.299 E17.01437
G1 X121.882 Y142.311 E17.02466
G1 X121.474 Y142.321 E17.03959
G1 X121.249 Y142.322 E17.04782
G1 X120.327 Y142.286 E17.08158
G1 X119.411 Y142.17 E17.11536
G1 X118.609 Y142.002 E17.14534
G1 X117.34 Y141.684 E17.19321
G1 X115.357 Y141.213 E17.26777
G1 X115.261 Y141.19 E17.27139
G1 X114.557 Y141.016 E17.29792
G1 X113.671 Y140.755 E17.33171
G1 X112.811 Y140.42 E17.36548
G1 X111.984 Y140.011 E17.39923
G1 X111.194 Y139.532 E17.43303
G1 X110.45 Y138.986 E17.4668
G1 X109.755 Y138.378 E17.50058
G1 X109.115 Y137.712 E17.53437
G1 X108.535 Y136.994 E17.56814
G1 X108.02 Y136.228 E17.60191
G1 X107.573 Y135.42 E17.6357
G1 X107.198 Y134.576 E17.66949
G1 X106.897 Y133.704 E17.70324
G1 X106.672 Y132.808 E17.73704
G1 X106.526 Y131.896 E17.77083
G1 X106.457 Y130.874 E17.8083
G1 X106.439 Y129.947 E17.84222
G1 X106.438 Y129.585 E17.85547
G1 X106.446 Y129.034 E17.87563
G1 X106.462 Y128.587 E17.89199
G1 X106.607 Y126.025 E17.98588
G1 X106.68 Y123.47 E18.07939
G1 X106.682 Y120.96 E18.17123
G1 X106.611 Y118.415 E18.26437
G1 X106.462 Y115.761 E18.36163
G1 X106.446 Y115.339 E18.37708
G1 X106.436 Y114.729 E18.3994
G1 X106.436 Y114.431 E18.4103
G1 X106.446 Y113.566 E18.44195
G1 X106.472 Y112.93 E18.46524
G1 X106.517 Y112.295 E18.48853
G1 X106.664 Y109.706 E18.5834
G1 X106.736 Y107.164 E18.67644
G1 X106.736 Y104.687 E18.76706
G1 X106.634 Y101.715 E18.87586
G1 X106.63 Y101.567 E18.88128
G1 X106.594 Y99.806 E18.94572
G1 X106.593 Y99.439 E18.95915
G1 X106.601 Y98.867 E18.98008
G1 X106.617 Y98.414 E18.99666
G1 X106.762 Y95.853 E19.09051
G1 X106.835 Y93.298 E19.18402
G1 X106.837 Y90.789 E19.27582
G1 X106.766 Y88.242 E19.36904
G1 X106.617 Y85.589 E19.46626
G1 X106.601 Y85.158 E19.48204
G1 X106.591 Y84.514 E19.5056
G1 X106.591 Y84.218 E19.51643
G1 X106.601 Y83.395 E19.54654
G1 X106.652 Y82.474 E19.58029
G1 X106.783 Y81.56 E19.61407
G1 X106.992 Y80.66 E19.64787
G1 X107.278 Y79.783 E19.68162
G1 X107.64 Y78.933 E19.71542
G1 X108.073 Y78.118 E19.74919
G1 X108.575 Y77.343 E19.78297
G0 F6000 X109.011 Y77.491
G1 F1200 X109.577 Y76.786 E19.81605
G1 X110.202 Y76.133 E19.84912
G1 X110.883 Y75.539 E19.88218
G1 X111.614 Y75.006 E19.91528
G1 X112.388 Y74.541 E19.94831
G1 X113.201 Y74.145 E19.9814
G1 X114.046 Y73.823 E20.01448
G1 X114.943 Y73.571 E20.04857
G1 X115.716 Y73.391 E20.07761
G1 X118.288 Y72.758 E20.17452
G1 X118.762 Y72.634 E20.19244
G1 X119.646 Y72.445 E20.22552
G1 X120.615 Y72.33 E20.26122
G1 X120.77 Y72.319 E20.2669
G1 X121.407 Y72.293 E20.29023
G1 X121.762 Y72.29 E20.30322
G1 X122.665 Y72.323 E20.33627
G1 X123.562 Y72.435 E20.36935
G1 X124.446 Y72.626 E20.40244
G1 X125.309 Y72.894 E20.4355
G1 X126.145 Y73.237 E20.46856
G1 X126.627 Y73.476 E20.48824
G1 X128.022 Y74.214 E20.54598
G1 X128.446 Y74.435 E20.56347
G1 X129.228 Y74.888 E20.59654
G1 X129.967 Y75.408 E20.6296
G1 X130.806 Y76.132 E20.67014
G1 X131.486 Y76.786 E20.70466
G1 X131.629 Y76.925 E20.71196
G1 X133.496 Y78.792 E20.80856
G1 X133.596 Y78.894 E20.81378
G1 X134.054 Y79.365 E20.83782
G1 X134.655 Y80.041 E20.87091
G1 X135.194 Y80.766 E20.90396
G1 X135.667 Y81.537 E20.93706
G1 X136.069 Y82.346 E20.97011
G1 X136.399 Y83.188 E21.00319
G1 X136.653 Y84.056 E21.03628
G1 X136.829 Y84.942 E21.06933
G1 X136.939 Y86.079 E21.11112
G1 X136.962 Y86.651 E21.13207
G1 X136.97 Y87.062 E21.14711
G1 X136.97 Y96.793 E21.50313
G1 X136.969 Y96.94 E21.50851
