;FLAVOR:Marlin
;TIME:1130
;Filament used: 0.546918m
;Layer height: 0.2
;MINX:99
;MINY:95.167
;MINZ:0.2
;MAXX:136
;MAXY:150.167
;MAXZ:10
;Generated with Cura_SteamEngine 4.8.0
M140 S60
M105
M190 S60
M104 S190
M105
M109 S190
M82 ;absolute extrusion mode
; Ender 3 Custom Start G-code
G92 E0 ; Reset Extruder
G28 ; Home all axes
M420 S1  ; use saved bed leveling
G1 Z2.0 F3000 ; Move Z Axis up little to prevent scratching of Heat Bed
G1 X0.1 Y20 Z0.3 F5000.0 ; Move to start position
G1 X0.1 Y200.0 Z0.3 F1500.0 E15 ; Draw the first line
G1 X0.4 Y200.0 Z0.3 F5000.0 ; Move to side a little
G1 X0.4 Y20 Z0.3 F1500.0 E30 ; Draw the second line
G92 E0 ; Reset Extruder
G1 Z2.0 F3000 ; Move Z Axis up little to prevent scratching of Heat Bed
G1 X5 Y20 Z0.3 F5000.0 ; Move over to prevent blob squish
G92 E0
G92 E0
G1 F2700 E-5
;LAYER_COUNT:50
;LAYER:0
M107
G0 F6000 X102.198 Y98.431 Z0.2
;TYPE:SKIRT
G1 F2700 E0
G1 F1200 X102.886 Y97.794 E0.03119
G1 X103.626 Y97.218 E0.06237
G1 X104.412 Y96.706 E0.09357
G1 X105.239 Y96.264 E0.12476
G1 X106.101 Y95.894 E0.15596
G1 X106.991 Y95.598 E0.18716
G1 X107.903 Y95.38 E0.21835
G1 X108.83 Y95.239 E0.24953
G1 X109.701 Y95.18 E0.27857
G1 X110.022 Y95.171 E0.28925
G1 X110.33 Y95.167 E0.29949
G1 X114.293 Y95.167 E0.4313
G1 X115.152 Y95.178 E0.45988
G1 X116.088 Y95.231 E0.49106
G1 X117.016 Y95.364 E0.52224
G1 X117.93 Y95.576 E0.55345
G1 X118.823 Y95.864 E0.58465
G1 X119.687 Y96.228 E0.61584
G1 X120.518 Y96.664 E0.64705
G1 X121.308 Y97.169 E0.67823
G1 X122.052 Y97.739 E0.70941
G1 X122.745 Y98.371 E0.7406
G1 X123.382 Y99.06 E0.77181
G1 X124.107 Y100.015 E0.81169
G1 X124.562 Y100.689 E0.83874
G1 X125.336 Y101.865 E0.88556
G1 X126.762 Y103.907 E0.9684
G1 X128.257 Y105.923 E1.05188
G1 X129.827 Y107.918 E1.13632
G1 X131.436 Y109.85 E1.21994
G1 X133.178 Y111.827 E1.30758
G1 X133.774 Y112.551 E1.33877
G1 X134.306 Y113.323 E1.36995
G1 X134.771 Y114.138 E1.40116
G1 X135.164 Y114.99 E1.43237
G1 X135.483 Y115.871 E1.46353
G1 X135.726 Y116.777 E1.49473
G1 X135.891 Y117.7 E1.52592
G1 X135.985 Y118.834 E1.56377
G1 X135.995 Y119.159 E1.57458
G1 X136 Y119.497 E1.58582
G1 X135.999 Y138.567 E2.22009
G1 X135.99 Y139.294 E2.24428
G1 X135.939 Y140.231 E2.27549
G1 X135.807 Y141.159 E2.30666
G1 X135.598 Y142.073 E2.33785
G1 X135.311 Y142.966 E2.36904
G1 X134.949 Y143.832 E2.40026
G1 X134.515 Y144.663 E2.43144
G1 X134.011 Y145.454 E2.46264
G1 X133.442 Y146.199 E2.49382
G1 X132.811 Y146.894 E2.52504
G1 X132.124 Y147.532 E2.55622
G1 X131.385 Y148.109 E2.58741
G1 X130.599 Y148.621 E2.61861
G1 X129.773 Y149.064 E2.64978
G1 X128.911 Y149.436 E2.68101
G1 X128.022 Y149.732 E2.71217
G1 X127.11 Y149.952 E2.74338
G1 X126.183 Y150.093 E2.77456
G1 X125.299 Y150.154 E2.80404
G1 X124.978 Y150.163 E2.81472
G1 X124.67 Y150.167 E2.82496
G1 X115.565 Y150.166 E3.12779
G1 X114.867 Y150.157 E3.15101
G1 X113.931 Y150.105 E3.18219
G1 X113.002 Y149.973 E3.2134
G1 X112.088 Y149.763 E3.24459
G1 X111.195 Y149.476 E3.27579
G1 X110.33 Y149.113 E3.30699
G1 X109.499 Y148.679 E3.33817
G1 X108.708 Y148.175 E3.36937
G1 X107.963 Y147.605 E3.40057
G1 X107.269 Y146.974 E3.43176
G1 X106.632 Y146.287 E3.46292
G1 X106.055 Y145.547 E3.49413
G1 X105.543 Y144.761 E3.52533
G1 X105.1 Y143.934 E3.55654
G1 X104.729 Y143.073 E3.58772
G1 X104.433 Y142.183 E3.61892
G1 X104.214 Y141.271 E3.65011
G1 X104.073 Y140.344 E3.6813
G1 X104.013 Y139.455 E3.71093
G1 X104 Y138.915 E3.7289
G1 X103.997 Y138.55 E3.74104
G1 X103.942 Y136.03 E3.82488
G1 X103.817 Y133.513 E3.90869
G1 X103.621 Y131.017 E3.99197
G1 X103.349 Y128.463 E4.07739
G1 X103.111 Y126.66 E4.13788
G1 X103.032 Y126.106 E4.1565
G1 X102.637 Y123.586 E4.24133
G1 X102.172 Y121.084 E4.32598
G1 X101.646 Y118.639 E4.40916
G1 X101.043 Y116.181 E4.49334
G1 X100.372 Y113.743 E4.57744
G1 X99.583 Y111.17 E4.66695
G1 X99.549 Y111.065 E4.67062
G1 X99.297 Y110.161 E4.70183
G1 X99.123 Y109.24 E4.73301
G1 X99.015 Y107.994 E4.77461
G1 X99.005 Y107.66 E4.78572
G1 X99 Y107.331 E4.79666
G1 X99.001 Y106.692 E4.81792
G1 X99.01 Y106.027 E4.84004
G1 X99.063 Y105.091 E4.87122
G1 X99.195 Y104.162 E4.90243
G1 X99.406 Y103.248 E4.93363
G1 X99.694 Y102.356 E4.9648
G1 X100.057 Y101.491 E4.996
G1 X100.492 Y100.66 E5.0272
G1 X100.996 Y99.87 E5.05837
G1 X101.566 Y99.125 E5.08957
G1 X102.198 Y98.431 E5.12079
G0 F6000 X102.589 Y98.606
G1 F1200 X103.274 Y97.99 E5.15143
G1 X104.01 Y97.437 E5.18205
G1 X104.791 Y96.949 E5.21268
G1 X105.611 Y96.531 E5.24329
G1 X106.465 Y96.186 E5.27392
G1 X107.345 Y95.916 E5.30454
G1 X108.245 Y95.724 E5.33515
G1 X109.159 Y95.61 E5.36578
G1 X109.712 Y95.58 E5.3842
G1 X110.033 Y95.571 E5.39488
G1 X110.33 Y95.567 E5.40476
G1 X114.293 Y95.567 E5.53657
G1 X115.146 Y95.578 E5.56495
G1 X116.065 Y95.631 E5.59556
G1 X116.976 Y95.764 E5.62618
G1 X117.872 Y95.975 E5.6568
G1 X118.747 Y96.263 E5.68744
G1 X119.593 Y96.626 E5.71806
G1 X120.404 Y97.061 E5.74867
G1 X121.175 Y97.565 E5.7793
G1 X121.899 Y98.133 E5.80991
G1 X122.571 Y98.763 E5.84055
G1 X123.185 Y99.448 E5.87114
G1 X123.776 Y100.239 E5.90398
G1 X124.228 Y100.909 E5.93086
G1 X125.006 Y102.092 E5.97796
G1 X126.429 Y104.128 E6.06058
G1 X127.95 Y106.181 E6.14556
G1 X129.507 Y108.159 E6.22928
G1 X131.13 Y110.107 E6.31361
G1 X132.88 Y112.094 E6.40168
G1 X133.465 Y112.805 E6.4323
G1 X133.985 Y113.565 E6.46293
G1 X134.438 Y114.366 E6.49354
G1 X134.819 Y115.204 E6.52415
G1 X135.127 Y116.072 E6.55479
G1 X135.357 Y116.963 E6.58539
G1 X135.51 Y117.871 E6.61602
G1 X135.585 Y118.846 E6.64854
G1 X135.595 Y119.171 E6.65936
G1 X135.6 Y119.497 E6.6702
G1 X135.599 Y138.562 E7.30431
G1 X135.59 Y139.289 E7.32849
G1 X135.539 Y140.208 E7.3591
G1 X135.408 Y141.12 E7.38975
G1 X135.198 Y142.016 E7.42036
G1 X134.912 Y142.891 E7.45097
G1 X134.551 Y143.738 E7.4816
G1 X134.117 Y144.55 E7.51222
G1 X133.615 Y145.322 E7.54285
G1 X133.047 Y146.047 E7.57348
G1 X132.419 Y146.72 E7.6041
G1 X131.735 Y147.336 E7.63471
G1 X131 Y147.89 E7.66533
G1 X130.22 Y148.379 E7.69594
G1 X129.4 Y148.798 E7.72657
G1 X128.547 Y149.144 E7.75719
G1 X127.667 Y149.415 E7.78781
G1 X126.767 Y149.608 E7.81843
G1 X125.853 Y149.723 E7.84907
G1 X125.288 Y149.754 E7.86789
G1 X124.967 Y149.763 E7.87857
G1 X124.67 Y149.767 E7.88845
G1 X115.57 Y149.766 E8.19112
G1 X114.872 Y149.757 E8.21433
G1 X113.953 Y149.705 E8.24495
G1 X113.042 Y149.574 E8.27556
G1 X112.146 Y149.364 E8.30617
G1 X111.271 Y149.077 E8.3368
G1 X110.424 Y148.715 E8.36743
G1 X109.612 Y148.281 E8.39806
G1 X108.841 Y147.779 E8.42866
G1 X108.116 Y147.211 E8.45929
G1 X107.443 Y146.582 E8.48993
G1 X106.828 Y145.898 E8.52052
G1 X106.274 Y145.163 E8.55113
G1 X105.786 Y144.382 E8.58176
G1 X105.367 Y143.562 E8.61239
G1 X105.021 Y142.709 E8.64301
G1 X104.751 Y141.829 E8.67362
G1 X104.558 Y140.928 E8.70427
G1 X104.444 Y140.015 E8.73487
G1 X104.413 Y139.444 E8.75389
G1 X104.4 Y138.912 E8.77159
G1 X104.398 Y138.627 E8.78107
G1 X104.341 Y136 E8.86847
G1 X104.216 Y133.495 E8.95189
G1 X104.016 Y130.943 E9.03703
G1 X103.75 Y128.452 E9.12035
G1 X103.492 Y126.497 E9.18594
G1 X103.43 Y126.064 E9.20048
G1 X103.026 Y123.482 E9.28741
G1 X102.571 Y121.039 E9.37006
G1 X102.032 Y118.531 E9.45538
G1 X101.429 Y116.072 E9.53959
G1 X100.766 Y113.666 E9.6226
G1 X99.961 Y111.039 E9.71398
G1 X99.929 Y110.941 E9.71741
G1 X99.683 Y110.054 E9.74802
G1 X99.514 Y109.149 E9.77864
G1 X99.415 Y107.982 E9.8176
G1 X99.405 Y107.648 E9.82871
G1 X99.4 Y107.331 E9.83926
G1 X99.401 Y106.698 E9.86031
G1 X99.41 Y106.033 E9.88243
G1 X99.462 Y105.113 E9.91308
G1 X99.594 Y104.202 E9.9437
G1 X99.805 Y103.306 E9.97431
G1 X100.092 Y102.431 E10.00494
G1 X100.455 Y101.585 E10.03556
G1 X100.889 Y100.773 E10.06618
G1 X101.392 Y100.002 E10.0968
G1 X101.961 Y99.278 E10.12743
G1 X102.589 Y98.606 E10.15802
G0 F6000 X102.981 Y98.784
G1 F1200 X103.662 Y98.191 E10.18805
G1 X104.394 Y97.661 E10.21811
G1 X105.169 Y97.198 E10.24814
G1 X105.982 Y96.805 E10.27817
G1 X106.827 Y96.485 E10.30822
G1 X107.696 Y96.242 E10.33824
G1 X108.584 Y96.076 E10.36828
G1 X109.723 Y95.98 E10.4063
G1 X110.044 Y95.971 E10.41698
G1 X110.33 Y95.967 E10.42649
G1 X114.293 Y95.967 E10.5583
G1 X115.14 Y95.978 E10.58648
G1 X116.042 Y96.031 E10.61653
G1 X116.935 Y96.163 E10.64655
G1 X117.813 Y96.374 E10.67659
G1 X118.669 Y96.662 E10.70663
G1 X119.497 Y97.024 E10.73668
G1 X120.289 Y97.458 E10.76672
G1 X121.039 Y97.961 E10.79676
G1 X121.742 Y98.527 E10.82677
G1 X122.392 Y99.154 E10.85681
G1 X122.984 Y99.836 E10.88685
G1 X123.444 Y100.463 E10.91271
G1 X123.893 Y101.129 E10.93943
G1 X124.644 Y102.271 E10.98489
G1 X126.129 Y104.396 E11.07112
G1 X127.63 Y106.42 E11.15493
G1 X129.2 Y108.417 E11.23941
G1 X130.801 Y110.339 E11.32261
G1 X132.583 Y112.361 E11.41226
G1 X133.155 Y113.059 E11.44227
G1 X133.664 Y113.805 E11.47231
G1 X134.105 Y114.594 E11.50237
G1 X134.474 Y115.418 E11.5324
G1 X134.769 Y116.271 E11.56242
G1 X134.987 Y117.148 E11.59248
G1 X135.127 Y118.04 E11.62251
G1 X135.185 Y118.858 E11.64978
G1 X135.195 Y119.183 E11.6606
G1 X135.2 Y119.497 E11.67104
G1 X135.199 Y138.557 E12.30498
G1 X135.19 Y139.284 E12.32916
G1 X135.139 Y140.186 E12.35921
G1 X135.008 Y141.08 E12.38926
G1 X134.799 Y141.958 E12.41928
G1 X134.513 Y142.815 E12.44933
G1 X134.152 Y143.643 E12.47937
G1 X133.72 Y144.435 E12.50938
G1 X133.219 Y145.187 E12.53943
G1 X132.653 Y145.891 E12.56948
G1 X132.028 Y146.542 E12.59949
G1 X131.347 Y147.136 E12.62955
G1 X130.616 Y147.667 E12.6596
G1 X129.842 Y148.131 E12.68962
G1 X129.029 Y148.525 E12.71966
G1 X128.185 Y148.845 E12.74969
G1 X127.315 Y149.09 E12.77975
G1 X126.428 Y149.256 E12.80976
G1 X125.277 Y149.354 E12.84818
G1 X124.956 Y149.363 E12.85886
G1 X124.67 Y149.367 E12.86838
G1 X115.575 Y149.366 E13.17088
G1 X114.877 Y149.357 E13.19409
G1 X113.976 Y149.306 E13.22411
G1 X113.082 Y149.174 E13.25417
G1 X112.204 Y148.965 E13.28419
G1 X111.347 Y148.678 E13.31425
G1 X110.52 Y148.317 E13.34426
G1 X109.727 Y147.884 E13.37431
G1 X108.976 Y147.383 E13.40434
G1 X108.272 Y146.817 E13.43438
G1 X107.621 Y146.191 E13.46442
G1 X107.028 Y145.51 E13.49445
G1 X106.498 Y144.779 E13.52448
G1 X106.034 Y144.004 E13.55453
G1 X105.64 Y143.191 E13.58458
G1 X105.32 Y142.347 E13.6146
G1 X105.076 Y141.477 E13.64465
G1 X104.91 Y140.589 E13.6747
G1 X104.813 Y139.434 E13.71325
G1 X104.8 Y138.909 E13.73071
G1 X104.798 Y138.614 E13.74053
G1 X104.741 Y135.972 E13.82842
G1 X104.616 Y133.479 E13.91144
G1 X104.414 Y130.906 E13.99728
G1 X104.147 Y128.397 E14.0812
G1 X103.896 Y126.496 E14.14498
G1 X103.827 Y126.013 E14.16121
G1 X103.42 Y123.418 E14.24857
G1 X102.961 Y120.946 E14.3322
G1 X102.427 Y118.465 E14.41661
G1 X101.819 Y115.983 E14.5016
G1 X101.139 Y113.516 E14.58671
G1 X100.361 Y110.978 E14.675
G1 X100.309 Y110.818 E14.6806
G1 X100.069 Y109.947 E14.71065
G1 X99.906 Y109.059 E14.74068
G1 X99.815 Y107.97 E14.77702
G1 X99.805 Y107.636 E14.78814
G1 X99.8 Y107.331 E14.79828
G1 X99.801 Y106.703 E14.81917
G1 X99.81 Y106.038 E14.84129
G1 X99.862 Y105.136 E14.87134
G1 X99.994 Y104.243 E14.90136
G1 X100.204 Y103.365 E14.93139
G1 X100.491 Y102.508 E14.96145
G1 X100.853 Y101.681 E14.99147
G1 X101.286 Y100.889 E15.0215
G1 X101.788 Y100.138 E15.05154
G1 X102.355 Y99.434 E15.08161
G1 X102.981 Y98.784 E15.11162
G1 F2700 E10.11162
;MESH:ccf37779-c5dc-4db2-b9be-d201bcae1983.stl
G0 F6000 X110.314 Y105.502
G0 X110.314 Y106.481
G0 X114.4 Y107.067
;TYPE:WALL-INNER
G1 F2700 E15.11162
G1 F1200 X110.6 Y107.067 E15.23801
G1 X110.6 Y106.767 E15.24799
G1 X114.4 Y106.767 E15.34302
G1 X114.4 Y107.067 E15.353
G1 F2700 E10.353
G0 F6000 X114.782 Y124.385
G0 X115.328 Y124.839
G0 X115.6 Y138.567
G1 F2700 E15.353
G1 F1200 X115.6 Y124.567 E15.81864
G1 X114.6 Y124.567 E15.8519
G1 X114.6 Y119.767 E16.01155
G1 X124.4 Y119.767 E16.3375
G1 X124.4 Y138.567 E16.96279
G1 X115.6 Y138.567 E17.25547
G0 F6000 X115.2 Y138.967
;TYPE:WALL-OUTER
G1 F1200 X115.2 Y124.967 E17.72112
G1 X114.2 Y124.967 E17.75438
G1 X114.2 Y107.467 E18.33643
G1 X110.2 Y107.467 E18.46947
G1 X110.2 Y106.367 E18.50606
G1 X114.8 Y106.367 E18.65905
G1 X114.8 Y119.367 E19.09143
G1 X124.8 Y119.367 E19.42404
G1 X124.8 Y138.967 E20.07593
G1 X115.2 Y138.967 E20.39523
G0 F6000 X115.37 Y138.797
G0 X115.71 Y138.177
G0 X115.99 Y138.177
;TYPE:SKIN
G1 F1200 X115.99 Y124.177 E20.86087
G1 X114.99 Y124.177 E20.89413
G1 X114.99 Y120.157 E21.02784
G1 X124.01 Y120.157 E21.32785
G1 X124.01 Y138.177 E21.92719
G1 X115.99 Y138.177 E22.19394
G0 F6000 X116.519 Y138.015
G1 F1200 X116.15 Y137.646 E22.2113
G0 F6000 X116.15 Y137.08
G1 F1200 X117.085 Y138.015 E22.25528
G0 F6000 X117.651 Y138.015
G1 F1200 X116.15 Y136.514 E22.32588
G0 F6000 X116.15 Y135.949
G1 F1200 X118.216 Y138.015 E22.42306
G0 F6000 X118.782 Y138.015
G1 F1200 X116.15 Y135.383 E22.54686
G0 F6000 X116.15 Y134.817
G1 F1200 X119.348 Y138.015 E22.69728
G0 F6000 X119.913 Y138.015
G1 F1200 X116.15 Y134.252 E22.87428
G0 F6000 X116.15 Y133.686
G1 F1200 X120.479 Y138.015 E23.0779
G0 F6000 X121.045 Y138.015
G1 F1200 X116.15 Y133.12 E23.30815
G0 F6000 X116.15 Y132.554
G1 F1200 X121.611 Y138.015 E23.56502
G0 F6000 X122.176 Y138.015
G1 F1200 X116.15 Y131.989 E23.84846
G0 F6000 X116.15 Y131.423
G1 F1200 X122.742 Y138.015 E24.15853
G0 F6000 X123.308 Y138.015
G1 F1200 X116.15 Y130.857 E24.49522
G0 F6000 X116.15 Y130.292
G1 F1200 X123.849 Y137.991 E24.85736
G0 F6000 X123.849 Y137.426
G1 F1200 X116.15 Y129.726 E25.21952
G0 F6000 X116.15 Y129.16
G1 F1200 X123.849 Y136.86 E25.58168
G0 F6000 X123.849 Y136.294
G1 F1200 X116.15 Y128.595 E25.94382
G0 F6000 X116.15 Y128.029
G1 F1200 X123.849 Y135.729 E26.30598
G0 F6000 X123.849 Y135.163
G1 F1200 X116.15 Y127.463 E26.66814
G0 F6000 X116.15 Y126.898
G1 F1200 X123.849 Y134.597 E27.03028
G0 F6000 X123.849 Y134.032
G1 F1200 X116.15 Y126.332 E27.39244
G0 F6000 X116.15 Y125.766
G1 F1200 X123.849 Y133.466 E27.7546
G0 F6000 X123.849 Y132.9
G1 F1200 X116.15 Y125.201 E28.11674
G0 F6000 X116.15 Y124.635
G1 F1200 X123.849 Y132.335 E28.4789
G0 F6000 X123.849 Y131.769
G1 F1200 X116.15 Y124.069 E28.84106
G0 F6000 X116.096 Y124.015
G1 F1200 X115.15 Y123.069 E28.88556
G0 F6000 X115.15 Y122.504
G1 F1200 X123.849 Y131.203 E29.29473
G0 F6000 X123.849 Y130.637
G1 F1200 X115.15 Y121.938 E29.7039
G0 F6000 X115.15 Y121.372
G1 F1200 X123.849 Y130.072 E30.1131
G0 F6000 X123.849 Y129.506
G1 F1200 X115.15 Y120.807 E30.52228
G0 F6000 X115.225 Y120.317
G1 F1200 X123.849 Y128.94 E30.9279
G0 F6000 X123.849 Y128.375
G1 F1200 X115.791 Y120.317 E31.30692
G0 F6000 X116.357 Y120.317
G1 F1200 X123.849 Y127.809 E31.65932
G0 F6000 X123.849 Y127.243
G1 F1200 X116.922 Y120.317 E31.98512
G0 F6000 X117.488 Y120.317
G1 F1200 X123.849 Y126.678 E32.28433
G0 F6000 X123.849 Y126.112
G1 F1200 X118.054 Y120.317 E32.55691
G0 F6000 X118.619 Y120.317
G1 F1200 X123.849 Y125.546 E32.80289
G0 F6000 X123.849 Y124.981
G1 F1200 X119.185 Y120.317 E33.02227
G0 F6000 X119.751 Y120.317
G1 F1200 X123.849 Y124.415 E33.21502
G0 F6000 X123.849 Y123.849
G1 F1200 X120.317 Y120.317 E33.38116
G0 F6000 X120.882 Y120.317
G1 F1200 X123.849 Y123.284 E33.52072
G0 F6000 X123.849 Y122.718
G1 F1200 X121.448 Y120.317 E33.63365
G0 F6000 X122.014 Y120.317
G1 F1200 X123.849 Y122.152 E33.71996
G0 F6000 X123.849 Y121.587
G1 F1200 X122.579 Y120.317 E33.7797
G0 F6000 X123.145 Y120.317
G1 F1200 X123.849 Y121.021 E33.81282
G0 F6000 X123.849 Y120.455
G1 F1200 X123.711 Y120.317 E33.81931
G0 F6000 X123.711 Y119.877
G0 X114.782 Y119.949
G0 X114.782 Y124.385
G0 X115.53 Y124.457
G0 X115.53 Y124.015
G1 F1200 X115.15 Y123.635 E33.83718
G0 F6000 X114.71 Y123.635
G0 X114.515 Y119.606
G0 X114.444 Y119.535
;TYPE:SKIN
G1 F1200 X114.499 Y119.307 E33.8421
G1 X114.499 Y107.428 E34.09148
G1 X114.602 Y107.249 E34.09582
G0 F6000 X114.582 Y107.085
;MESH:NONMESH
G0 F300 X114.582 Y107.085 Z0.4
G0 F6000 X114.4 Y107.067
;TIME_ELAPSED:62.602987
;LAYER:1
M106 S85
;TYPE:WALL-INNER
;MESH:ccf37779-c5dc-4db2-b9be-d201bcae1983.stl
G1 F1200 X110.6 Y107.067 E34.2222
G1 X110.6 Y106.767 E34.23218
G1 X114.4 Y106.767 E34.32721
G1 X114.4 Y107.067 E34.33719
G1 F2700 E29.33719
G0 F7500 X114.782 Y124.385
G0 X115.328 Y124.839
G0 X115.6 Y138.567
G1 F2700 E34.33719
G1 F1200 X115.6 Y124.567 E34.80283
G1 X114.6 Y124.567 E34.83609
G1 X114.6 Y119.767 E34.99574
G1 X124.4 Y119.767 E35.32169
G1 X124.4 Y138.567 E35.94698
