;FLAVOR:Marlin
;TIME:843
;Filament used: 0.49762m
;Layer height: 0.2
;MINX:98
;MINY:102.5
;MINZ:0.2
;MAXX:142.8
;MAXY:134.5
;MAXZ:10.8
;Generated with Cura_SteamEngine 4.8.0
M140 S60
M105
M190 S60
M104 S190
M105
M109 S190
M82 ;absolute extrusion mode
; Ender 3 Custom Start G-code
G92 E0 ; Reset Extruder
G28 ; Home all axes
M420 S1  ; use saved bed leveling
G1 Z2.0 F3000 ; Move Z Axis up little to prevent scratching of Heat Bed
G1 X0.1 Y20 Z0.3 F5000.0 ; Move to start position
G1 X0.1 Y200.0 Z0.3 F1500.0 E15 ; Draw the first line
G1 X0.4 Y200.0 Z0.3 F5000.0 ; Move to side a little
G1 X0.4 Y20 Z0.3 F1500.0 E30 ; Draw the second line
G92 E0 ; Reset Extruder
G1 Z2.0 F3000 ; Move Z Axis up little to prevent scratching of Heat Bed
G1 X5 Y20 Z0.3 F5000.0 ; Move over to prevent blob squish
G92 E0
G92 E0
G1 F2700 E-5
;LAYER_COUNT:54
;LAYER:0
M107
G0 F6000 X101.198 Y105.764 Z0.2
;TYPE:SKIRT
G1 F2700 E0
G1 F1200 X101.886 Y105.127 E0.03119
G1 X102.626 Y104.551 E0.06237
G1 X103.412 Y104.039 E0.09357
G1 X104.239 Y103.597 E0.12476
G1 X105.101 Y103.227 E0.15596
G1 X105.991 Y102.931 E0.18716
G1 X106.903 Y102.713 E0.21835
G1 X107.83 Y102.572 E0.24953
G1 X108.701 Y102.513 E0.27857
G1 X109.022 Y102.504 E0.28925
G1 X109.33 Y102.5 E0.29949
G1 X128.293 Y102.5 E0.93021
G1 X129.149 Y102.511 E0.95868
G1 X130.085 Y102.565 E0.98986
G1 X131.013 Y102.697 E1.02104
G1 X131.927 Y102.909 E1.05225
G1 X132.819 Y103.198 E1.08343
G1 X133.684 Y103.561 E1.11463
G1 X134.514 Y103.997 E1.14582
G1 X135.305 Y104.502 E1.17703
G1 X136.049 Y105.073 E1.20822
G1 X136.742 Y105.705 E1.23942
G1 X137.379 Y106.393 E1.2706
G1 X137.954 Y107.134 E1.3018
G1 X138.465 Y107.92 E1.33298
G1 X138.907 Y108.748 E1.3642
G1 X139.276 Y109.61 E1.39538
G1 X139.571 Y110.5 E1.42657
G1 X139.789 Y111.412 E1.45776
G1 X139.929 Y112.34 E1.48897
G1 X139.987 Y113.201 E1.51767
G1 X139.996 Y113.521 E1.52832
G1 X140 Y113.83 E1.5386
G1 X139.999 Y122.9 E1.84027
G1 X139.99 Y123.627 E1.86445
G1 X139.939 Y124.564 E1.89566
G1 X139.807 Y125.492 E1.92684
G1 X139.598 Y126.406 E1.95802
G1 X139.311 Y127.299 E1.98922
G1 X138.949 Y128.165 E2.02044
G1 X138.515 Y128.996 E2.05162
G1 X138.011 Y129.787 E2.08281
G1 X137.442 Y130.532 E2.11399
G1 X136.811 Y131.227 E2.14522
G1 X136.124 Y131.865 E2.1764
G1 X135.385 Y132.442 E2.20758
G1 X134.599 Y132.954 E2.23878
G1 X133.773 Y133.397 E2.26996
G1 X132.911 Y133.769 E2.30118
G1 X132.022 Y134.065 E2.33235
G1 X131.11 Y134.285 E2.36355
G1 X130.183 Y134.426 E2.39474
G1 X129.299 Y134.487 E2.42421
G1 X128.978 Y134.496 E2.43489
G1 X128.67 Y134.5 E2.44513
G1 X109.565 Y134.499 E3.08057
G1 X108.867 Y134.49 E3.10379
G1 X107.931 Y134.438 E3.13497
G1 X107.002 Y134.306 E3.16618
G1 X106.088 Y134.096 E3.19737
G1 X105.195 Y133.809 E3.22857
G1 X104.33 Y133.446 E3.25977
G1 X103.499 Y133.012 E3.29095
G1 X102.708 Y132.508 E3.32214
G1 X101.963 Y131.938 E3.35334
G1 X101.269 Y131.307 E3.38454
G1 X100.632 Y130.62 E3.4157
G1 X100.055 Y129.88 E3.44691
G1 X99.543 Y129.094 E3.47811
G1 X99.1 Y128.267 E3.50931
G1 X98.729 Y127.406 E3.5405
G1 X98.433 Y126.516 E3.57169
G1 X98.214 Y125.604 E3.60289
G1 X98.073 Y124.677 E3.63407
G1 X98.013 Y123.788 E3.66371
G1 X98.004 Y123.455 E3.67479
G1 X98 Y123.158 E3.68467
G1 X98.001 Y114.025 E3.98843
G1 X98.01 Y113.36 E4.01055
G1 X98.063 Y112.424 E4.04173
G1 X98.195 Y111.495 E4.07294
G1 X98.406 Y110.581 E4.10414
G1 X98.694 Y109.689 E4.13532
G1 X99.057 Y108.824 E4.16652
G1 X99.492 Y107.993 E4.19772
G1 X99.996 Y107.203 E4.22888
G1 X100.566 Y106.458 E4.26008
G1 X101.198 Y105.764 E4.2913
G0 F6000 X101.589 Y105.939
G1 F1200 X102.274 Y105.323 E4.32194
G1 X103.01 Y104.77 E4.35256
G1 X103.791 Y104.282 E4.38319
G1 X104.611 Y103.864 E4.41381
G1 X105.465 Y103.519 E4.44444
G1 X106.345 Y103.249 E4.47506
G1 X107.245 Y103.057 E4.50566
G1 X108.159 Y102.943 E4.5363
G1 X108.712 Y102.913 E4.55472
G1 X109.033 Y102.904 E4.5654
G1 X109.33 Y102.9 E4.57528
G1 X128.293 Y102.9 E5.20599
G1 X129.143 Y102.911 E5.23426
G1 X130.062 Y102.964 E5.26488
G1 X130.973 Y103.097 E5.2955
G1 X131.869 Y103.308 E5.32612
G1 X132.743 Y103.596 E5.35673
G1 X133.59 Y103.959 E5.38737
G1 X134.401 Y104.394 E5.41798
G1 X135.171 Y104.898 E5.44859
G1 X135.895 Y105.467 E5.47922
G1 X136.567 Y106.097 E5.50986
G1 X137.182 Y106.782 E5.54047
G1 X137.735 Y107.518 E5.57109
G1 X138.222 Y108.299 E5.60171
G1 X138.639 Y109.12 E5.63233
G1 X138.984 Y109.974 E5.66297
G1 X139.253 Y110.854 E5.69357
G1 X139.445 Y111.755 E5.72421
G1 X139.558 Y112.668 E5.75481
G1 X139.587 Y113.212 E5.77293
G1 X139.596 Y113.532 E5.78358
G1 X139.6 Y113.83 E5.79349
G1 X139.599 Y122.895 E6.09499
G1 X139.59 Y123.622 E6.11918
G1 X139.539 Y124.541 E6.14979
G1 X139.408 Y125.453 E6.18043
G1 X139.198 Y126.349 E6.21104
G1 X138.912 Y127.224 E6.24166
G1 X138.551 Y128.071 E6.27228
G1 X138.117 Y128.883 E6.30291
G1 X137.615 Y129.655 E6.33353
G1 X137.047 Y130.38 E6.36417
G1 X136.419 Y131.053 E6.39478
G1 X135.735 Y131.669 E6.4254
G1 X135 Y132.223 E6.45601
G1 X134.22 Y132.712 E6.48663
G1 X133.4 Y133.131 E6.51726
G1 X132.547 Y133.477 E6.54787
G1 X131.667 Y133.748 E6.5785
G1 X130.767 Y133.941 E6.60911
G1 X129.853 Y134.056 E6.63975
G1 X129.288 Y134.087 E6.65857
G1 X128.967 Y134.096 E6.66926
G1 X128.67 Y134.1 E6.67913
G1 X109.57 Y134.099 E7.3144
G1 X108.872 Y134.09 E7.33762
G1 X107.953 Y134.038 E7.36824
G1 X107.042 Y133.907 E7.39885
G1 X106.146 Y133.697 E7.42946
G1 X105.271 Y133.41 E7.46008
G1 X104.424 Y133.048 E7.49072
G1 X103.612 Y132.614 E7.52134
G1 X102.841 Y132.112 E7.55194
G1 X102.116 Y131.544 E7.58258
G1 X101.443 Y130.915 E7.61321
G1 X100.828 Y130.231 E7.64381
G1 X100.274 Y129.496 E7.67442
G1 X99.786 Y128.715 E7.70505
G1 X99.367 Y127.895 E7.73568
G1 X99.021 Y127.042 E7.76629
G1 X98.751 Y126.162 E7.79691
G1 X98.558 Y125.261 E7.82756
G1 X98.444 Y124.348 E7.85816
G1 X98.413 Y123.777 E7.87718
G1 X98.404 Y123.444 E7.88826
G1 X98.4 Y123.158 E7.89777
G1 X98.401 Y114.031 E8.20134
G1 X98.41 Y113.366 E8.22346
G1 X98.462 Y112.446 E8.25411
G1 X98.594 Y111.535 E8.28472
G1 X98.805 Y110.639 E8.31534
G1 X99.092 Y109.764 E8.34597
G1 X99.455 Y108.918 E8.37659
G1 X99.889 Y108.106 E8.40721
G1 X100.392 Y107.335 E8.43783
G1 X100.961 Y106.611 E8.46845
G1 X101.589 Y105.939 E8.49904
G0 F6000 X101.981 Y106.117
G1 F1200 X102.662 Y105.524 E8.52908
G1 X103.394 Y104.994 E8.55914
G1 X104.169 Y104.531 E8.58916
G1 X104.982 Y104.138 E8.6192
G1 X105.827 Y103.818 E8.64925
G1 X106.696 Y103.575 E8.67926
G1 X107.584 Y103.409 E8.70931
G1 X108.723 Y103.313 E8.74733
G1 X109.044 Y103.304 E8.75801
G1 X109.33 Y103.3 E8.76752
G1 X128.293 Y103.3 E9.39823
G1 X129.137 Y103.311 E9.42631
G1 X130.039 Y103.364 E9.45636
G1 X130.932 Y103.496 E9.48638
G1 X131.81 Y103.707 E9.51642
G1 X132.666 Y103.995 E9.54645
G1 X133.493 Y104.357 E9.57648
G1 X134.285 Y104.792 E9.60653
G1 X135.036 Y105.294 E9.63658
G1 X135.739 Y105.861 E9.66662
G1 X136.389 Y106.488 E9.69666
G1 X136.981 Y107.17 E9.72669
G1 X137.511 Y107.901 E9.75673
G1 X137.973 Y108.677 E9.78676
G1 X138.366 Y109.49 E9.8168
G1 X138.684 Y110.335 E9.84683
G1 X138.927 Y111.205 E9.87687
G1 X139.092 Y112.093 E9.90691
G1 X139.187 Y113.223 E9.94463
G1 X139.196 Y113.543 E9.95527
G1 X139.2 Y113.83 E9.96482
G1 X139.199 Y122.89 E10.26616
G1 X139.19 Y123.617 E10.29034
G1 X139.139 Y124.519 E10.32039
G1 X139.008 Y125.413 E10.35044
G1 X138.799 Y126.291 E10.38046
G1 X138.513 Y127.148 E10.41051
G1 X138.152 Y127.976 E10.44055
G1 X137.72 Y128.768 E10.47056
G1 X137.219 Y129.52 E10.50061
G1 X136.653 Y130.224 E10.53066
G1 X136.028 Y130.875 E10.56067
G1 X135.347 Y131.469 E10.59073
G1 X134.616 Y132 E10.62078
G1 X133.842 Y132.464 E10.65079
G1 X133.029 Y132.858 E10.68084
G1 X132.185 Y133.178 E10.71086
G1 X131.315 Y133.423 E10.74092
G1 X130.428 Y133.589 E10.77094
G1 X129.277 Y133.687 E10.80936
G1 X128.956 Y133.696 E10.82004
G1 X128.67 Y133.7 E10.82955
G1 X109.575 Y133.699 E11.46466
G1 X108.877 Y133.69 E11.48787
G1 X107.976 Y133.639 E11.51789
G1 X107.082 Y133.507 E11.54795
G1 X106.204 Y133.298 E11.57796
G1 X105.347 Y133.011 E11.60802
G1 X104.52 Y132.65 E11.63804
G1 X103.727 Y132.217 E11.66809
G1 X102.976 Y131.716 E11.69811
G1 X102.272 Y131.15 E11.72816
G1 X101.621 Y130.524 E11.7582
G1 X101.028 Y129.843 E11.78823
G1 X100.498 Y129.112 E11.81826
G1 X100.034 Y128.337 E11.8483
G1 X99.64 Y127.524 E11.87835
G1 X99.32 Y126.68 E11.90837
G1 X99.076 Y125.81 E11.93843
G1 X98.91 Y124.922 E11.96847
G1 X98.813 Y123.767 E12.00703
G1 X98.804 Y123.434 E12.0181
G1 X98.8 Y123.158 E12.02729
G1 X98.801 Y114.036 E12.33068
G1 X98.81 Y113.371 E12.3528
G1 X98.862 Y112.469 E12.38285
G1 X98.994 Y111.576 E12.41288
G1 X99.204 Y110.698 E12.44291
G1 X99.491 Y109.841 E12.47296
G1 X99.853 Y109.014 E12.50299
G1 X100.286 Y108.222 E12.53301
G1 X100.788 Y107.471 E12.56306
G1 X101.355 Y106.767 E12.59312
G1 X101.981 Y106.117 E12.62314
G1 F2700 E7.62314
;MESH:9fdf5152-fa6b-4e96-b806-345024c2a2ce.stl
G0 F6000 X109.414 Y112.835
G0 X109.414 Y113.914
G0 X109.6 Y122.9
;TYPE:WALL-INNER
G1 F2700 E12.62314
G1 F1200 X109.6 Y114.1 E12.91583
G1 X128.4 Y114.1 E13.54112
G1 X128.4 Y122.9 E13.83381
G1 X109.6 Y122.9 E14.4591
G0 F6000 X109.2 Y123.3
;TYPE:WALL-OUTER
G1 F1200 X109.2 Y113.7 E14.77839
G1 X128.8 Y113.7 E15.43029
G1 X128.8 Y123.3 E15.74959
G1 X109.2 Y123.3 E16.40149
G0 F6000 X109.47 Y123.03
G0 X109.71 Y122.51
G0 X109.99 Y122.51
;TYPE:SKIN
G1 F1200 X109.99 Y114.49 E16.66824
G1 X128.01 Y114.49 E17.26758
G1 X128.01 Y122.51 E17.53433
G1 X109.99 Y122.51 E18.13368
G0 F6000 X110.469 Y122.349
G1 F1200 X110.15 Y122.029 E18.1487
G0 F6000 X110.15 Y121.463
G1 F1200 X111.035 Y122.349 E18.19036
G0 F6000 X111.601 Y122.349
G1 F1200 X110.15 Y120.898 E18.25861
G0 F6000 X110.15 Y120.332
G1 F1200 X112.166 Y122.349 E18.35346
G0 F6000 X112.732 Y122.349
G1 F1200 X110.15 Y119.766 E18.47493
G0 F6000 X110.15 Y119.201
G1 F1200 X113.298 Y122.349 E18.623
G0 F6000 X113.863 Y122.349
G1 F1200 X110.15 Y118.635 E18.79767
G0 F6000 X110.15 Y118.069
G1 F1200 X114.429 Y122.349 E18.99897
G0 F6000 X114.995 Y122.349
G1 F1200 X110.15 Y117.504 E19.22686
G0 F6000 X110.15 Y116.938
G1 F1200 X115.561 Y122.349 E19.48138
G0 F6000 X116.126 Y122.349
G1 F1200 X110.15 Y116.372 E19.7625
G0 F6000 X110.15 Y115.807
G1 F1200 X116.692 Y122.349 E20.07021
G0 F6000 X117.258 Y122.349
G1 F1200 X110.15 Y115.241 E20.40455
G0 F6000 X110.15 Y114.675
G1 F1200 X117.823 Y122.349 E20.76549
G0 F6000 X118.389 Y122.349
G1 F1200 X110.689 Y114.649 E21.12767
G0 F6000 X111.255 Y114.649
G1 F1200 X118.955 Y122.349 E21.48986
G0 F6000 X119.52 Y122.349
G1 F1200 X111.821 Y114.649 E21.85202
G0 F6000 X112.386 Y114.649
G1 F1200 X120.086 Y122.349 E22.2142
G0 F6000 X120.652 Y122.349
G1 F1200 X112.952 Y114.649 E22.57639
G0 F6000 X113.518 Y114.649
G1 F1200 X121.217 Y122.349 E22.93855
G0 F6000 X121.783 Y122.349
G1 F1200 X114.083 Y114.649 E23.30073
G0 F6000 X114.649 Y114.649
G1 F1200 X122.349 Y122.349 E23.66292
G0 F6000 X122.914 Y122.349
G1 F1200 X115.215 Y114.649 E24.02508
G0 F6000 X115.78 Y114.649
G1 F1200 X123.48 Y122.349 E24.38726
G0 F6000 X124.046 Y122.349
G1 F1200 X116.346 Y114.649 E24.74944
G0 F6000 X116.912 Y114.649
G1 F1200 X124.612 Y122.349 E25.11163
G0 F6000 X125.177 Y122.349
G1 F1200 X117.478 Y114.649 E25.47379
G0 F6000 X118.043 Y114.649
G1 F1200 X125.743 Y122.349 E25.83597
G0 F6000 X126.309 Y122.349
G1 F1200 X118.609 Y114.649 E26.19816
G0 F6000 X119.175 Y114.65
G1 F1200 X126.874 Y122.349 E26.5603
G0 F6000 X127.44 Y122.349
G1 F1200 X119.741 Y114.65 E26.92243
G0 F6000 X120.307 Y114.65
G1 F1200 X127.849 Y122.193 E27.27721
G0 F6000 X127.849 Y121.627
G1 F1200 X120.872 Y114.65 E27.60539
G0 F6000 X121.438 Y114.65
G1 F1200 X127.849 Y121.061 E27.90694
G0 F6000 X127.849 Y120.495
G1 F1200 X122.004 Y114.65 E28.18187
G0 F6000 X122.569 Y114.65
G1 F1200 X127.849 Y119.93 E28.43023
G0 F6000 X127.849 Y119.364
G1 F1200 X123.135 Y114.65 E28.65196
G0 F6000 X123.701 Y114.65
G1 F1200 X127.849 Y118.798 E28.84707
G0 F6000 X127.849 Y118.233
G1 F1200 X124.266 Y114.65 E29.0156
G0 F6000 X124.832 Y114.65
G1 F1200 X127.849 Y117.667 E29.15751
G0 F6000 X127.849 Y117.101
G1 F1200 X125.398 Y114.65 E29.2728
G0 F6000 X125.964 Y114.65
G1 F1200 X127.849 Y116.536 E29.36149
G0 F6000 X127.849 Y115.97
G1 F1200 X126.529 Y114.65 E29.42358
G0 F6000 X127.095 Y114.65
G1 F1200 X127.849 Y115.404 E29.45904
G0 F6000 X127.849 Y114.839
G1 F1200 X127.661 Y114.65 E29.46791
G0 F6000 X127.661 Y114.3
;MESH:NONMESH
G0 F300 X127.661 Y114.3 Z0.4
G0 F6000 X127.661 Y114.21
G0 X109.782 Y114.282
G0 X109.6 Y122.9
;TIME_ELAPSED:53.931004
;LAYER:1
M106 S85
;TYPE:WALL-INNER
;MESH:9fdf5152-fa6b-4e96-b806-345024c2a2ce.stl
G1 F1200 X109.6 Y114.1 E29.7606
G1 X128.4 Y114.1 E30.38589
G1 X128.4 Y122.9 E30.67858
G1 X109.6 Y122.9 E31.30387
G0 F7500 X109.2 Y123.3
;TYPE:WALL-OUTER
G1 F1200 X109.2 Y113.7 E31.62316
G1 X128.8 Y113.7 E32.27506
G1 X128.8 Y123.3 E32.59436
G1 X109.2 Y123.3 E33.24626
G0 F7500 X109.47 Y123.03
G0 X109.71 Y122.51
G0 X109.99 Y122.51
;TYPE:SKIN
G1 F1200 X109.99 Y114.49 E33.51301
G1 X128.01 Y114.49 E34.11235
G1 X128.01 Y122.51 E34.3791
G1 X109.99 Y122.51 E34.97845
G0 F7500 X109.71 Y122.51
G0 X109.71 Y114.992
G0 X110.15 Y114.992
G1 F1200 X110.493 Y114.648 E34.9946
G0 F7500 X111.059 Y114.648
G1 F1200 X110.15 Y115.558 E35.03738
G0 F7500 X110.15 Y116.123
G1 F1200 X111.625 Y114.648 E35.10676
G0 F7500 X112.19 Y114.648
G1 F1200 X110.15 Y116.689 E35.20274
G0 F7500 X110.15 Y117.255
G1 F1200 X112.756 Y114.648 E35.32534
G0 F7500 X113.322 Y114.648
G1 F1200 X110.15 Y117.82 E35.47455
G0 F7500 X110.15 Y118.386
G1 F1200 X113.888 Y114.648 E35.65037
G0 F7500 X114.453 Y114.648
G1 F1200 X110.15 Y118.952 E35.85279
G0 F7500 X110.15 Y119.518
G1 F1200 X115.019 Y114.648 E36.08184
G0 F7500 X115.585 Y114.648
G1 F1200 X110.15 Y120.083 E36.33749
G0 F7500 X110.15 Y120.649
G1 F1200 X116.15 Y114.648 E36.61973
G0 F7500 X116.716 Y114.648
G1 F1200 X110.15 Y121.215 E36.9286
G0 F7500 X110.15 Y121.78
G1 F1200 X117.282 Y114.648 E37.26407
G0 F7500 X117.847 Y114.648
G1 F1200 X110.15 Y122.346 E37.62613
G0 F7500 X110.712 Y122.349
G1 F1200 X118.413 Y114.648 E37.98836
G0 F7500 X118.979 Y114.648
G1 F1200 X111.278 Y122.349 E38.3506
G0 F7500 X111.843 Y122.349
G1 F1200 X119.544 Y114.649 E38.7128
G0 F7500 X120.109 Y114.649
G1 F1200 X112.409 Y122.349 E39.07499
G0 F7500 X112.975 Y122.349
G1 F1200 X120.675 Y114.649 E39.43717
G0 F7500 X121.241 Y114.649
G1 F1200 X113.54 Y122.349 E39.79938
G0 F7500 X114.106 Y122.349
G1 F1200 X121.806 Y114.649 E40.16156
G0 F7500 X122.372 Y114.649
G1 F1200 X114.672 Y122.349 E40.52375
G0 F7500 X115.237 Y122.349
G1 F1200 X122.938 Y114.649 E40.88596
G0 F7500 X123.503 Y114.649
G1 F1200 X115.803 Y122.349 E41.24814
G0 F7500 X116.369 Y122.349
G1 F1200 X124.069 Y114.649 E41.61033
G0 F7500 X124.635 Y114.649
G1 F1200 X116.934 Y122.349 E41.97253
G0 F7500 X117.5 Y122.349
G1 F1200 X125.201 Y114.649 E42.33474
G0 F7500 X125.766 Y114.649
G1 F1200 X118.066 Y122.349 E42.69693
G0 F7500 X118.632 Y122.349
G1 F1200 X126.332 Y114.649 E43.05911
G0 F7500 X126.898 Y114.649
G1 F1200 X119.197 Y122.349 E43.42132
G0 F7500 X119.763 Y122.349
G1 F1200 X127.463 Y114.649 E43.7835
G0 F7500 X127.849 Y114.829
G1 F1200 X120.329 Y122.349 E44.13722
G0 F7500 X120.894 Y122.349
G1 F1200 X127.849 Y115.395 E44.46434
G0 F7500 X127.849 Y115.961
G1 F1200 X121.46 Y122.349 E44.76483
G0 F7500 X122.026 Y122.349
G1 F1200 X127.849 Y116.526 E45.03873
G0 F7500 X127.849 Y117.092
G1 F1200 X122.591 Y122.349 E45.28603
G0 F7500 X123.157 Y122.349
G1 F1200 X127.849 Y117.658 E45.5067
G0 F7500 X127.849 Y118.224
G1 F1200 X123.723 Y122.349 E45.70075
G0 F7500 X124.288 Y122.349
G1 F1200 X127.849 Y118.789 E45.86823
G0 F7500 X127.849 Y119.355
G1 F1200 X124.854 Y122.349 E46.00908
G0 F7500 X125.42 Y122.349
G1 F1200 X127.849 Y119.921 E46.12331
G0 F7500 X127.849 Y120.486
G1 F1200 X125.985 Y122.349 E46.21096
G0 F7500 X126.551 Y122.349
G1 F1200 X127.849 Y121.052 E46.27199
G0 F7500 X127.849 Y121.618
G1 F1200 X127.117 Y122.349 E46.3064
G0 F7500 X127.682 Y122.349
G1 F1200 X127.849 Y122.183 E46.31423
G0 F7500 X128.2 Y122.183
;MESH:NONMESH
G0 F300 X128.2 Y122.183 Z0.6
G0 F7500 X128.29 Y122.183
G0 X128.218 Y122.718
G0 X109.6 Y122.9
;TIME_ELAPSED:83.587197
;LAYER:2
M106 S170
;TYPE:WALL-INNER
;MESH:9fdf5152-fa6b-4e96-b806-345024c2a2ce.stl
G1 F1200 X109.6 Y114.1 E46.60692
