;FLAVOR:Marlin
;TIME:1388
;Filament used: 0.50372m
;Layer height: 0.2
;MINX:110.527
;MINY:104.167
;MINZ:0.2
;MAXX:142.473
;MAXY:136.167
;MAXZ:34
;Generated with Cura_SteamEngine 4.8.0
M140 S60
M105
M190 S60
M104 S190
M105
M109 S190
M82 ;absolute extrusion mode
; Ender 3 Custom Start G-code
G92 E0 ; Reset Extruder
G28 ; Home all axes
M420 S1  ; use saved bed leveling
G1 Z2.0 F3000 ; Move Z Axis up little to prevent scratching of Heat Bed
G1 X0.1 Y20 Z0.3 F5000.0 ; Move to start position
G1 X0.1 Y200.0 Z0.3 F1500.0 E15 ; Draw the first line
G1 X0.4 Y200.0 Z0.3 F5000.0 ; Move to side a little
G1 X0.4 Y20 Z0.3 F1500.0 E30 ; Draw the second line
G92 E0 ; Reset Extruder
G1 Z2.0 F3000 ; Move Z Axis up little to prevent scratching of Heat Bed
G1 X5 Y20 Z0.3 F5000.0 ; Move over to prevent blob squish
G92 E0
G92 E0
G1 F2700 E-5
;LAYER_COUNT:170
;LAYER:0
M107
G0 F6000 X113.725 Y107.431 Z0.2
;TYPE:SKIRT
G1 F2700 E0
G1 F1200 X114.413 Y106.794 E0.03119
G1 X115.153 Y106.218 E0.06237
G1 X115.939 Y105.706 E0.09357
G1 X116.766 Y105.264 E0.12476
G1 X117.628 Y104.894 E0.15596
G1 X118.518 Y104.598 E0.18716
G1 X119.43 Y104.38 E0.21835
G1 X120.357 Y104.239 E0.24953
G1 X121.228 Y104.18 E0.27857
G1 X121.549 Y104.171 E0.28925
G1 X121.857 Y104.167 E0.29949
G1 X130.766 Y104.167 E0.59581
G1 X131.622 Y104.178 E0.62428
G1 X132.558 Y104.232 E0.65547
G1 X133.486 Y104.364 E0.68664
G1 X134.4 Y104.576 E0.71785
G1 X135.292 Y104.865 E0.74903
G1 X136.157 Y105.228 E0.78024
G1 X136.987 Y105.664 E0.81142
G1 X137.778 Y106.169 E0.84263
G1 X138.522 Y106.74 E0.87382
G1 X139.215 Y107.372 E0.90502
G1 X139.852 Y108.06 E0.9362
G1 X140.427 Y108.801 E0.9674
G1 X140.938 Y109.587 E0.99858
G1 X141.38 Y110.415 E1.0298
G1 X141.749 Y111.277 E1.06099
G1 X142.044 Y112.167 E1.09217
G1 X142.262 Y113.079 E1.12336
G1 X142.402 Y114.007 E1.15457
G1 X142.46 Y114.868 E1.18328
G1 X142.469 Y115.188 E1.19392
G1 X142.473 Y115.497 E1.2042
G1 X142.472 Y124.567 E1.50587
G1 X142.463 Y125.294 E1.53005
G1 X142.412 Y126.231 E1.56126
G1 X142.28 Y127.159 E1.59244
G1 X142.071 Y128.073 E1.62362
G1 X141.784 Y128.966 E1.65482
G1 X141.422 Y129.832 E1.68604
G1 X140.988 Y130.663 E1.71722
G1 X140.484 Y131.454 E1.74842
G1 X139.915 Y132.199 E1.7796
G1 X139.284 Y132.894 E1.81082
G1 X138.597 Y133.532 E1.842
G1 X137.858 Y134.109 E1.87319
G1 X137.072 Y134.621 E1.90439
G1 X136.246 Y135.064 E1.93556
G1 X135.384 Y135.436 E1.96679
G1 X134.495 Y135.732 E1.99795
G1 X133.583 Y135.952 E2.02915
G1 X132.656 Y136.093 E2.06034
G1 X131.772 Y136.154 E2.08981
G1 X131.451 Y136.163 E2.10049
G1 X131.143 Y136.167 E2.11074
G1 X122.092 Y136.166 E2.41178
G1 X121.394 Y136.157 E2.43499
G1 X120.458 Y136.105 E2.46617
G1 X119.529 Y135.973 E2.49738
G1 X118.615 Y135.763 E2.52857
G1 X117.722 Y135.476 E2.55977
G1 X116.857 Y135.113 E2.59097
G1 X116.026 Y134.679 E2.62215
G1 X115.235 Y134.175 E2.65335
G1 X114.49 Y133.605 E2.68455
G1 X113.796 Y132.974 E2.71574
G1 X113.159 Y132.287 E2.74691
G1 X112.582 Y131.547 E2.77812
G1 X112.07 Y130.761 E2.80932
G1 X111.627 Y129.934 E2.84052
G1 X111.256 Y129.073 E2.8717
G1 X110.96 Y128.183 E2.9029
G1 X110.741 Y127.271 E2.93409
G1 X110.6 Y126.344 E2.96528
G1 X110.54 Y125.455 E2.99492
G1 X110.531 Y125.122 E3.00599
G1 X110.527 Y124.825 E3.01587
G1 X110.528 Y115.692 E3.31964
G1 X110.537 Y115.027 E3.34176
G1 X110.59 Y114.091 E3.37294
G1 X110.722 Y113.162 E3.40415
G1 X110.933 Y112.248 E3.43535
G1 X111.221 Y111.356 E3.46652
G1 X111.584 Y110.491 E3.49773
G1 X112.019 Y109.66 E3.52892
G1 X112.523 Y108.87 E3.56009
G1 X113.093 Y108.125 E3.59129
G1 X113.725 Y107.431 E3.62251
G0 F6000 X114.116 Y107.606
G1 F1200 X114.801 Y106.99 E3.65315
G1 X115.537 Y106.437 E3.68377
G1 X116.318 Y105.949 E3.7144
G1 X117.138 Y105.531 E3.74501
G1 X117.992 Y105.186 E3.77565
G1 X118.872 Y104.916 E3.80626
G1 X119.772 Y104.724 E3.83687
G1 X120.686 Y104.61 E3.8675
G1 X121.239 Y104.58 E3.88592
G1 X121.56 Y104.571 E3.8966
G1 X121.857 Y104.567 E3.90648
G1 X130.766 Y104.567 E4.2028
G1 X131.616 Y104.578 E4.23107
G1 X132.535 Y104.631 E4.26169
G1 X133.446 Y104.764 E4.29231
G1 X134.342 Y104.975 E4.32293
G1 X135.216 Y105.263 E4.35353
G1 X136.063 Y105.626 E4.38418
G1 X136.874 Y106.061 E4.41479
G1 X137.644 Y106.565 E4.4454
G1 X138.368 Y107.134 E4.47603
G1 X139.04 Y107.764 E4.50666
G1 X139.655 Y108.449 E4.53728
G1 X140.208 Y109.185 E4.5679
G1 X140.695 Y109.966 E4.59851
G1 X141.112 Y110.787 E4.62914
G1 X141.457 Y111.641 E4.65978
G1 X141.726 Y112.521 E4.69038
G1 X141.918 Y113.422 E4.72102
G1 X142.031 Y114.335 E4.75162
G1 X142.06 Y114.879 E4.76974
G1 X142.069 Y115.199 E4.78039
G1 X142.073 Y115.497 E4.7903
G1 X142.072 Y124.562 E5.0918
G1 X142.063 Y125.289 E5.11598
G1 X142.012 Y126.208 E5.1466
G1 X141.881 Y127.12 E5.17724
G1 X141.671 Y128.016 E5.20785
G1 X141.385 Y128.891 E5.23847
G1 X141.024 Y129.738 E5.26909
G1 X140.59 Y130.55 E5.29971
G1 X140.088 Y131.322 E5.33034
G1 X139.52 Y132.047 E5.36098
G1 X138.892 Y132.72 E5.39159
G1 X138.208 Y133.336 E5.42221
G1 X137.473 Y133.89 E5.45282
G1 X136.693 Y134.379 E5.48344
G1 X135.873 Y134.798 E5.51407
G1 X135.02 Y135.144 E5.54468
G1 X134.14 Y135.415 E5.57531
G1 X133.24 Y135.608 E5.60592
G1 X132.326 Y135.723 E5.63656
G1 X131.761 Y135.754 E5.65538
G1 X131.44 Y135.763 E5.66606
G1 X131.143 Y135.767 E5.67594
G1 X122.097 Y135.766 E5.97681
G1 X121.399 Y135.757 E6.00003
G1 X120.48 Y135.705 E6.03065
G1 X119.569 Y135.574 E6.06126
G1 X118.673 Y135.364 E6.09187
G1 X117.798 Y135.077 E6.12249
G1 X116.951 Y134.715 E6.15313
G1 X116.139 Y134.281 E6.18375
G1 X115.368 Y133.779 E6.21435
G1 X114.643 Y133.211 E6.24499
G1 X113.97 Y132.582 E6.27562
G1 X113.355 Y131.898 E6.30622
G1 X112.801 Y131.163 E6.33683
G1 X112.313 Y130.382 E6.36746
G1 X111.894 Y129.562 E6.39809
G1 X111.548 Y128.709 E6.4287
G1 X111.278 Y127.829 E6.45932
G1 X111.085 Y126.928 E6.48997
G1 X110.971 Y126.015 E6.52057
G1 X110.94 Y125.444 E6.53959
G1 X110.931 Y125.111 E6.55067
G1 X110.927 Y124.825 E6.56018
G1 X110.928 Y115.698 E6.86375
G1 X110.937 Y115.033 E6.88587
G1 X110.989 Y114.113 E6.91652
G1 X111.121 Y113.202 E6.94713
G1 X111.332 Y112.306 E6.97775
G1 X111.619 Y111.431 E7.00838
G1 X111.982 Y110.585 E7.039
G1 X112.416 Y109.773 E7.06962
G1 X112.919 Y109.002 E7.10024
G1 X113.488 Y108.278 E7.13086
G1 X114.116 Y107.606 E7.16146
G0 F6000 X114.508 Y107.784
G1 F1200 X115.189 Y107.191 E7.19149
G1 X115.921 Y106.661 E7.22155
G1 X116.696 Y106.198 E7.25157
G1 X117.509 Y105.805 E7.28161
G1 X118.354 Y105.485 E7.31166
G1 X119.223 Y105.242 E7.34167
G1 X120.111 Y105.076 E7.37172
G1 X121.25 Y104.98 E7.40974
G1 X121.571 Y104.971 E7.42042
G1 X121.857 Y104.967 E7.42993
G1 X130.766 Y104.967 E7.72624
G1 X131.61 Y104.978 E7.75432
G1 X132.512 Y105.031 E7.78437
G1 X133.405 Y105.163 E7.8144
G1 X134.283 Y105.374 E7.84443
G1 X135.139 Y105.662 E7.87447
G1 X135.966 Y106.024 E7.90449
G1 X136.758 Y106.459 E7.93455
G1 X137.509 Y106.961 E7.96459
G1 X138.212 Y107.528 E7.99463
G1 X138.862 Y108.155 E8.02467
G1 X139.454 Y108.837 E8.05471
G1 X139.984 Y109.568 E8.08474
G1 X140.446 Y110.344 E8.11478
G1 X140.839 Y111.157 E8.14481
G1 X141.157 Y112.002 E8.17484
G1 X141.4 Y112.872 E8.20488
G1 X141.565 Y113.76 E8.23492
G1 X141.66 Y114.89 E8.27264
G1 X141.669 Y115.21 E8.28329
G1 X141.673 Y115.497 E8.29283
G1 X141.672 Y124.557 E8.59417
G1 X141.663 Y125.284 E8.61835
G1 X141.612 Y126.186 E8.6484
G1 X141.481 Y127.08 E8.67845
G1 X141.272 Y127.958 E8.70847
G1 X140.986 Y128.815 E8.73852
G1 X140.625 Y129.643 E8.76856
G1 X140.193 Y130.435 E8.79857
G1 X139.692 Y131.187 E8.82862
G1 X139.126 Y131.891 E8.85867
G1 X138.501 Y132.542 E8.88868
G1 X137.82 Y133.136 E8.91874
G1 X137.089 Y133.667 E8.94879
G1 X136.315 Y134.131 E8.97881
G1 X135.502 Y134.525 E9.00885
G1 X134.658 Y134.845 E9.03888
G1 X133.788 Y135.09 E9.06894
G1 X132.901 Y135.256 E9.09895
G1 X131.75 Y135.354 E9.13737
G1 X131.429 Y135.363 E9.14805
G1 X131.143 Y135.367 E9.15757
G1 X122.102 Y135.366 E9.45827
G1 X121.404 Y135.357 E9.48149
G1 X120.503 Y135.306 E9.5115
G1 X119.609 Y135.174 E9.54156
G1 X118.731 Y134.965 E9.57158
G1 X117.874 Y134.678 E9.60164
G1 X117.047 Y134.317 E9.63165
G1 X116.254 Y133.884 E9.6617
G1 X115.503 Y133.383 E9.69173
G1 X114.799 Y132.817 E9.72177
G1 X114.148 Y132.191 E9.75181
G1 X113.555 Y131.51 E9.78185
G1 X113.025 Y130.779 E9.81188
G1 X112.561 Y130.004 E9.84192
G1 X112.167 Y129.191 E9.87197
G1 X111.847 Y128.347 E9.90199
G1 X111.603 Y127.477 E9.93204
G1 X111.437 Y126.589 E9.96209
G1 X111.34 Y125.434 E10.00064
G1 X111.331 Y125.101 E10.01172
G1 X111.327 Y124.825 E10.0209
G1 X111.328 Y115.703 E10.3243
G1 X111.337 Y115.038 E10.34642
G1 X111.389 Y114.136 E10.37647
G1 X111.521 Y113.243 E10.40649
G1 X111.731 Y112.365 E10.43652
G1 X112.018 Y111.508 E10.46658
G1 X112.38 Y110.681 E10.49661
G1 X112.813 Y109.889 E10.52663
G1 X113.315 Y109.138 E10.55667
G1 X113.882 Y108.434 E10.58674
G1 X114.508 Y107.784 E10.61675
G1 F2700 E5.61675
;MESH:9fdf5152-fa6b-4e96-b806-345024c2a2ce.stl
G0 F6000 X121.941 Y114.502
G0 X121.941 Y115.581
G0 X122.127 Y124.567
;TYPE:WALL-INNER
G1 F2700 E10.61675
G1 F1200 X122.127 Y115.767 E10.90944
G1 X130.873 Y115.767 E11.20034
G1 X130.873 Y124.567 E11.49302
G1 X122.127 Y124.567 E11.78392
G0 F6000 X121.727 Y124.967
;TYPE:WALL-OUTER
G1 F1200 X121.727 Y115.367 E12.10322
G1 X131.273 Y115.367 E12.42072
G1 X131.273 Y124.967 E12.74001
G1 X121.727 Y124.967 E13.05751
G0 F6000 X121.997 Y124.697
G0 X122.237 Y124.177
G0 X122.517 Y124.177
;TYPE:SKIN
G1 F1200 X122.517 Y116.157 E13.32426
G1 X130.483 Y116.157 E13.58921
G1 X130.483 Y124.177 E13.85596
G1 X122.517 Y124.177 E14.12091
G0 F6000 X122.885 Y124.016
G1 F1200 X122.676 Y123.808 E14.13072
G0 F6000 X122.676 Y123.242
G1 F1200 X123.45 Y124.016 E14.16712
G0 F6000 X124.016 Y124.016
G1 F1200 X122.676 Y122.676 E14.23015
G0 F6000 X122.676 Y122.11
G1 F1200 X124.582 Y124.016 E14.3198
G0 F6000 X125.148 Y124.016
G1 F1200 X122.676 Y121.545 E14.43606
G0 F6000 X122.676 Y120.979
G1 F1200 X125.713 Y124.016 E14.57891
G0 F6000 X126.279 Y124.016
G1 F1200 X122.676 Y120.413 E14.74838
G0 F6000 X122.676 Y119.848
G1 F1200 X126.845 Y124.016 E14.94445
G0 F6000 X127.41 Y124.016
G1 F1200 X122.676 Y119.282 E15.16713
G0 F6000 X122.676 Y118.716
G1 F1200 X127.976 Y124.016 E15.41642
G0 F6000 X128.542 Y124.016
G1 F1200 X122.676 Y118.151 E15.69232
G0 F6000 X122.676 Y117.585
G1 F1200 X129.107 Y124.016 E15.99481
G0 F6000 X129.673 Y124.016
G1 F1200 X122.676 Y117.019 E16.32393
G0 F6000 X122.676 Y116.454
G1 F1200 X130.239 Y124.016 E16.67965
G0 F6000 X130.322 Y123.534
G1 F1200 X123.105 Y116.316 E17.01914
G0 F6000 X123.67 Y116.316
G1 F1200 X130.322 Y122.968 E17.33203
G0 F6000 X130.322 Y122.403
G1 F1200 X124.236 Y116.316 E17.61832
G0 F6000 X124.802 Y116.316
G1 F1200 X130.322 Y121.837 E17.87798
G0 F6000 X130.322 Y121.271
G1 F1200 X125.367 Y116.316 E18.11105
G0 F6000 X125.933 Y116.316
G1 F1200 X130.322 Y120.705 E18.3175
G0 F6000 X130.322 Y120.14
G1 F1200 X126.499 Y116.316 E18.49734
G0 F6000 X127.064 Y116.316
G1 F1200 X130.322 Y119.574 E18.65059
G0 F6000 X130.322 Y119.008
G1 F1200 X127.63 Y116.316 E18.77721
G0 F6000 X128.196 Y116.316
G1 F1200 X130.322 Y118.443 E18.87724
G0 F6000 X130.322 Y117.877
G1 F1200 X128.762 Y116.316 E18.95064
G0 F6000 X129.327 Y116.316
G1 F1200 X130.322 Y117.311 E18.99744
G0 F6000 X130.322 Y116.746
G1 F1200 X129.893 Y116.316 E19.01764
G0 F6000 X129.893 Y115.967
;MESH:NONMESH
G0 F300 X129.893 Y115.967 Z0.4
G0 F6000 X129.893 Y115.877
G0 X122.309 Y115.949
G0 X122.127 Y124.567
;TIME_ELAPSED:36.822583
;LAYER:1
M106 S85
;TYPE:WALL-INNER
;MESH:9fdf5152-fa6b-4e96-b806-345024c2a2ce.stl
G1 F1200 X122.127 Y115.767 E19.31033
G1 X130.873 Y115.767 E19.60122
G1 X130.873 Y124.567 E19.89391
G1 X122.127 Y124.567 E20.18481
G0 F7500 X121.727 Y124.967
;TYPE:WALL-OUTER
G1 F1200 X121.727 Y115.367 E20.5041
G1 X131.273 Y115.367 E20.8216
G1 X131.273 Y124.967 E21.1409
G1 X121.727 Y124.967 E21.4584
G0 F7500 X121.997 Y124.697
G0 X122.237 Y124.177
G0 X122.517 Y124.177
;TYPE:SKIN
G1 F1200 X122.517 Y116.157 E21.72515
G1 X130.483 Y116.157 E21.9901
G1 X130.483 Y124.177 E22.25685
G1 X122.517 Y124.177 E22.5218
G0 F7500 X122.237 Y124.177
G0 X130.691 Y124.385
G0 X130.763 Y123.67
G0 X130.321 Y123.67
G1 F1200 X129.976 Y124.016 E22.53805
G0 F7500 X129.41 Y124.016
G1 F1200 X130.321 Y123.105 E22.5809
G0 F7500 X130.321 Y122.539
G1 F1200 X128.844 Y124.016 E22.65037
G0 F7500 X128.279 Y124.016
G1 F1200 X130.321 Y121.973 E22.74644
G0 F7500 X130.321 Y121.408
G1 F1200 X127.713 Y124.016 E22.86912
G0 F7500 X127.147 Y124.016
G1 F1200 X130.321 Y120.842 E23.01841
G0 F7500 X130.321 Y120.276
G1 F1200 X126.582 Y124.016 E23.19431
G0 F7500 X126.016 Y124.016
G1 F1200 X130.321 Y119.711 E23.3968
G0 F7500 X130.321 Y119.145
G1 F1200 X125.45 Y124.016 E23.62592
G0 F7500 X124.884 Y124.016
G1 F1200 X130.321 Y118.579 E23.88166
G0 F7500 X130.321 Y118.014
G1 F1200 X124.319 Y124.016 E24.16397
G0 F7500 X123.753 Y124.016
G1 F1200 X130.321 Y117.448 E24.47291
G0 F7500 X130.321 Y116.882
G1 F1200 X123.187 Y124.016 E24.80847
G0 F7500 X122.677 Y123.961
G1 F1200 X130.321 Y116.316 E25.16805
G0 F7500 X129.756 Y116.316
G1 F1200 X122.677 Y123.395 E25.50102
G0 F7500 X122.677 Y122.83
G1 F1200 X129.19 Y116.316 E25.8074
G0 F7500 X128.624 Y116.316
G1 F1200 X122.677 Y122.264 E26.08715
G0 F7500 X122.677 Y121.698
G1 F1200 X128.059 Y116.316 E26.3403
G0 F7500 X127.493 Y116.316
G1 F1200 X122.677 Y121.133 E26.56685
G0 F7500 X122.677 Y120.567
G1 F1200 X126.927 Y116.316 E26.76678
G0 F7500 X126.362 Y116.316
G1 F1200 X122.677 Y120.001 E26.94012
G0 F7500 X122.677 Y119.435
G1 F1200 X125.796 Y116.316 E27.08682
G0 F7500 X125.23 Y116.316
G1 F1200 X122.677 Y118.87 E27.20693
G0 F7500 X122.677 Y118.304
G1 F1200 X124.665 Y116.316 E27.30044
G0 F7500 X124.099 Y116.316
G1 F1200 X122.677 Y117.738 E27.36733
G0 F7500 X122.677 Y117.173
G1 F1200 X123.533 Y116.316 E27.40762
G0 F7500 X122.967 Y116.316
G1 F1200 X122.677 Y116.607 E27.42128
G0 F7500 X122.327 Y116.607
;MESH:NONMESH
G0 F300 X122.327 Y116.607 Z0.6
G0 F7500 X122.237 Y116.607
G0 X122.127 Y124.567
;TIME_ELAPSED:52.399770
;LAYER:2
M106 S170
;TYPE:WALL-INNER
;MESH:9fdf5152-fa6b-4e96-b806-345024c2a2ce.stl
G1 F1200 X122.127 Y115.767 E27.71397
G1 X130.873 Y115.767 E28.00486
G1 X130.873 Y124.567 E28.29755
G1 X122.127 Y124.567 E28.58845
G0 F9000 X121.727 Y124.967
;TYPE:WALL-OUTER
G1 F1200 X121.727 Y115.367 E28.90774
G1 X131.273 Y115.367 E29.22524
G1 X131.273 Y124.967 E29.54454
G1 X121.727 Y124.967 E29.86204
G0 F9000 X121.997 Y124.697
G0 X122.237 Y124.177
G0 X122.517 Y124.177
;TYPE:SKIN
G1 F1200 X122.517 Y116.157 E30.12879
G1 X130.483 Y116.157 E30.39374
G1 X130.483 Y124.177 E30.66048
G1 X122.517 Y124.177 E30.92544
G0 F9000 X122.885 Y124.016
G1 F1200 X122.676 Y123.808 E30.93524
G0 F9000 X122.676 Y123.242
G1 F1200 X123.45 Y124.016 E30.97165
G0 F9000 X124.016 Y124.016
G1 F1200 X122.676 Y122.676 E31.03468
G0 F9000 X122.676 Y122.11
G1 F1200 X124.582 Y124.016 E31.12433
G0 F9000 X125.148 Y124.016
G1 F1200 X122.676 Y121.545 E31.24058
G0 F9000 X122.676 Y120.979
G1 F1200 X125.713 Y124.016 E31.38343
G0 F9000 X126.279 Y124.016
G1 F1200 X122.676 Y120.413 E31.55291
G0 F9000 X122.676 Y119.848
G1 F1200 X126.845 Y124.016 E31.74898
G0 F9000 X127.41 Y124.016
G1 F1200 X122.676 Y119.282 E31.97165
G0 F9000 X122.676 Y118.716
G1 F1200 X127.976 Y124.016 E32.22095
G0 F9000 X128.542 Y124.016
G1 F1200 X122.676 Y118.151 E32.49685
G0 F9000 X122.676 Y117.585
G1 F1200 X129.107 Y124.016 E32.79934
G0 F9000 X129.673 Y124.016
G1 F1200 X122.676 Y117.019 E33.12846
G0 F9000 X122.676 Y116.454
G1 F1200 X130.239 Y124.016 E33.48417
G0 F9000 X130.322 Y123.534
G1 F1200 X123.105 Y116.316 E33.82366
G0 F9000 X123.67 Y116.316
G1 F1200 X130.322 Y122.968 E34.13655
G0 F9000 X130.322 Y122.403
G1 F1200 X124.236 Y116.316 E34.42284
G0 F9000 X124.802 Y116.316
G1 F1200 X130.322 Y121.837 E34.68251
G0 F9000 X130.322 Y121.271
G1 F1200 X125.367 Y116.316 E34.91558
G0 F9000 X125.933 Y116.316
G1 F1200 X130.322 Y120.705 E35.12202
G0 F9000 X130.322 Y120.14
G1 F1200 X126.499 Y116.316 E35.30187
G0 F9000 X127.064 Y116.316
G1 F1200 X130.322 Y119.574 E35.45512
G0 F9000 X130.322 Y119.008
G1 F1200 X127.63 Y116.316 E35.58174
G0 F9000 X128.196 Y116.316
G1 F1200 X130.322 Y118.443 E35.68176
G0 F9000 X130.322 Y117.877
G1 F1200 X128.762 Y116.316 E35.75516
