;FLAVOR:Marlin
;TIME:1373
;Filament used: 0.500742m
;Layer height: 0.2
;MINX:110.777
;MINY:100.833
;MINZ:0.2
;MAXX:142.723
;MAXY:132.833
;MAXZ:34
;Generated with Cura_SteamEngine 4.8.0
M140 S60
M105
M190 S60
M104 S190
M105
M109 S190
M82 ;absolute extrusion mode
; Ender 3 Custom Start G-code
G92 E0 ; Reset Extruder
G28 ; Home all axes
M420 S1  ; use saved bed leveling
G1 Z2.0 F3000 ; Move Z Axis up little to prevent scratching of Heat Bed
G1 X0.1 Y20 Z0.3 F5000.0 ; Move to start position
G1 X0.1 Y200.0 Z0.3 F1500.0 E15 ; Draw the first line
G1 X0.4 Y200.0 Z0.3 F5000.0 ; Move to side a little
G1 X0.4 Y20 Z0.3 F1500.0 E30 ; Draw the second line
G92 E0 ; Reset Extruder
G1 Z2.0 F3000 ; Move Z Axis up little to prevent scratching of Heat Bed
G1 X5 Y20 Z0.3 F5000.0 ; Move over to prevent blob squish
G92 E0
G92 E0
G1 F2700 E-5
;LAYER_COUNT:170
;LAYER:0
M107
G0 F6000 X113.975 Y104.097 Z0.2
;TYPE:SKIRT
G1 F2700 E0
G1 F1200 X114.663 Y103.46 E0.03119
G1 X115.403 Y102.884 E0.06237
G1 X116.189 Y102.372 E0.09357
G1 X117.016 Y101.93 E0.12476
G1 X117.878 Y101.56 E0.15596
G1 X118.768 Y101.264 E0.18716
G1 X119.68 Y101.046 E0.21835
G1 X120.607 Y100.905 E0.24953
G1 X121.478 Y100.846 E0.27857
G1 X121.799 Y100.837 E0.28925
G1 X122.107 Y100.833 E0.29949
G1 X131.016 Y100.833 E0.59581
G1 X131.872 Y100.844 E0.62428
G1 X132.808 Y100.898 E0.65547
G1 X133.736 Y101.03 E0.68664
G1 X134.65 Y101.242 E0.71785
G1 X135.542 Y101.531 E0.74903
G1 X136.407 Y101.894 E0.78024
G1 X137.237 Y102.33 E0.81142
G1 X138.028 Y102.835 E0.84263
G1 X138.772 Y103.406 E0.87382
G1 X139.465 Y104.038 E0.90502
G1 X140.102 Y104.726 E0.9362
G1 X140.677 Y105.467 E0.9674
G1 X141.188 Y106.253 E0.99858
G1 X141.63 Y107.081 E1.0298
G1 X141.999 Y107.943 E1.06099
G1 X142.294 Y108.833 E1.09217
G1 X142.512 Y109.745 E1.12336
G1 X142.652 Y110.673 E1.15457
G1 X142.71 Y111.534 E1.18328
G1 X142.719 Y111.854 E1.19392
G1 X142.723 Y112.163 E1.2042
G1 X142.722 Y121.233 E1.50587
G1 X142.713 Y121.96 E1.53005
G1 X142.662 Y122.897 E1.56126
G1 X142.53 Y123.825 E1.59244
G1 X142.321 Y124.739 E1.62362
G1 X142.034 Y125.632 E1.65482
G1 X141.672 Y126.498 E1.68604
G1 X141.238 Y127.329 E1.71722
G1 X140.734 Y128.12 E1.74842
G1 X140.165 Y128.865 E1.7796
G1 X139.534 Y129.56 E1.81082
G1 X138.847 Y130.198 E1.842
G1 X138.108 Y130.775 E1.87319
G1 X137.322 Y131.287 E1.90439
G1 X136.496 Y131.73 E1.93556
G1 X135.634 Y132.102 E1.96679
G1 X134.745 Y132.398 E1.99795
G1 X133.833 Y132.618 E2.02915
G1 X132.906 Y132.759 E2.06034
G1 X132.022 Y132.82 E2.08981
G1 X131.701 Y132.829 E2.10049
G1 X131.393 Y132.833 E2.11074
G1 X122.342 Y132.832 E2.41178
G1 X121.644 Y132.823 E2.43499
G1 X120.708 Y132.771 E2.46617
G1 X119.779 Y132.639 E2.49738
G1 X118.865 Y132.429 E2.52857
G1 X117.972 Y132.142 E2.55977
G1 X117.107 Y131.779 E2.59097
G1 X116.276 Y131.345 E2.62215
G1 X115.485 Y130.841 E2.65335
G1 X114.74 Y130.271 E2.68455
G1 X114.046 Y129.64 E2.71574
G1 X113.409 Y128.953 E2.74691
G1 X112.832 Y128.213 E2.77812
G1 X112.32 Y127.427 E2.80932
G1 X111.877 Y126.6 E2.84052
G1 X111.506 Y125.739 E2.8717
G1 X111.21 Y124.849 E2.9029
G1 X110.991 Y123.937 E2.93409
G1 X110.85 Y123.01 E2.96528
G1 X110.79 Y122.121 E2.99492
G1 X110.781 Y121.788 E3.00599
G1 X110.777 Y121.491 E3.01587
G1 X110.778 Y112.358 E3.31964
G1 X110.787 Y111.693 E3.34176
G1 X110.84 Y110.757 E3.37294
G1 X110.972 Y109.828 E3.40415
G1 X111.183 Y108.914 E3.43535
G1 X111.471 Y108.022 E3.46652
G1 X111.834 Y107.157 E3.49773
G1 X112.269 Y106.326 E3.52892
G1 X112.773 Y105.536 E3.56009
G1 X113.343 Y104.791 E3.59129
G1 X113.975 Y104.097 E3.62251
G0 F6000 X114.366 Y104.272
G1 F1200 X115.051 Y103.656 E3.65315
G1 X115.787 Y103.103 E3.68377
G1 X116.568 Y102.615 E3.7144
G1 X117.388 Y102.197 E3.74501
G1 X118.242 Y101.852 E3.77565
G1 X119.122 Y101.582 E3.80626
G1 X120.022 Y101.39 E3.83687
G1 X120.936 Y101.276 E3.8675
G1 X121.489 Y101.246 E3.88592
G1 X121.81 Y101.237 E3.8966
G1 X122.107 Y101.233 E3.90648
G1 X131.016 Y101.233 E4.2028
G1 X131.866 Y101.244 E4.23107
G1 X132.785 Y101.297 E4.26169
G1 X133.696 Y101.43 E4.29231
G1 X134.592 Y101.641 E4.32293
G1 X135.466 Y101.929 E4.35353
G1 X136.313 Y102.292 E4.38418
G1 X137.124 Y102.727 E4.41479
G1 X137.894 Y103.231 E4.4454
G1 X138.618 Y103.8 E4.47603
G1 X139.29 Y104.43 E4.50666
G1 X139.905 Y105.115 E4.53728
G1 X140.458 Y105.851 E4.5679
G1 X140.945 Y106.632 E4.59851
G1 X141.362 Y107.453 E4.62914
G1 X141.707 Y108.307 E4.65978
G1 X141.976 Y109.187 E4.69038
G1 X142.168 Y110.088 E4.72102
G1 X142.281 Y111.001 E4.75162
G1 X142.31 Y111.545 E4.76974
G1 X142.319 Y111.865 E4.78039
G1 X142.323 Y112.163 E4.7903
G1 X142.322 Y121.228 E5.0918
G1 X142.313 Y121.955 E5.11598
G1 X142.262 Y122.874 E5.1466
G1 X142.131 Y123.786 E5.17724
G1 X141.921 Y124.682 E5.20785
G1 X141.635 Y125.557 E5.23847
G1 X141.274 Y126.404 E5.26909
G1 X140.84 Y127.216 E5.29971
G1 X140.338 Y127.988 E5.33034
G1 X139.77 Y128.713 E5.36098
G1 X139.142 Y129.386 E5.39159
G1 X138.458 Y130.002 E5.42221
G1 X137.723 Y130.556 E5.45282
G1 X136.943 Y131.045 E5.48344
G1 X136.123 Y131.464 E5.51407
G1 X135.27 Y131.81 E5.54468
G1 X134.39 Y132.081 E5.57531
G1 X133.49 Y132.274 E5.60592
G1 X132.576 Y132.389 E5.63656
G1 X132.011 Y132.42 E5.65538
G1 X131.69 Y132.429 E5.66606
G1 X131.393 Y132.433 E5.67594
G1 X122.347 Y132.432 E5.97681
G1 X121.649 Y132.423 E6.00003
G1 X120.73 Y132.371 E6.03065
G1 X119.819 Y132.24 E6.06126
G1 X118.923 Y132.03 E6.09187
G1 X118.048 Y131.743 E6.12249
G1 X117.201 Y131.381 E6.15313
G1 X116.389 Y130.947 E6.18375
G1 X115.618 Y130.445 E6.21435
G1 X114.893 Y129.877 E6.24499
G1 X114.22 Y129.248 E6.27562
G1 X113.605 Y128.564 E6.30622
G1 X113.051 Y127.829 E6.33683
G1 X112.563 Y127.048 E6.36746
G1 X112.144 Y126.228 E6.39809
G1 X111.798 Y125.375 E6.4287
G1 X111.528 Y124.495 E6.45932
G1 X111.335 Y123.594 E6.48997
G1 X111.221 Y122.681 E6.52057
G1 X111.19 Y122.11 E6.53959
G1 X111.181 Y121.777 E6.55067
G1 X111.177 Y121.491 E6.56018
G1 X111.178 Y112.364 E6.86375
G1 X111.187 Y111.699 E6.88587
G1 X111.239 Y110.779 E6.91652
G1 X111.371 Y109.868 E6.94713
G1 X111.582 Y108.972 E6.97775
G1 X111.869 Y108.097 E7.00838
G1 X112.232 Y107.251 E7.039
G1 X112.666 Y106.439 E7.06962
G1 X113.169 Y105.668 E7.10024
G1 X113.738 Y104.944 E7.13086
G1 X114.366 Y104.272 E7.16146
G0 F6000 X114.758 Y104.45
G1 F1200 X115.439 Y103.857 E7.19149
G1 X116.171 Y103.327 E7.22155
G1 X116.946 Y102.864 E7.25157
G1 X117.759 Y102.471 E7.28161
G1 X118.604 Y102.151 E7.31166
G1 X119.473 Y101.908 E7.34167
G1 X120.361 Y101.742 E7.37172
G1 X121.5 Y101.646 E7.40974
G1 X121.821 Y101.637 E7.42042
G1 X122.107 Y101.633 E7.42993
G1 X131.016 Y101.633 E7.72624
G1 X131.86 Y101.644 E7.75432
G1 X132.762 Y101.697 E7.78437
G1 X133.655 Y101.829 E7.8144
G1 X134.533 Y102.04 E7.84443
G1 X135.389 Y102.328 E7.87447
G1 X136.216 Y102.69 E7.90449
G1 X137.008 Y103.125 E7.93455
G1 X137.759 Y103.627 E7.96459
G1 X138.462 Y104.194 E7.99463
G1 X139.112 Y104.821 E8.02467
G1 X139.704 Y105.503 E8.05471
G1 X140.234 Y106.234 E8.08474
G1 X140.696 Y107.01 E8.11478
G1 X141.089 Y107.823 E8.14481
G1 X141.407 Y108.668 E8.17484
G1 X141.65 Y109.538 E8.20488
G1 X141.815 Y110.426 E8.23492
G1 X141.91 Y111.556 E8.27264
G1 X141.919 Y111.876 E8.28329
G1 X141.923 Y112.163 E8.29283
G1 X141.922 Y121.223 E8.59417
G1 X141.913 Y121.95 E8.61835
G1 X141.862 Y122.852 E8.6484
G1 X141.731 Y123.746 E8.67845
G1 X141.522 Y124.624 E8.70847
G1 X141.236 Y125.481 E8.73852
G1 X140.875 Y126.309 E8.76856
G1 X140.443 Y127.101 E8.79857
G1 X139.942 Y127.853 E8.82862
G1 X139.376 Y128.557 E8.85867
G1 X138.751 Y129.208 E8.88868
G1 X138.07 Y129.802 E8.91874
G1 X137.339 Y130.333 E8.94879
G1 X136.565 Y130.797 E8.97881
G1 X135.752 Y131.191 E9.00885
G1 X134.908 Y131.511 E9.03888
G1 X134.038 Y131.756 E9.06894
G1 X133.151 Y131.922 E9.09895
G1 X132 Y132.02 E9.13737
G1 X131.679 Y132.029 E9.14805
G1 X131.393 Y132.033 E9.15757
G1 X122.352 Y132.032 E9.45827
G1 X121.654 Y132.023 E9.48149
G1 X120.753 Y131.972 E9.5115
G1 X119.859 Y131.84 E9.54156
G1 X118.981 Y131.631 E9.57158
G1 X118.124 Y131.344 E9.60164
G1 X117.297 Y130.983 E9.63165
G1 X116.504 Y130.55 E9.6617
G1 X115.753 Y130.049 E9.69173
G1 X115.049 Y129.483 E9.72177
G1 X114.398 Y128.857 E9.75181
G1 X113.805 Y128.176 E9.78185
G1 X113.275 Y127.445 E9.81188
G1 X112.811 Y126.67 E9.84192
G1 X112.417 Y125.857 E9.87197
G1 X112.097 Y125.013 E9.90199
G1 X111.853 Y124.143 E9.93204
G1 X111.687 Y123.255 E9.96209
G1 X111.59 Y122.1 E10.00064
G1 X111.581 Y121.767 E10.01172
G1 X111.577 Y121.491 E10.0209
G1 X111.578 Y112.369 E10.3243
G1 X111.587 Y111.704 E10.34642
G1 X111.639 Y110.802 E10.37647
G1 X111.771 Y109.909 E10.40649
G1 X111.981 Y109.031 E10.43652
G1 X112.268 Y108.174 E10.46658
G1 X112.63 Y107.347 E10.49661
G1 X113.063 Y106.555 E10.52663
G1 X113.565 Y105.804 E10.55667
G1 X114.132 Y105.1 E10.58674
G1 X114.758 Y104.45 E10.61675
G1 F2700 E5.61675
;MESH:b3ae6765-5199-43f8-a736-6d9b2f128543.stl
G0 F6000 X122.191 Y111.168
G0 X122.191 Y112.247
G0 X122.377 Y121.233
;TYPE:WALL-INNER
G1 F2700 E10.61675
G1 F1200 X122.377 Y112.433 E10.90944
G1 X131.123 Y112.433 E11.20034
G1 X131.123 Y121.233 E11.49302
G1 X122.377 Y121.233 E11.78392
G0 F6000 X121.977 Y121.633
;TYPE:WALL-OUTER
G1 F1200 X121.977 Y112.033 E12.10322
G1 X131.523 Y112.033 E12.42072
G1 X131.523 Y121.633 E12.74001
G1 X121.977 Y121.633 E13.05751
G0 F6000 X122.247 Y121.363
G0 X122.487 Y120.843
G0 X122.767 Y120.843
;TYPE:SKIN
G1 F1200 X122.767 Y112.823 E13.32426
G1 X130.733 Y112.823 E13.58921
G1 X130.733 Y120.843 E13.85596
G1 X122.767 Y120.843 E14.12091
G0 F6000 X123.511 Y120.682
G1 F1200 X122.926 Y120.097 E14.14842
G0 F6000 X122.926 Y119.532
G1 F1200 X124.076 Y120.682 E14.20252
G0 F6000 X124.642 Y120.682
G1 F1200 X122.926 Y118.966 E14.28323
G0 F6000 X122.926 Y118.4
G1 F1200 X125.208 Y120.682 E14.39057
G0 F6000 X125.773 Y120.682
G1 F1200 X122.926 Y117.835 E14.52448
G0 F6000 X122.926 Y117.269
G1 F1200 X126.339 Y120.682 E14.68502
G0 F6000 X126.905 Y120.682
G1 F1200 X122.926 Y116.703 E14.87218
G0 F6000 X122.926 Y116.138
G1 F1200 X127.47 Y120.682 E15.08592
G0 F6000 X128.036 Y120.682
G1 F1200 X122.926 Y115.572 E15.32628
G0 F6000 X122.926 Y115.006
G1 F1200 X128.602 Y120.682 E15.59326
G0 F6000 X129.167 Y120.682
G1 F1200 X122.926 Y114.44 E15.88684
G0 F6000 X122.926 Y113.875
G1 F1200 X129.733 Y120.682 E16.20702
G0 F6000 X130.299 Y120.682
G1 F1200 X122.926 Y113.309 E16.55382
G0 F6000 X123.165 Y112.982
G1 F1200 X130.572 Y120.39 E16.90225
G0 F6000 X130.572 Y119.824
G1 F1200 X123.73 Y112.982 E17.22408
G0 F6000 X124.296 Y112.982
G1 F1200 X130.572 Y119.259 E17.5193
G0 F6000 X130.572 Y118.693
G1 F1200 X124.862 Y112.982 E17.78791
G0 F6000 X125.428 Y112.982
G1 F1200 X130.572 Y118.127 E18.02989
G0 F6000 X130.572 Y117.562
G1 F1200 X125.993 Y112.982 E18.24529
G0 F6000 X126.559 Y112.982
G1 F1200 X130.572 Y116.996 E18.43408
G0 F6000 X130.572 Y116.43
G1 F1200 X127.125 Y112.982 E18.59624
G0 F6000 X127.69 Y112.982
G1 F1200 X130.572 Y115.865 E18.73182
G0 F6000 X130.572 Y115.299
G1 F1200 X128.256 Y112.982 E18.84078
G0 F6000 X128.822 Y112.982
G1 F1200 X130.572 Y114.733 E18.92312
G0 F6000 X130.572 Y114.168
G1 F1200 X129.387 Y112.982 E18.97888
G0 F6000 X129.953 Y112.982
G1 F1200 X130.572 Y113.602 E19.00802
G0 F6000 X130.923 Y113.602
;MESH:NONMESH
G0 F300 X130.923 Y113.602 Z0.4
G0 F6000 X131.013 Y113.602
G0 X130.941 Y121.051
G0 X122.377 Y121.233
;TIME_ELAPSED:36.751671
;LAYER:1
M106 S85
;TYPE:WALL-INNER
;MESH:b3ae6765-5199-43f8-a736-6d9b2f128543.stl
G1 F1200 X122.377 Y112.433 E19.30071
G1 X131.123 Y112.433 E19.5916
G1 X131.123 Y121.233 E19.88429
G1 X122.377 Y121.233 E20.17519
G0 F7500 X121.977 Y121.633
;TYPE:WALL-OUTER
G1 F1200 X121.977 Y112.033 E20.49448
G1 X131.523 Y112.033 E20.81199
G1 X131.523 Y121.633 E21.13128
G1 X121.977 Y121.633 E21.44878
G0 F7500 X122.247 Y121.363
G0 X122.487 Y120.843
G0 X122.767 Y120.843
;TYPE:SKIN
G1 F1200 X122.767 Y112.823 E21.71553
G1 X130.733 Y112.823 E21.98048
G1 X130.733 Y120.843 E22.24723
G1 X122.767 Y120.843 E22.51218
G0 F7500 X122.487 Y120.843
G0 X130.941 Y121.051
G0 X131.013 Y120.592
G0 X130.572 Y120.592
G1 F1200 X130.481 Y120.683 E22.51646
G0 F7500 X129.915 Y120.683
G1 F1200 X130.572 Y120.026 E22.54736
G0 F7500 X130.572 Y119.46
G1 F1200 X129.349 Y120.683 E22.60489
G0 F7500 X128.783 Y120.683
G1 F1200 X130.572 Y118.895 E22.68901
G0 F7500 X130.572 Y118.329
G1 F1200 X128.218 Y120.683 E22.79974
G0 F7500 X127.652 Y120.683
G1 F1200 X130.572 Y117.763 E22.93708
G0 F7500 X130.572 Y117.197
G1 F1200 X127.086 Y120.683 E23.10106
G0 F7500 X126.521 Y120.683
G1 F1200 X130.572 Y116.632 E23.2916
G0 F7500 X130.572 Y116.066
G1 F1200 X125.955 Y120.683 E23.50877
G0 F7500 X125.389 Y120.683
G1 F1200 X130.572 Y115.5 E23.75256
G0 F7500 X130.572 Y114.935
G1 F1200 X124.824 Y120.683 E24.02293
G0 F7500 X124.258 Y120.683
G1 F1200 X130.572 Y114.369 E24.31992
G0 F7500 X130.572 Y113.803
G1 F1200 X123.692 Y120.683 E24.64354
G0 F7500 X123.127 Y120.683
G1 F1200 X130.572 Y113.238 E24.99373
G0 F7500 X130.261 Y112.982
G1 F1200 X122.926 Y120.318 E25.33877
G0 F7500 X122.926 Y119.752
G1 F1200 X129.696 Y112.982 E25.65721
G0 F7500 X129.13 Y112.982
G1 F1200 X122.926 Y119.187 E25.94905
G0 F7500 X122.926 Y118.621
G1 F1200 X128.564 Y112.982 E26.21427
G0 F7500 X127.999 Y112.982
G1 F1200 X122.926 Y118.055 E26.45288
G0 F7500 X122.926 Y117.49
G1 F1200 X127.433 Y112.982 E26.6649
G0 F7500 X126.867 Y112.982
G1 F1200 X122.926 Y116.924 E26.8503
G0 F7500 X122.926 Y116.358
G1 F1200 X126.301 Y112.982 E27.00907
G0 F7500 X125.736 Y112.982
G1 F1200 X122.926 Y115.792 E27.14125
G0 F7500 X122.926 Y115.227
G1 F1200 X125.17 Y112.982 E27.24682
G0 F7500 X124.604 Y112.982
G1 F1200 X122.926 Y114.661 E27.32577
G0 F7500 X122.926 Y114.095
G1 F1200 X124.039 Y112.982 E27.37812
G0 F7500 X123.473 Y112.982
G1 F1200 X122.926 Y113.53 E27.40388
G0 F7500 X122.577 Y113.53
;MESH:NONMESH
G0 F300 X122.577 Y113.53 Z0.6
G0 F7500 X122.487 Y113.53
G0 X122.377 Y121.233
;TIME_ELAPSED:52.285439
;LAYER:2
M106 S170
;TYPE:WALL-INNER
;MESH:b3ae6765-5199-43f8-a736-6d9b2f128543.stl
G1 F1200 X122.377 Y112.433 E27.69657
G1 X131.123 Y112.433 E27.98746
G1 X131.123 Y121.233 E28.28015
G1 X122.377 Y121.233 E28.57104
G0 F9000 X121.977 Y121.633
;TYPE:WALL-OUTER
G1 F1200 X121.977 Y112.033 E28.89034
G1 X131.523 Y112.033 E29.20784
G1 X131.523 Y121.633 E29.52714
G1 X121.977 Y121.633 E29.84464
G0 F9000 X122.247 Y121.363
G0 X122.487 Y120.843
G0 X122.767 Y120.843
;TYPE:SKIN
G1 F1200 X122.767 Y112.823 E30.11138
G1 X130.733 Y112.823 E30.37633
G1 X130.733 Y120.843 E30.64308
G1 X122.767 Y120.843 E30.90803
G0 F9000 X123.511 Y120.682
G1 F1200 X122.926 Y120.097 E30.93555
G0 F9000 X122.926 Y119.532
G1 F1200 X124.076 Y120.682 E30.98964
G0 F9000 X124.642 Y120.682
G1 F1200 X122.926 Y118.966 E31.07036
G0 F9000 X122.926 Y118.4
G1 F1200 X125.208 Y120.682 E31.17769
G0 F9000 X125.773 Y120.682
G1 F1200 X122.926 Y117.835 E31.31161
G0 F9000 X122.926 Y117.269
G1 F1200 X126.339 Y120.682 E31.47215
G0 F9000 X126.905 Y120.682
G1 F1200 X122.926 Y116.703 E31.65931
G0 F9000 X122.926 Y116.138
G1 F1200 X127.47 Y120.682 E31.87304
G0 F9000 X128.036 Y120.682
G1 F1200 X122.926 Y115.572 E32.1134
G0 F9000 X122.926 Y115.006
G1 F1200 X128.602 Y120.682 E32.38038
G0 F9000 X129.167 Y120.682
G1 F1200 X122.926 Y114.44 E32.67396
G0 F9000 X122.926 Y113.875
G1 F1200 X129.733 Y120.682 E32.99414
G0 F9000 X130.299 Y120.682
G1 F1200 X122.926 Y113.309 E33.34095
G0 F9000 X123.165 Y112.982
G1 F1200 X130.572 Y120.39 E33.68937
G0 F9000 X130.572 Y119.824
G1 F1200 X123.73 Y112.982 E34.0112
G0 F9000 X124.296 Y112.982
G1 F1200 X130.572 Y119.259 E34.30643
G0 F9000 X130.572 Y118.693
G1 F1200 X124.862 Y112.982 E34.57503
G0 F9000 X125.428 Y112.982
G1 F1200 X130.572 Y118.127 E34.81701
G0 F9000 X130.572 Y117.562
G1 F1200 X125.993 Y112.982 E35.03242
G0 F9000 X126.559 Y112.982
G1 F1200 X130.572 Y116.996 E35.2212
G0 F9000 X130.572 Y116.43
G1 F1200 X127.125 Y112.982 E35.38336
G0 F9000 X127.69 Y112.982
G1 F1200 X130.572 Y115.865 E35.51894
G0 F9000 X130.572 Y115.299
G1 F1200 X128.256 Y112.982 E35.62791
G0 F9000 X128.822 Y112.982
G1 F1200 X130.572 Y114.733 E35.71024
G0 F9000 X130.572 Y114.168
G1 F1200 X129.387 Y112.982 E35.76601
G0 F9000 X129.953 Y112.982
G1 F1200 X130.572 Y113.602 E35.79515
