;FLAVOR:Marlin
;TIME:791
;Filament used: 0.438788m
;Layer height: 0.2
;MINX:39.08
;MINY:91.272
;MINZ:0.2
;MAXX:195.91
;MAXY:143.728
;MAXZ:6.27
;Generated with Cura_SteamEngine 4.8.0
M140 S60
M105
M190 S60
M104 S190
M105
M109 S190
M82 ;absolute extrusion mode
; Ender 3 Custom Start G-code
G92 E0 ; Reset Extruder
G28 ; Home all axes
M420 S1  ; use saved bed leveling
G1 Z2.0 F3000 ; Move Z Axis up little to prevent scratching of Heat Bed
G1 X0.1 Y20 Z0.3 F5000.0 ; Move to start position
G1 X0.1 Y200.0 Z0.3 F1500.0 E15 ; Draw the first line
G1 X0.4 Y200.0 Z0.3 F5000.0 ; Move to side a little
G1 X0.4 Y20 Z0.3 F1500.0 E30 ; Draw the second line
G92 E0 ; Reset Extruder
G1 Z2.0 F3000 ; Move Z Axis up little to prevent scratching of Heat Bed
G1 X5 Y20 Z0.3 F5000.0 ; Move over to prevent blob squish
G92 E0
G92 E0
G1 F2700 E-5
;LAYER_COUNT:6
;LAYER:0
M107
G0 F6000 X153.513 Y102.908 Z0.2
;TYPE:SKIRT
G1 F2700 E0
G1 F1200 X153.741 Y102.573 E0.01348
G1 X153.94 Y102.291 E0.02496
G1 X154.223 Y101.902 E0.04096
G1 X154.431 Y101.624 E0.05251
G1 X154.821 Y101.122 E0.07365
G1 X155.07 Y100.814 E0.08682
G1 X155.213 Y100.643 E0.09424
G1 X155.415 Y100.409 E0.10452
G1 X155.932 Y99.825 E0.13046
G1 X156.152 Y99.583 E0.14134
G1 X156.308 Y99.417 E0.14891
G1 X156.579 Y99.139 E0.16183
G1 X157.058 Y98.664 E0.18426
G1 X157.287 Y98.443 E0.19485
G1 X157.583 Y98.166 E0.20833
G1 X157.886 Y97.893 E0.2219
G1 X158.304 Y97.53 E0.24031
G1 X158.55 Y97.322 E0.25102
G1 X158.919 Y97.02 E0.26688
G1 X159.226 Y96.778 E0.27989
G1 X159.506 Y96.565 E0.29159
G1 X159.775 Y96.367 E0.3027
G1 X160.376 Y95.938 E0.32726
G1 X160.641 Y95.754 E0.33799
G1 X160.817 Y95.636 E0.34503
G1 X161.137 Y95.43 E0.35769
G1 X161.816 Y95.008 E0.38428
G1 X162.203 Y94.778 E0.39925
G1 X162.518 Y94.602 E0.41126
G1 X163.248 Y94.21 E0.43882
G1 X163.604 Y94.027 E0.45213
G1 X164.04 Y93.817 E0.46822
G1 X164.728 Y93.502 E0.49339
G1 X165.07 Y93.353 E0.5058
G1 X165.403 Y93.214 E0.5178
G1 X165.714 Y93.089 E0.52895
G1 X166.159 Y92.919 E0.54479
G1 X166.504 Y92.794 E0.557
G1 X167.079 Y92.596 E0.57722
G1 X167.401 Y92.491 E0.58849
G1 X167.646 Y92.415 E0.59702
G1 X168.01 Y92.309 E0.60963
G1 X168.842 Y92.082 E0.63831
G1 X169.494 Y91.925 E0.66062
G1 X170.358 Y91.745 E0.68997
G1 X170.744 Y91.672 E0.70304
G1 X171.106 Y91.61 E0.71526
G1 X171.411 Y91.562 E0.72552
G1 X171.804 Y91.506 E0.73873
G1 X172.185 Y91.459 E0.7515
G1 X172.848 Y91.388 E0.77367
G1 X173.205 Y91.355 E0.7856
G1 X173.542 Y91.33 E0.79684
G1 X173.89 Y91.31 E0.80843
G1 X174.432 Y91.287 E0.82647
G1 X174.795 Y91.277 E0.83855
G1 X175.328 Y91.272 E0.85628
G1 X175.655 Y91.274 E0.86716
G1 X175.999 Y91.281 E0.8786
G1 X176.379 Y91.296 E0.89125
G1 X177.197 Y91.341 E0.9185
G1 X177.637 Y91.373 E0.93317
G1 X178.002 Y91.411 E0.94538
G1 X178.731 Y91.498 E0.9698
G1 X179.05 Y91.54 E0.9805
G1 X179.432 Y91.597 E0.99334
G1 X179.82 Y91.662 E1.00643
G1 X180.261 Y91.744 E1.02135
G1 X180.599 Y91.813 E1.03282
G1 X181.235 Y91.952 E1.05447
G1 X181.571 Y92.031 E1.06595
G1 X181.865 Y92.105 E1.07604
G1 X182.212 Y92.198 E1.08799
G1 X182.878 Y92.389 E1.11103
G1 X183.225 Y92.495 E1.1231
G1 X183.479 Y92.577 E1.13197
G1 X183.796 Y92.685 E1.14311
G1 X184.407 Y92.903 E1.16469
G1 X184.752 Y93.032 E1.17694
G1 X185.19 Y93.205 E1.1926
G1 X185.49 Y93.329 E1.2034
G1 X185.809 Y93.466 E1.21495
G1 X186.15 Y93.619 E1.22738
G1 X186.758 Y93.905 E1.24973
G1 X187.079 Y94.063 E1.26163
G1 X187.453 Y94.254 E1.27559
G1 X187.738 Y94.404 E1.28631
G1 X188.194 Y94.654 E1.3036
G1 X188.559 Y94.864 E1.31761
G1 X188.781 Y94.997 E1.32622
G1 X189.385 Y95.386 E1.35011
G1 X189.612 Y95.543 E1.35929
G1 X190.212 Y95.989 E1.38416
G1 X190.434 Y96.166 E1.3936
G1 X191.226 Y96.861 E1.42865
G1 X191.595 Y97.218 E1.44572
G1 X192.364 Y98.043 E1.48323
G1 X192.507 Y98.213 E1.49062
G1 X193.096 Y98.979 E1.52276
G1 X193.34 Y99.327 E1.5369
G1 X193.908 Y100.227 E1.57229
G1 X194.102 Y100.57 E1.5854
G1 X194.582 Y101.524 E1.62092
G1 X194.716 Y101.826 E1.63191
G1 X194.945 Y102.382 E1.65191
G1 X195.016 Y102.569 E1.65856
G1 X195.261 Y103.289 E1.68386
G1 X195.297 Y103.408 E1.68799
G1 X195.483 Y104.103 E1.71192
G1 X195.562 Y104.443 E1.72353
G1 X195.667 Y104.949 E1.74072
G1 X195.711 Y105.189 E1.74884
G1 X195.831 Y106.028 E1.77702
G1 X195.84 Y106.114 E1.7799
G1 X195.893 Y106.855 E1.80461
G1 X195.91 Y107.318 E1.82002
G1 X195.902 Y108.3 E1.85268
G1 X195.882 Y108.68 E1.86534
G1 X195.855 Y109.064 E1.87814
G1 X195.795 Y109.749 E1.90101
G1 X195.608 Y112.318 E1.98668
G1 X195.497 Y114.816 E2.06985
G1 X195.455 Y117.377 E2.15504
G1 X195.485 Y119.857 E2.23753
G1 X195.586 Y122.352 E2.32058
G1 X195.819 Y125.582 E2.42829
G1 X195.86 Y126.033 E2.44335
G1 X195.9 Y126.738 E2.46684
G1 X195.91 Y127.128 E2.47982
G1 X195.889 Y128.157 E2.51405
G1 X195.856 Y128.642 E2.53022
G1 X195.715 Y129.8 E2.56902
G1 X195.683 Y129.982 E2.57516
G1 X195.481 Y130.897 E2.60633
G1 X195.368 Y131.323 E2.62099
G1 X195.083 Y132.236 E2.6528
G1 X194.978 Y132.527 E2.66309
G1 X194.547 Y133.556 E2.70019
G1 X194.389 Y133.885 E2.71233
G1 X194.139 Y134.373 E2.73057
G1 X194.032 Y134.57 E2.73803
G1 X193.533 Y135.399 E2.77021
G1 X193.47 Y135.494 E2.774
G1 X193.123 Y135.988 E2.79408
G1 X192.889 Y136.302 E2.8071
G1 X192.237 Y137.097 E2.8413
G1 X191.97 Y137.393 E2.85456
G1 X191.222 Y138.145 E2.88984
G1 X190.99 Y138.357 E2.90029
G1 X190.17 Y139.037 E2.93572
G1 X189.81 Y139.307 E2.95069
G1 X189.267 Y139.689 E2.97277
G1 X189.079 Y139.813 E2.98026
G1 X188.708 Y140.048 E2.99487
G1 X188.602 Y140.112 E2.99898
G1 X188.183 Y140.352 E3.01504
G1 X187.633 Y140.652 E3.03588
G1 X187.338 Y140.807 E3.04697
G1 X187.04 Y140.958 E3.05808
G1 X186.711 Y141.118 E3.07025
G1 X185.998 Y141.45 E3.0964
G1 X185.607 Y141.623 E3.11063
G1 X185.246 Y141.771 E3.1236
G1 X184.608 Y142.022 E3.14641
G1 X184.208 Y142.171 E3.1606
G1 X183.707 Y142.346 E3.17825
G1 X183.42 Y142.442 E3.18832
G1 X183.034 Y142.565 E3.20179
G1 X182.692 Y142.668 E3.21367
G1 X182.279 Y142.785 E3.22795
G1 X181.927 Y142.878 E3.24006
G1 X181.245 Y143.047 E3.26343
G1 X180.874 Y143.132 E3.27609
G1 X180.68 Y143.173 E3.28268
G1 X180.367 Y143.235 E3.2933
G1 X179.65 Y143.365 E3.31753
G1 X179.302 Y143.422 E3.32926
G1 X178.938 Y143.476 E3.3415
G1 X178.57 Y143.524 E3.35384
G1 X178.026 Y143.586 E3.37205
G1 X177.691 Y143.619 E3.38325
G1 X177.246 Y143.656 E3.3981
G1 X176.867 Y143.681 E3.41073
G1 X176.289 Y143.709 E3.42998
G1 X175.963 Y143.72 E3.44083
G1 X175.59 Y143.727 E3.45324
G1 X175.229 Y143.728 E3.46525
G1 X174.663 Y143.72 E3.48407
G1 X174.289 Y143.708 E3.49652
G1 X173.811 Y143.685 E3.51244
G1 X173.477 Y143.664 E3.52357
G1 X172.969 Y143.624 E3.54051
G1 X172.596 Y143.588 E3.55298
G1 X172.198 Y143.543 E3.5663
G1 X171.865 Y143.501 E3.57746
G1 X171.282 Y143.417 E3.59705
G1 X170.921 Y143.358 E3.60922
G1 X170.517 Y143.286 E3.62287
G1 X170.183 Y143.221 E3.63419
G1 X169.603 Y143.099 E3.6539
G1 X169.249 Y143.019 E3.66597
G1 X168.849 Y142.921 E3.67967
G1 X168.515 Y142.834 E3.69115
G1 X168.016 Y142.695 E3.70838
G1 X167.659 Y142.589 E3.72076
G1 X167.231 Y142.454 E3.73569
G1 X166.919 Y142.35 E3.74663
G1 X166.417 Y142.175 E3.76431
G1 X166.07 Y142.047 E3.77661
G1 X165.615 Y141.871 E3.79284
G1 X165.295 Y141.742 E3.80431
G1 X164.858 Y141.557 E3.8201
G1 X164.536 Y141.415 E3.8318
G1 X164.055 Y141.193 E3.84942
G1 X163.76 Y141.051 E3.86031
G1 X163.489 Y140.916 E3.87038
G1 X163.14 Y140.734 E3.88347
G1 X162.43 Y140.348 E3.91035
G1 X161.85 Y140.01 E3.93268
G1 X160.934 Y139.437 E3.96861
G1 X160.35 Y139.045 E3.99201
G1 X159.686 Y138.568 E4.0192
G1 X159.38 Y138.339 E4.03191
G1 X159.213 Y138.21 E4.03893
G1 X158.938 Y137.991 E4.05062
G1 X158.316 Y137.478 E4.07744
G1 X158.056 Y137.257 E4.08879
G1 X157.9 Y137.12 E4.0957
G1 X157.653 Y136.897 E4.10676
G1 X157.218 Y136.491 E4.12655
G1 X156.926 Y136.207 E4.1401
G1 X156.534 Y135.813 E4.15859
G1 X156.323 Y135.595 E4.16868
G1 X156.018 Y135.271 E4.18348
G1 X155.742 Y134.967 E4.19713
G1 X155.397 Y134.572 E4.21458
G1 X155.195 Y134.334 E4.22496
G1 X154.913 Y133.992 E4.2397
G1 X154.685 Y133.706 E4.25187
G1 X154.38 Y133.31 E4.26849
G1 X154.176 Y133.036 E4.27986
G1 X153.901 Y132.655 E4.29548
G1 X153.687 Y132.349 E4.3079
G1 X153.403 Y131.926 E4.32485
G1 X153.214 Y131.633 E4.33645
G1 X152.929 Y131.178 E4.3543
G1 X152.743 Y130.871 E4.36624
G1 X152.519 Y130.486 E4.38106
G1 X152.362 Y130.207 E4.3917
G1 X152.131 Y129.782 E4.40779
G1 X151.957 Y129.448 E4.42032
G1 X151.777 Y129.088 E4.43371
G1 X151.618 Y128.756 E4.44595
G1 X151.34 Y128.15 E4.46812
G1 X151.197 Y127.824 E4.47996
G1 X151.047 Y127.467 E4.49284
G1 X150.933 Y127.184 E4.50299
G1 X150.779 Y126.787 E4.51715
G1 X150.643 Y126.418 E4.53023
G1 X150.42 Y125.776 E4.55284
G1 X150.316 Y125.463 E4.56381
G1 X150.229 Y125.186 E4.57347
G1 X150.123 Y124.826 E4.58595
G1 X149.964 Y124.252 E4.60576
G1 X149.883 Y123.944 E4.61635
G1 X149.791 Y123.57 E4.62916
G1 X149.707 Y123.201 E4.64175
G1 X149.566 Y122.529 E4.66459
G1 X149.498 Y122.172 E4.67667
G1 X149.442 Y121.853 E4.68744
G1 X149.39 Y121.531 E4.69829
G1 X149.327 Y121.097 E4.71288
G1 X149.279 Y120.724 E4.72539
G1 X149.209 Y120.09 E4.7466
G1 X149.176 Y119.732 E4.75856
G1 X149.139 Y119.254 E4.77451
G1 X149.118 Y118.911 E4.78594
G1 X149.099 Y118.498 E4.79969
G1 X149.088 Y118.149 E4.8113
G1 X149.08 Y117.589 E4.82993
G1 X149.081 Y117.234 E4.84174
G1 X149.09 Y116.735 E4.85834
G1 X149.102 Y116.387 E4.86992
G1 X149.12 Y116.025 E4.88197
G1 X149.145 Y115.651 E4.89444
G1 X149.2 Y114.996 E4.9163
G1 X149.234 Y114.651 E4.92783
G1 X149.273 Y114.314 E4.93911
G1 X149.32 Y113.959 E4.95102
G1 X149.415 Y113.321 E4.97248
G1 X149.467 Y113.006 E4.9831
G1 X149.509 Y112.771 E4.99104
G1 X149.584 Y112.386 E5.00408
G1 X149.765 Y111.547 E5.03263
G1 X149.841 Y111.219 E5.04383
G1 X149.872 Y111.094 E5.04811
G1 X149.963 Y110.753 E5.05985
G1 X150.17 Y110.02 E5.08518
G1 X150.274 Y109.672 E5.09726
G1 X150.359 Y109.405 E5.10658
G1 X150.466 Y109.086 E5.11778
G1 X150.676 Y108.49 E5.13879
G1 X150.807 Y108.138 E5.15128
G1 X150.987 Y107.678 E5.16771
G1 X151.107 Y107.384 E5.17828
G1 X151.223 Y107.111 E5.18814
G1 X151.371 Y106.779 E5.20023
G1 X151.678 Y106.118 E5.22447
G1 X151.843 Y105.777 E5.23707
G1 X151.951 Y105.564 E5.24501
G1 X152.093 Y105.294 E5.25516
G1 X152.432 Y104.669 E5.27881
G1 X152.649 Y104.287 E5.29342
G1 X152.827 Y103.988 E5.305
G1 X152.985 Y103.73 E5.31506
G1 X153.313 Y103.212 E5.33545
G1 X153.513 Y102.908 E5.34755
G0 F6000 X153.844 Y103.133
G1 F1200 X154.072 Y102.798 E5.36103
G1 X154.263 Y102.526 E5.37209
G1 X154.546 Y102.137 E5.38809
G1 X154.747 Y101.87 E5.3992
G1 X155.137 Y101.368 E5.42034
G1 X155.377 Y101.071 E5.43304
G1 X155.52 Y100.9 E5.44046
G1 X155.714 Y100.674 E5.45036
G1 X156.231 Y100.09 E5.47631
G1 X156.444 Y99.857 E5.48681
G1 X156.6 Y99.691 E5.49438
G1 X156.86 Y99.423 E5.5068
G1 X157.339 Y98.948 E5.52924
G1 X157.56 Y98.735 E5.53945
G1 X157.856 Y98.458 E5.55293
G1 X158.149 Y98.195 E5.56603
G1 X158.567 Y97.832 E5.58444
G1 X158.803 Y97.632 E5.59473
G1 X159.172 Y97.33 E5.61059
G1 X159.468 Y97.097 E5.62312
G1 X159.748 Y96.884 E5.63482
G1 X160.008 Y96.692 E5.64557
G1 X160.609 Y96.263 E5.67013
G1 X160.864 Y96.087 E5.68043
G1 X161.04 Y95.969 E5.68748
G1 X161.348 Y95.77 E5.69968
G1 X162.027 Y95.348 E5.72627
G1 X162.404 Y95.124 E5.74085
G1 X162.707 Y94.954 E5.75241
G1 X163.437 Y94.562 E5.77997
G1 X163.78 Y94.386 E5.79279
G1 X163.947 Y94.304 E5.79898
G1 X164.206 Y94.181 E5.80851
G1 X164.894 Y93.866 E5.83368
G1 X165.224 Y93.722 E5.84566
G1 X165.557 Y93.583 E5.85766
G1 X165.857 Y93.463 E5.86841
G1 X166.302 Y93.293 E5.88425
G1 X166.634 Y93.173 E5.89599
G1 X167.209 Y92.975 E5.91622
G1 X167.519 Y92.873 E5.92707
G1 X167.764 Y92.797 E5.9356
G1 X168.115 Y92.695 E5.94776
G1 X168.947 Y92.468 E5.97644
G1 X169.575 Y92.317 E5.99793
G1 X170.439 Y92.137 E6.02728
G1 X170.812 Y92.066 E6.03991
G1 X171.174 Y92.004 E6.05213
G1 X171.468 Y91.958 E6.06202
G1 X171.861 Y91.902 E6.07523
G1 X172.227 Y91.856 E6.0875
G1 X172.89 Y91.785 E6.10967
G1 X173.235 Y91.754 E6.12119
G1 X173.572 Y91.729 E6.13243
G1 X173.907 Y91.71 E6.14359
G1 X174.449 Y91.687 E6.16164
G1 X174.799 Y91.677 E6.17328
G1 X175.332 Y91.672 E6.19101
G1 X175.647 Y91.674 E6.20149
G1 X175.991 Y91.681 E6.21293
G1 X176.357 Y91.695 E6.22511
G1 X177.175 Y91.74 E6.25236
G1 X177.603 Y91.772 E6.26664
G1 X177.954 Y91.808 E6.27837
G1 X178.683 Y91.895 E6.30279
G1 X178.991 Y91.936 E6.31313
G1 X179.373 Y91.993 E6.32597
G1 X179.747 Y92.056 E6.33859
G1 X180.188 Y92.138 E6.35351
G1 X180.513 Y92.203 E6.36453
G1 X181.149 Y92.342 E6.38618
G1 X181.473 Y92.419 E6.39726
G1 X181.767 Y92.493 E6.40734
G1 X182.102 Y92.583 E6.41888
G1 X182.768 Y92.774 E6.44192
G1 X183.103 Y92.876 E6.45357
G1 X183.357 Y92.958 E6.46245
G1 X183.662 Y93.061 E6.47315
G1 X184.273 Y93.279 E6.49473
G1 X184.605 Y93.404 E6.50653
G1 X185.043 Y93.577 E6.52219
G1 X185.332 Y93.696 E6.53259
G1 X185.651 Y93.833 E6.54414
G1 X185.98 Y93.981 E6.55613
G1 X186.588 Y94.267 E6.57848
G1 X186.897 Y94.419 E6.58994
G1 X187.271 Y94.61 E6.6039
G1 X187.546 Y94.755 E6.61424
G1 X188.002 Y95.005 E6.63154
G1 X188.354 Y95.207 E6.64504
G1 X188.576 Y95.34 E6.65365
G1 X189.158 Y95.715 E6.67667
G1 X189.385 Y95.872 E6.68585
G1 X189.963 Y96.302 E6.70981
G1 X190.185 Y96.479 E6.71926
G1 X190.947 Y97.149 E6.75301
G1 X191.316 Y97.506 E6.77008
G1 X192.058 Y98.301 E6.80625
G1 X192.201 Y98.471 E6.81364
G1 X192.768 Y99.209 E6.84459
G1 X193.012 Y99.557 E6.85873
G1 X193.559 Y100.424 E6.89283
G1 X193.753 Y100.767 E6.90593
G1 X194.216 Y101.686 E6.94016
G1 X194.35 Y101.988 E6.95115
G1 X194.571 Y102.524 E6.97043
G1 X194.642 Y102.711 E6.97708
G1 X194.878 Y103.405 E7.00146
G1 X194.914 Y103.524 E7.0056
G1 X195.093 Y104.194 E7.02867
G1 X195.172 Y104.534 E7.04028
G1 X195.273 Y105.022 E7.05685
G1 X195.317 Y105.262 E7.06497
G1 X195.433 Y106.07 E7.09212
G1 X195.442 Y106.156 E7.09499
G1 X195.493 Y106.87 E7.1188
G1 X195.51 Y107.333 E7.13421
G1 X195.502 Y108.279 E7.16567
G1 X195.482 Y108.659 E7.17833
G1 X195.456 Y109.029 E7.19067
G1 X195.398 Y109.685 E7.21257
G1 X195.208 Y112.308 E7.30004
G1 X195.097 Y114.792 E7.38274
G1 X195.055 Y117.375 E7.46866
G1 X195.085 Y119.878 E7.55192
G1 X195.186 Y122.366 E7.63474
G1 X195.423 Y125.645 E7.74408
G1 X195.461 Y126.069 E7.75824
G1 X195.501 Y126.748 E7.78087
G1 X195.511 Y127.138 E7.79384
G1 X195.49 Y128.13 E7.82684
G1 X195.457 Y128.615 E7.84301
G1 X195.321 Y129.731 E7.8804
G1 X195.289 Y129.913 E7.88655
G1 X195.095 Y130.795 E7.91659
G1 X194.982 Y131.221 E7.93125
G1 X194.707 Y132.101 E7.96191
G1 X194.602 Y132.392 E7.9722
G1 X194.186 Y133.383 E8.00795
G1 X194.028 Y133.712 E8.02009
G1 X193.788 Y134.182 E8.03764
G1 X193.681 Y134.379 E8.0451
G1 X193.2 Y135.178 E8.07611
G1 X193.137 Y135.273 E8.07991
G1 X192.802 Y135.749 E8.09926
G1 X192.568 Y136.063 E8.11229
G1 X191.94 Y136.829 E8.14523
G1 X191.673 Y137.125 E8.15849
G1 X190.952 Y137.85 E8.1925
G1 X190.72 Y138.062 E8.20295
G1 X189.93 Y138.717 E8.23709
G1 X189.57 Y138.987 E8.25205
G1 X189.046 Y139.356 E8.27337
G1 X188.858 Y139.48 E8.28086
G1 X188.501 Y139.705 E8.29489
G1 X188.395 Y139.769 E8.29901
G1 X187.992 Y140.001 E8.31448
G1 X187.442 Y140.301 E8.33532
G1 X187.157 Y140.45 E8.34601
G1 X186.859 Y140.601 E8.35712
G1 X186.542 Y140.755 E8.36885
G1 X185.829 Y141.087 E8.39501
G1 X185.452 Y141.254 E8.40872
G1 X185.1 Y141.399 E8.42138
G1 X184.462 Y141.65 E8.44419
G1 X184.076 Y141.793 E8.45788
G1 X183.575 Y141.968 E8.47553
G1 X183.298 Y142.061 E8.48525
G1 X182.912 Y142.184 E8.49872
G1 X182.583 Y142.283 E8.51015
G1 X182.17 Y142.4 E8.52442
G1 X181.831 Y142.49 E8.53609
G1 X181.149 Y142.659 E8.55946
G1 X180.791 Y142.741 E8.57167
G1 X180.597 Y142.782 E8.57827
G1 X180.296 Y142.841 E8.58847
G1 X179.579 Y142.971 E8.61271
G1 X179.244 Y143.026 E8.624
G1 X178.88 Y143.08 E8.63624
G1 X178.524 Y143.127 E8.64818
G1 X177.98 Y143.189 E8.66639
G1 X177.658 Y143.221 E8.67715
G1 X177.213 Y143.258 E8.69201
G1 X176.848 Y143.282 E8.70417
G1 X176.27 Y143.31 E8.72342
G1 X175.956 Y143.32 E8.73387
G1 X175.583 Y143.327 E8.74628
G1 X175.234 Y143.328 E8.75788
G1 X174.668 Y143.32 E8.77671
G1 X174.309 Y143.309 E8.78866
G1 X173.831 Y143.286 E8.80457
G1 X173.508 Y143.265 E8.81534
G1 X173 Y143.225 E8.83229
G1 X172.641 Y143.191 E8.84428
G1 X172.243 Y143.146 E8.8576
G1 X171.922 Y143.105 E8.86837
G1 X171.339 Y143.021 E8.88796
