;FLAVOR:Marlin
;TIME:6523
;Filament used: 3.84516m
;Layer height: 0.2
;MINX:38.078
;MINY:34.096
;MINZ:0.2
;MAXX:214.311
;MAXY:198.842
;MAXZ:17.7
;Generated with Cura_SteamEngine 4.8.0
M140 S60
M105
M190 S60
M104 S190
M105
M109 S190
M82 ;absolute extrusion mode
; Ender 3 Custom Start G-code
G92 E0 ; Reset Extruder
G28 ; Home all axes
M420 S1  ; use saved bed leveling
G1 Z2.0 F3000 ; Move Z Axis up little to prevent scratching of Heat Bed
G1 X0.1 Y20 Z0.3 F5000.0 ; Move to start position
G1 X0.1 Y200.0 Z0.3 F1500.0 E15 ; Draw the first line
G1 X0.4 Y200.0 Z0.3 F5000.0 ; Move to side a little
G1 X0.4 Y20 Z0.3 F1500.0 E30 ; Draw the second line
G92 E0 ; Reset Extruder
G1 Z2.0 F3000 ; Move Z Axis up little to prevent scratching of Heat Bed
G1 X5 Y20 Z0.3 F5000.0 ; Move over to prevent blob squish
G92 E0
G92 E0
G1 F2700 E-5
;LAYER_COUNT:63
;LAYER:0
M107
G0 F6000 X105.658 Y173.614 Z0.2
;TYPE:SKIRT
G1 F2700 E0
G1 F1200 X106.486 Y173.172 E0.03122
G1 X107.348 Y172.803 E0.0624
G1 X108.238 Y172.508 E0.09359
G1 X109.15 Y172.29 E0.12478
G1 X109.646 Y172.206 E0.14151
G1 X110.182 Y172.129 E0.15952
G1 X112.114 Y171.88 E0.22431
G1 X114.598 Y171.489 E0.30795
G1 X117.059 Y171.03 E0.39121
G1 X117.3 Y170.979 E0.3994
G1 X118.603 Y170.717 E0.44361
G1 X119.529 Y170.571 E0.47479
G1 X120.533 Y170.504 E0.50826
G1 X123.492 Y170.44 E0.60669
G1 X126.043 Y170.314 E0.69165
G1 X128.578 Y170.116 E0.77622
G1 X131.032 Y169.855 E0.8583
G1 X133.55 Y169.514 E0.94281
G1 X136.024 Y169.109 E1.02619
G1 X138.511 Y168.629 E1.11044
G1 X140.961 Y168.083 E1.19392
G1 X143.391 Y167.47 E1.27728
G1 X145.803 Y166.787 E1.36065
G1 X148.255 Y166.018 E1.44612
G1 X150.61 Y165.205 E1.52899
G1 X152.946 Y164.324 E1.61203
G1 X155.303 Y163.358 E1.69675
G1 X157.599 Y162.34 E1.78028
G1 X159.861 Y161.26 E1.86365
G1 X162.094 Y160.116 E1.9471
G1 X164.292 Y158.909 E2.03051
G1 X166.512 Y157.607 E2.11611
G1 X168.598 Y156.305 E2.19789
G1 X170.72 Y154.894 E2.28265
G1 X172.772 Y153.443 E2.36624
G1 X174.781 Y151.937 E2.44975
G1 X176.741 Y150.379 E2.53302
G1 X178.68 Y148.745 E2.61736
G1 X180.575 Y147.055 E2.70181
G1 X182.385 Y145.347 E2.78458
G1 X184.167 Y143.567 E2.86836
G1 X185.872 Y141.765 E2.95087
G1 X188.073 Y139.283 E3.0612
G1 X188.369 Y138.94 E3.07627
G1 X188.905 Y138.362 E3.10249
G1 X189.106 Y138.16 E3.11197
G1 X189.56 Y137.729 E3.13279
G1 X189.647 Y137.651 E3.13667
G1 X189.939 Y137.398 E3.14953
G1 X190.133 Y137.236 E3.15793
G1 X190.759 Y136.751 E3.18427
G1 X190.866 Y136.674 E3.18865
G1 X191.181 Y136.455 E3.20141
G1 X191.422 Y136.294 E3.21105
G1 X191.944 Y135.966 E3.23156
G1 X192.022 Y135.92 E3.23457
G1 X192.449 Y135.681 E3.25085
G1 X192.673 Y135.562 E3.25928
G1 X193.282 Y135.262 E3.28186
G1 X193.403 Y135.207 E3.28628
G1 X193.842 Y135.019 E3.30217
G1 X194.095 Y134.917 E3.31124
G1 X194.61 Y134.724 E3.32953
G1 X194.714 Y134.688 E3.33319
G1 X195.239 Y134.521 E3.35152
G1 X195.483 Y134.45 E3.35997
G1 X196.136 Y134.282 E3.38239
G1 X196.269 Y134.252 E3.38693
G1 X196.691 Y134.165 E3.40126
G1 X196.978 Y134.112 E3.41097
G1 X197.577 Y134.018 E3.43113
G1 X198.113 Y133.959 E3.44907
G1 X198.381 Y133.936 E3.45802
G1 X199.049 Y133.899 E3.48027
G1 X199.17 Y133.896 E3.48429
G1 X199.608 Y133.894 E3.49886
G1 X199.874 Y133.898 E3.50771
G1 X200.518 Y133.927 E3.52915
G1 X200.64 Y133.936 E3.53322
G1 X201.15 Y133.985 E3.55026
G1 X201.415 Y134.017 E3.55914
G1 X202.313 Y134.164 E3.5894
G1 X202.522 Y134.207 E3.5965
G1 X203.394 Y134.424 E3.62639
G1 X203.951 Y134.587 E3.64569
G1 X204.923 Y134.921 E3.67988
G1 X204.996 Y134.95 E3.68249
G1 X205.451 Y135.143 E3.69893
G1 X205.702 Y135.256 E3.70808
G1 X206.211 Y135.501 E3.72687
G1 X206.322 Y135.558 E3.73102
G1 X206.829 Y135.835 E3.75024
G1 X207.049 Y135.963 E3.7587
G1 X207.534 Y136.263 E3.77767
G1 X207.635 Y136.329 E3.78168
G1 X208.027 Y136.597 E3.79748
G1 X208.246 Y136.754 E3.80644
G1 X208.803 Y137.18 E3.82976
G1 X208.902 Y137.261 E3.83402
G1 X209.22 Y137.532 E3.84791
G1 X209.409 Y137.699 E3.8563
G1 X210.077 Y138.342 E3.88714
G1 X210.228 Y138.5 E3.89441
G1 X210.845 Y139.203 E3.92552
G1 X211.212 Y139.659 E3.94499
G1 X211.98 Y140.74 E3.98909
G1 X212.094 Y140.923 E3.99626
G1 X212.532 Y141.694 E4.02575
G1 X212.772 Y142.159 E4.04316
G1 X213.172 Y143.025 E4.07489
G1 X213.218 Y143.137 E4.07891
G1 X213.428 Y143.688 E4.09853
G1 X213.508 Y143.917 E4.10659
G1 X213.684 Y144.47 E4.1259
G1 X213.73 Y144.628 E4.13137
G1 X213.863 Y145.127 E4.14855
G1 X213.916 Y145.347 E4.15607
G1 X214.054 Y146.008 E4.17853
G1 X214.086 Y146.189 E4.18464
G1 X214.226 Y147.316 E4.22242
G1 X214.277 Y148.026 E4.24609
G1 X214.304 Y148.674 E4.26766
G1 X214.311 Y149.287 E4.28805
G1 X214.31 Y182.185 E5.38224
G1 X214.298 Y183.044 E5.41082
G1 X214.281 Y183.528 E5.42693
G1 X214.263 Y183.838 E5.43725
G1 X214.21 Y184.449 E5.45765
G1 X214.182 Y184.694 E5.46585
G1 X214.124 Y185.132 E5.48055
G1 X214.008 Y185.789 E5.50274
G1 X213.921 Y186.21 E5.51704
G1 X213.83 Y186.616 E5.53088
G1 X213.679 Y187.18 E5.5503
G1 X213.607 Y187.423 E5.55872
G1 X213.501 Y187.759 E5.57044
G1 X213.443 Y187.934 E5.57658
G1 X213.23 Y188.522 E5.59738
G1 X213.114 Y188.815 E5.60786
G1 X212.938 Y189.234 E5.62297
G1 X212.878 Y189.369 E5.62789
G1 X212.665 Y189.82 E5.64448
G1 X212.552 Y190.046 E5.65288
G1 X212.343 Y190.444 E5.66783
G1 X212.29 Y190.54 E5.67148
G1 X212.031 Y190.984 E5.68857
G1 X211.806 Y191.35 E5.70286
G1 X211.427 Y191.925 E5.72577
G1 X211.26 Y192.162 E5.73541
G1 X210.942 Y192.591 E5.75317
G1 X210.825 Y192.741 E5.7595
G1 X210.345 Y193.315 E5.78439
G1 X210.096 Y193.593 E5.7968
G1 X209.814 Y193.897 E5.81059
G1 X209.393 Y194.319 E5.83042
G1 X209.213 Y194.49 E5.83868
G1 X208.919 Y194.759 E5.85193
G1 X208.799 Y194.865 E5.85726
G1 X208.331 Y195.256 E5.87754
G1 X208.075 Y195.458 E5.88838
G1 X207.81 Y195.661 E5.89949
G1 X207.698 Y195.744 E5.90412
G1 X207.204 Y196.089 E5.92416
G1 X206.975 Y196.24 E5.93329
G1 X206.677 Y196.43 E5.94504
G1 X206.55 Y196.508 E5.95
G1 X206.016 Y196.816 E5.9705
G1 X205.725 Y196.973 E5.9815
G1 X205.365 Y197.159 E5.99498
G1 X204.746 Y197.448 E6.0177
G1 X204.448 Y197.576 E6.02849
G1 X204.068 Y197.732 E6.04215
G1 X203.435 Y197.962 E6.06455
G1 X203.143 Y198.058 E6.07477
G1 X202.783 Y198.169 E6.0873
G1 X202.577 Y198.229 E6.09444
G1 X202.031 Y198.373 E6.11322
G1 X201.866 Y198.412 E6.11886
G1 X201.556 Y198.481 E6.12942
G1 X201.357 Y198.522 E6.13618
G1 X200.767 Y198.627 E6.15611
G1 X200.46 Y198.673 E6.16644
G1 X200.088 Y198.722 E6.17892
G1 X199.949 Y198.738 E6.18357
G1 X199.339 Y198.791 E6.20394
G1 X199.085 Y198.806 E6.2124
G1 X198.772 Y198.82 E6.22282
G1 X198.28 Y198.835 E6.23919
G1 X197.76 Y198.842 E6.25649
G1 X121.311 Y198.841 E8.79919
G1 X120.611 Y198.831 E8.82248
G1 X119.675 Y198.778 E8.85366
G1 X118.607 Y198.618 E8.88958
G1 X115.867 Y198.069 E8.98252
G1 X113.429 Y197.652 E9.06479
G1 X110.889 Y197.29 E9.15012
G1 X109.845 Y197.156 E9.18513
G1 X108.921 Y196.997 E9.21631
G1 X108.013 Y196.76 E9.24752
G1 X107.129 Y196.446 E9.27873
G1 X106.275 Y196.058 E9.30992
G1 X105.457 Y195.599 E9.34112
G1 X104.682 Y195.072 E9.37229
G1 X103.954 Y194.481 E9.40348
G1 X103.278 Y193.83 E9.4347
G1 X102.661 Y193.124 E9.46588
G1 X102.107 Y192.368 E9.49705
G1 X101.618 Y191.567 E9.52827
G1 X101.2 Y190.728 E9.55944
G1 X100.854 Y189.856 E9.59065
G1 X100.585 Y188.957 E9.62186
G1 X100.392 Y188.04 E9.65303
G1 X100.279 Y187.109 E9.68422
G1 X100.249 Y186.542 E9.7031
G1 X100.24 Y186.209 E9.71418
G1 X100.236 Y185.912 E9.72406
G1 X100.237 Y183.617 E9.80039
G1 X100.247 Y182.929 E9.82328
G1 X100.301 Y181.993 E9.85446
G1 X100.434 Y181.064 E9.88568
G1 X100.646 Y180.151 E9.91685
G1 X100.934 Y179.258 E9.94806
G1 X101.298 Y178.394 E9.97924
G1 X101.734 Y177.564 E10.01042
G1 X102.24 Y176.774 E10.04163
G1 X102.81 Y176.029 E10.07283
G1 X103.442 Y175.336 E10.10402
G1 X104.131 Y174.7 E10.13521
G1 X104.872 Y174.124 E10.16642
G1 X105.658 Y173.614 E10.19759
G0 F6000 X106.037 Y173.857
G1 F1200 X106.858 Y173.44 E10.22821
G1 X107.712 Y173.096 E10.25884
G1 X108.592 Y172.827 E10.28944
G1 X109.704 Y172.602 E10.32718
G1 X110.233 Y172.526 E10.34495
G1 X112.156 Y172.279 E10.40944
G1 X114.668 Y171.883 E10.49402
G1 X117.146 Y171.42 E10.57786
G1 X117.378 Y171.371 E10.58575
G1 X118.681 Y171.109 E10.62996
G1 X119.591 Y170.967 E10.66059
G1 X120.542 Y170.903 E10.69229
G1 X123.555 Y170.838 E10.79253
G1 X126.06 Y170.714 E10.87594
G1 X128.58 Y170.517 E10.96002
G1 X131.13 Y170.246 E11.04531
G1 X133.598 Y169.912 E11.12814
G1 X136.094 Y169.503 E11.21227
G1 X138.602 Y169.019 E11.29722
G1 X141.041 Y168.475 E11.38034
G1 X143.493 Y167.857 E11.46444
G1 X145.926 Y167.168 E11.54854
G1 X148.369 Y166.402 E11.6337
G1 X150.734 Y165.585 E11.71692
G1 X153.121 Y164.685 E11.80177
G1 X155.422 Y163.743 E11.88447
G1 X157.776 Y162.698 E11.97013
G1 X160.051 Y161.613 E12.05396
G1 X162.29 Y160.465 E12.13765
G1 X164.482 Y159.262 E12.22081
G1 X166.705 Y157.958 E12.30653
G1 X168.826 Y156.634 E12.38969
G1 X170.926 Y155.237 E12.47358
G1 X173.02 Y153.757 E12.55887
G1 X175.024 Y152.255 E12.64216
G1 X177.002 Y150.682 E12.72622
G1 X178.94 Y149.049 E12.81051
G1 X180.833 Y147.362 E12.89485
G1 X182.653 Y145.644 E12.97809
G1 X184.479 Y143.82 E13.06393
G1 X186.179 Y142.023 E13.14621
G1 X188.328 Y139.601 E13.2539
G1 X188.672 Y139.201 E13.27145
G1 X189.188 Y138.644 E13.2967
G1 X189.389 Y138.442 E13.30618
G1 X189.827 Y138.027 E13.32625
G1 X189.914 Y137.949 E13.33013
G1 X190.196 Y137.705 E13.34254
G1 X190.39 Y137.543 E13.35094
G1 X190.992 Y137.075 E13.37631
G1 X191.099 Y136.998 E13.38069
G1 X191.403 Y136.788 E13.39298
G1 X191.644 Y136.627 E13.40262
G1 X192.147 Y136.311 E13.42238
G1 X192.225 Y136.265 E13.42539
G1 X192.637 Y136.034 E13.4411
G1 X192.861 Y135.915 E13.44953
G1 X193.448 Y135.626 E13.4713
G1 X193.569 Y135.571 E13.47572
G1 X193.991 Y135.39 E13.49099
G1 X194.244 Y135.288 E13.50006
G1 X194.741 Y135.102 E13.51771
G1 X194.845 Y135.066 E13.52137
G1 X195.35 Y134.905 E13.539
G1 X195.594 Y134.834 E13.54745
G1 X196.224 Y134.672 E13.56909
G1 X196.357 Y134.642 E13.57362
G1 X196.764 Y134.558 E13.58745
G1 X197.051 Y134.505 E13.59715
G1 X197.628 Y134.415 E13.61658
G1 X197.706 Y134.405 E13.61919
G1 X198.148 Y134.358 E13.63398
G1 X198.416 Y134.335 E13.64292
G1 X199.059 Y134.299 E13.66434
G1 X199.18 Y134.296 E13.66837
G1 X199.602 Y134.294 E13.6824
G1 X199.868 Y134.298 E13.69125
G1 X200.489 Y134.326 E13.71193
G1 X200.611 Y134.335 E13.716
G1 X201.102 Y134.382 E13.7324
G1 X201.367 Y134.414 E13.74128
G1 X202.232 Y134.555 E13.77043
G1 X202.441 Y134.598 E13.77753
G1 X203.282 Y134.808 E13.80636
G1 X203.839 Y134.971 E13.82566
G1 X204.775 Y135.293 E13.85858
G1 X204.848 Y135.322 E13.86119
G1 X205.286 Y135.507 E13.87701
G1 X205.537 Y135.62 E13.88616
G1 X206.028 Y135.857 E13.9043
G1 X206.139 Y135.914 E13.90845
G1 X206.628 Y136.181 E13.92698
G1 X206.848 Y136.309 E13.93544
G1 X207.315 Y136.598 E13.95371
G1 X207.416 Y136.664 E13.95772
G1 X207.794 Y136.922 E13.97294
G1 X208.013 Y137.079 E13.98191
G1 X208.549 Y137.49 E14.00437
G1 X208.648 Y137.571 E14.00863
G1 X208.955 Y137.832 E14.02203
G1 X209.144 Y137.999 E14.03042
G1 X209.788 Y138.618 E14.06013
G1 X209.939 Y138.776 E14.0674
G1 X210.534 Y139.454 E14.0974
G1 X210.901 Y139.91 E14.11687
G1 X211.64 Y140.951 E14.15933
G1 X211.754 Y141.134 E14.1665
G1 X212.176 Y141.877 E14.19492
G1 X212.416 Y142.342 E14.21232
G1 X212.802 Y143.177 E14.24292
G1 X212.848 Y143.289 E14.24695
G1 X213.05 Y143.82 E14.26584
G1 X213.13 Y144.049 E14.27391
G1 X213.3 Y144.582 E14.29252
G1 X213.346 Y144.74 E14.29799
G1 X213.474 Y145.22 E14.31451
G1 X213.527 Y145.44 E14.32204
G1 X213.66 Y146.078 E14.34372
G1 X213.692 Y146.259 E14.34983
G1 X213.827 Y147.345 E14.38623
G1 X213.878 Y148.055 E14.4099
G1 X213.904 Y148.68 E14.43071
G1 X213.911 Y149.287 E14.4509
G1 X213.91 Y182.179 E15.54489
G1 X213.898 Y183.038 E15.57347
G1 X213.881 Y183.504 E15.58898
G1 X213.863 Y183.814 E15.5993
G1 X213.812 Y184.404 E15.619
G1 X213.784 Y184.649 E15.6272
G1 X213.745 Y184.957 E15.63753
G1 X213.728 Y185.075 E15.64149
G1 X213.617 Y185.708 E15.66287
G1 X213.53 Y186.129 E15.67717
G1 X213.441 Y186.523 E15.6906
G1 X213.295 Y187.066 E15.7093
G1 X213.223 Y187.309 E15.71773
G1 X213.122 Y187.633 E15.72902
G1 X213.064 Y187.808 E15.73515
G1 X212.858 Y188.375 E15.75522
G1 X212.742 Y188.668 E15.7657
G1 X212.572 Y189.071 E15.78025
G1 X212.512 Y189.206 E15.78516
G1 X212.307 Y189.641 E15.80115
G1 X212.194 Y189.867 E15.80956
G1 X211.993 Y190.25 E15.82394
G1 X211.94 Y190.346 E15.82759
G1 X211.69 Y190.774 E15.84408
G1 X211.465 Y191.14 E15.85837
G1 X211.1 Y191.695 E15.88046
G1 X210.933 Y191.932 E15.8901
G1 X210.626 Y192.345 E15.90722
G1 X210.509 Y192.495 E15.91355
G1 X210.047 Y193.048 E15.93751
G1 X209.798 Y193.326 E15.94993
G1 X209.523 Y193.622 E15.96336
G1 X209.118 Y194.029 E15.98246
G1 X208.938 Y194.2 E15.99072
G1 X208.655 Y194.459 E16.00348
G1 X208.535 Y194.565 E16.0088
G1 X208.083 Y194.942 E16.02838
G1 X207.827 Y195.144 E16.03923
G1 X207.572 Y195.339 E16.0499
G1 X207.46 Y195.422 E16.05454
G1 X206.984 Y195.755 E16.07386
G1 X206.755 Y195.906 E16.08298
G1 X206.467 Y196.089 E16.09433
G1 X206.34 Y196.167 E16.09929
G1 X205.826 Y196.464 E16.11903
G1 X205.535 Y196.621 E16.13003
G1 X205.184 Y196.802 E16.14317
G1 X204.588 Y197.081 E16.16505
G1 X204.29 Y197.209 E16.17584
G1 X203.92 Y197.36 E16.18913
G1 X203.31 Y197.582 E16.21072
G1 X203.018 Y197.678 E16.22095
G1 X202.671 Y197.785 E16.23303
G1 X202.465 Y197.845 E16.24016
G1 X201.939 Y197.984 E16.25826
G1 X201.774 Y198.023 E16.2639
G1 X201.475 Y198.089 E16.27408
G1 X201.276 Y198.13 E16.28084
G1 X200.708 Y198.231 E16.30003
G1 X200.401 Y198.277 E16.31035
G1 X200.042 Y198.324 E16.32239
G1 X199.903 Y198.34 E16.32705
G1 X199.316 Y198.392 E16.34665
G1 X199.062 Y198.407 E16.35511
G1 X198.76 Y198.42 E16.36516
G1 X198.268 Y198.435 E16.38154
G1 X197.76 Y198.442 E16.39843
G1 X121.317 Y198.441 E18.94094
G1 X120.617 Y198.431 E18.96422
G1 X119.697 Y198.378 E18.99487
G1 X118.686 Y198.225 E19.02888
G1 X115.982 Y197.683 E19.12061
G1 X113.476 Y197.254 E19.20517
G1 X110.93 Y196.892 E19.2907
G1 X109.896 Y196.759 E19.32537
G1 X108.989 Y196.602 E19.35599
G1 X108.098 Y196.367 E19.38664
G1 X107.232 Y196.056 E19.41724
G1 X106.396 Y195.671 E19.44785
G1 X105.596 Y195.214 E19.4785
G1 X104.839 Y194.69 E19.50912
G1 X104.131 Y194.103 E19.53971
G1 X103.476 Y193.456 E19.57033
G1 X102.879 Y192.754 E19.60098
G1 X102.346 Y192.004 E19.63158
G1 X101.88 Y191.21 E19.6622
G1 X101.484 Y190.379 E19.69282
G1 X101.162 Y189.516 E19.72346
G1 X100.917 Y188.629 E19.75406
G1 X100.749 Y187.724 E19.78468
G1 X100.649 Y186.531 E19.8245
G1 X100.64 Y186.198 E19.83558
G1 X100.636 Y185.912 E19.84509
G1 X100.637 Y183.623 E19.92122
G1 X100.647 Y182.935 E19.94411
G1 X100.7 Y182.016 E19.97472
G1 X100.833 Y181.105 E20.00535
G1 X101.045 Y180.209 E20.03597
G1 X101.333 Y179.334 E20.06661
G1 X101.696 Y178.488 E20.09723
G1 X102.132 Y177.677 E20.12785
G1 X102.636 Y176.907 E20.15846
G1 X103.204 Y176.183 E20.18907
G1 X103.834 Y175.511 E20.2197
G1 X104.52 Y174.897 E20.25032
G1 X105.256 Y174.344 E20.28094
G1 X106.037 Y173.857 E20.31156
G0 F6000 X106.415 Y174.106
G1 F1200 X107.228 Y173.714 E20.34158
G1 X108.073 Y173.395 E20.37162
G1 X108.943 Y173.152 E20.40166
G1 X109.762 Y172.998 E20.42938
G1 X110.284 Y172.922 E20.44692
G1 X112.232 Y172.671 E20.51225
G1 X114.732 Y172.278 E20.59642
G1 X117.298 Y171.797 E20.68325
G1 X117.457 Y171.763 E20.68866
G1 X118.76 Y171.501 E20.73287
G1 X119.653 Y171.362 E20.76293
G1 X120.55 Y171.303 E20.79282
G1 X123.584 Y171.237 E20.89376
G1 X126.075 Y171.114 E20.97671
G1 X128.617 Y170.916 E21.06151
G1 X131.154 Y170.646 E21.14637
G1 X133.679 Y170.305 E21.23112
G1 X136.168 Y169.896 E21.31501
G1 X138.66 Y169.415 E21.39943
G1 X141.154 Y168.859 E21.48441
G1 X143.595 Y168.244 E21.56814
G1 X146.04 Y167.552 E21.65265
G1 X148.481 Y166.786 E21.73774
G1 X150.868 Y165.962 E21.82173
G1 X153.277 Y165.053 E21.90737
G1 X155.586 Y164.107 E21.99036
G1 X157.946 Y163.061 E22.07622
G1 X160.185 Y161.992 E22.15874
G1 X162.486 Y160.813 E22.24474
G1 X164.697 Y159.6 E22.32862
G1 X166.914 Y158.299 E22.41411
G1 X169.037 Y156.973 E22.49737
G1 X171.173 Y155.553 E22.58268
G1 X173.245 Y154.088 E22.66708
G1 X175.268 Y152.572 E22.75116
G1 X177.245 Y150.999 E22.83519
G1 X179.216 Y149.339 E22.9209
