;FLAVOR:Marlin
;TIME:1523
;Filament used: 0.491966m
;Layer height: 0.12
;MINX:148.829
;MINY:75.216
;MINZ:0.12
;MAXX:197.827
;MAXY:132.18
;MAXZ:2.4
;Generated with Cura_SteamEngine 4.8.0
M140 S50
M105
M190 S50
M104 S200
M105
M109 S200
M82 ;absolute extrusion mode
; Ender 3 Custom Start G-code
G92 E0 ; Reset Extruder
G28 ; Home all axes
M420 S1  ; use saved bed leveling
G1 Z2.0 F3000 ; Move Z Axis up little to prevent scratching of Heat Bed
G1 X0.1 Y20 Z0.3 F5000.0 ; Move to start position
G1 X0.1 Y200.0 Z0.3 F1500.0 E15 ; Draw the first line
G1 X0.4 Y200.0 Z0.3 F5000.0 ; Move to side a little
G1 X0.4 Y20 Z0.3 F1500.0 E30 ; Draw the second line
G92 E0 ; Reset Extruder
G1 Z2.0 F3000 ; Move Z Axis up little to prevent scratching of Heat Bed
G1 X5 Y20 Z0.3 F5000.0 ; Move over to prevent blob squish
G92 E0
G92 E0
G1 F2700 E-5
;LAYER_COUNT:20
;LAYER:0
M107
G0 F6000 X150.268 Y82.017 Z0.12
;TYPE:SKIRT
G1 F2700 E0
G1 F1200 X150.552 Y81.52 E0.01142
G1 X150.71 Y81.266 E0.01739
G1 X151.062 Y80.748 E0.02989
G1 X151.241 Y80.506 E0.0359
G1 X151.669 Y79.976 E0.04949
G1 X151.868 Y79.751 E0.05549
G1 X152.274 Y79.326 E0.06722
G1 X152.489 Y79.117 E0.0732
G1 X152.956 Y78.699 E0.08571
G1 X153.187 Y78.508 E0.09169
G1 X153.56 Y78.218 E0.10112
G1 X153.682 Y78.129 E0.10413
G1 X154.343 Y77.696 E0.1199
G1 X155.044 Y77.333 E0.13565
G1 X155.778 Y77.042 E0.15141
G1 X156.538 Y76.827 E0.16717
G1 X157.316 Y76.69 E0.18294
G1 X158.103 Y76.632 E0.19869
G1 X158.893 Y76.654 E0.21446
G1 X159.676 Y76.756 E0.23021
G1 X160.443 Y76.937 E0.24594
G1 X160.641 Y76.875 E0.25008
G1 X161.415 Y76.718 E0.26584
G1 X162.201 Y76.639 E0.28161
G1 X162.99 Y76.641 E0.29735
G1 X163.776 Y76.722 E0.31312
G1 X164.196 Y76.809 E0.32168
G1 X164.666 Y76.628 E0.33173
G1 X165.428 Y76.42 E0.34749
G1 X166.207 Y76.29 E0.36325
G1 X166.995 Y76.24 E0.37901
G1 X167.784 Y76.269 E0.39477
G1 X168.566 Y76.378 E0.41052
G1 X169.254 Y76.547 E0.42466
G1 X169.454 Y76.484 E0.42885
G1 X170.228 Y76.326 E0.44461
G1 X171.013 Y76.248 E0.46035
G1 X171.803 Y76.248 E0.47612
G1 X172.589 Y76.329 E0.49189
G1 X172.8 Y76.373 E0.49619
G1 X172.97 Y76.305 E0.49984
G1 X173.73 Y76.09 E0.5156
G1 X174.508 Y75.953 E0.53137
G1 X175.295 Y75.895 E0.54712
G1 X176.085 Y75.917 E0.56289
G1 X176.868 Y76.019 E0.57865
G1 X177.635 Y76.2 E0.59437
G1 X177.833 Y76.138 E0.59851
G1 X178.607 Y75.981 E0.61427
G1 X179.393 Y75.902 E0.63004
G1 X180.182 Y75.904 E0.64578
G1 X180.798 Y75.968 E0.65814
G1 X180.896 Y75.917 E0.66035
G1 X181.63 Y75.626 E0.67611
G1 X182.39 Y75.411 E0.69187
G1 X183.168 Y75.274 E0.70763
G1 X183.955 Y75.216 E0.72338
G1 X184.745 Y75.238 E0.73915
G1 X185.528 Y75.34 E0.75491
G1 X186.293 Y75.52 E0.77059
G1 X186.489 Y75.459 E0.77469
G1 X187.263 Y75.301 E0.79045
G1 X188.048 Y75.222 E0.8062
G1 X188.838 Y75.224 E0.82196
G1 X189.624 Y75.305 E0.83773
G1 X190.397 Y75.465 E0.85348
G1 X191.15 Y75.702 E0.86924
G1 X191.875 Y76.014 E0.88499
G1 X192.565 Y76.398 E0.90075
G1 X193.194 Y76.835 E0.91603
G1 X193.434 Y77.02 E0.92208
G1 X193.883 Y77.394 E0.93374
G1 X194.108 Y77.596 E0.93978
G1 X194.566 Y78.042 E0.95253
G1 X194.773 Y78.261 E0.95855
G1 X195.177 Y78.725 E0.97082
G1 X195.368 Y78.962 E0.9769
G1 X195.737 Y79.458 E0.98924
G1 X195.907 Y79.707 E0.99525
G1 X196.245 Y80.249 E1.008
G1 X196.394 Y80.511 E1.01401
G1 X196.691 Y81.087 E1.02695
G1 X196.818 Y81.361 E1.03297
G1 X197.046 Y81.908 E1.0448
G1 X197.153 Y82.194 E1.05089
G1 X197.365 Y82.846 E1.06458
G1 X197.445 Y83.135 E1.07056
G1 X197.578 Y83.691 E1.08197
G1 X197.637 Y83.987 E1.08799
G1 X197.738 Y84.639 E1.10116
G1 X197.772 Y84.941 E1.10722
G1 X197.817 Y85.555 E1.11951
G1 X197.827 Y85.856 E1.12552
G1 X197.821 Y86.502 E1.13841
G1 X197.806 Y86.804 E1.14445
G1 X197.751 Y87.423 E1.15685
G1 X197.712 Y87.723 E1.16288
G1 X197.603 Y88.355 E1.17568
G1 X197.539 Y88.653 E1.18176
G1 X197.396 Y89.216 E1.19336
G1 X197.311 Y89.505 E1.19937
G1 X197.255 Y89.669 E1.20283
G1 X197.41 Y90.207 E1.214
G1 X197.481 Y90.499 E1.22
G1 X197.602 Y91.098 E1.23219
G1 X197.65 Y91.395 E1.2382
G1 X197.725 Y92.013 E1.25062
G1 X197.749 Y92.311 E1.25659
G1 X197.774 Y92.937 E1.26909
G1 X197.774 Y93.237 E1.27507
G1 X197.749 Y93.861 E1.28754
G1 X197.725 Y94.16 E1.29352
G1 X197.651 Y94.776 E1.3059
G1 X197.603 Y95.074 E1.31193
G1 X197.48 Y95.683 E1.32433
G1 X197.409 Y95.974 E1.3303
G1 X197.241 Y96.56 E1.34247
G1 X197.148 Y96.843 E1.34841
G1 X196.918 Y97.456 E1.36148
G1 X196.8 Y97.734 E1.36751
G1 X196.538 Y98.289 E1.37975
G1 X196.4 Y98.554 E1.38572
G1 X196.093 Y99.09 E1.39804
G1 X196.013 Y99.218 E1.40106
G1 X196.057 Y99.862 E1.41394
G1 X196.03 Y100.651 E1.42969
G1 X195.924 Y101.434 E1.44546
G1 X195.751 Y102.156 E1.46028
G1 X195.817 Y102.368 E1.46471
G1 X195.973 Y103.142 E1.48046
G1 X196.05 Y103.928 E1.49622
G1 X196.048 Y104.718 E1.51199
G1 X195.965 Y105.503 E1.52774
G1 X195.804 Y106.276 E1.5435
G1 X195.565 Y107.029 E1.55927
G1 X195.251 Y107.753 E1.57501
G1 X194.866 Y108.443 E1.59078
G1 X194.491 Y108.983 E1.6039
G1 X194.474 Y109.471 E1.61365
G1 X194.368 Y110.254 E1.62942
G1 X194.195 Y110.976 E1.64423
G1 X194.258 Y111.178 E1.64845
G1 X194.415 Y111.952 E1.66421
G1 X194.494 Y112.738 E1.67998
G1 X194.492 Y113.527 E1.69572
G1 X194.411 Y114.313 E1.71149
G1 X194.25 Y115.086 E1.72725
G1 X194.013 Y115.839 E1.743
G1 X193.7 Y116.564 E1.75876
G1 X193.521 Y116.885 E1.7661
G1 X193.633 Y117.521 E1.77898
G1 X193.691 Y118.308 E1.79473
G1 X193.669 Y119.098 E1.8105
G1 X193.567 Y119.881 E1.82626
G1 X193.387 Y120.646 E1.84194
G1 X193.451 Y120.852 E1.84625
G1 X193.607 Y121.626 E1.86201
G1 X193.685 Y122.412 E1.87777
G1 X193.683 Y123.201 E1.89351
G1 X193.601 Y123.987 E1.90928
G1 X193.44 Y124.76 E1.92504
G1 X193.202 Y125.513 E1.9408
G1 X192.888 Y126.238 E1.95657
G1 X192.503 Y126.927 E1.97232
G1 X192.084 Y127.531 E1.98699
G1 X191.9 Y127.771 E1.99302
G1 X191.501 Y128.25 E2.00546
G1 X191.298 Y128.475 E2.01151
G1 X190.865 Y128.919 E2.02389
G1 X190.646 Y129.126 E2.0299
G1 X190.182 Y129.53 E2.04218
G1 X189.945 Y129.721 E2.04825
G1 X189.449 Y130.09 E2.06059
G1 X189.2 Y130.26 E2.06661
G1 X188.658 Y130.598 E2.07936
G1 X188.396 Y130.747 E2.08537
G1 X187.799 Y131.054 E2.09877
G1 X187.525 Y131.18 E2.10479
G1 X187.03 Y131.387 E2.11549
G1 X186.745 Y131.495 E2.12157
G1 X186.031 Y131.727 E2.13656
G1 X185.741 Y131.806 E2.14255
G1 X185.231 Y131.927 E2.15301
G1 X184.933 Y131.987 E2.15908
G1 X184.268 Y132.091 E2.17251
G1 X183.967 Y132.125 E2.17856
G1 X183.351 Y132.17 E2.19088
G1 X183.05 Y132.18 E2.19689
G1 X182.403 Y132.174 E2.20981
G1 X182.102 Y132.159 E2.21582
G1 X181.484 Y132.104 E2.2282
G1 X181.184 Y132.065 E2.23424
G1 X180.552 Y131.956 E2.24704
G1 X180.254 Y131.892 E2.25312
G1 X179.691 Y131.749 E2.26471
G1 X179.402 Y131.664 E2.27072
G1 X179.239 Y131.608 E2.27416
G1 X178.729 Y131.755 E2.28475
G1 X178.438 Y131.827 E2.29074
G1 X177.805 Y131.956 E2.30363
G1 X177.507 Y132.004 E2.30965
G1 X176.891 Y132.078 E2.32203
G1 X176.592 Y132.102 E2.32802
G1 X175.968 Y132.127 E2.34048
G1 X175.67 Y132.127 E2.34643
G1 X175.046 Y132.102 E2.35889
G1 X174.747 Y132.078 E2.36488
G1 X174.131 Y132.004 E2.37726
G1 X173.833 Y131.956 E2.38328
G1 X173.218 Y131.831 E2.39581
G1 X172.928 Y131.76 E2.40177
G1 X172.348 Y131.594 E2.4138
G1 X172.062 Y131.5 E2.41981
G1 X171.453 Y131.271 E2.4328
G1 X171.177 Y131.154 E2.43878
G1 X170.599 Y130.881 E2.45154
G1 X170.332 Y130.741 E2.45755
G1 X169.822 Y130.449 E2.46928
G1 X169.569 Y130.291 E2.47523
G1 X169.05 Y129.937 E2.48777
G1 X168.809 Y129.758 E2.49376
G1 X168.32 Y129.363 E2.5063
G1 X168.094 Y129.165 E2.5123
G1 X167.628 Y128.722 E2.52513
G1 X167.419 Y128.506 E2.53113
G1 X167.014 Y128.052 E2.54327
G1 X166.823 Y127.821 E2.54925
G1 X166.526 Y127.439 E2.55891
G1 X166.438 Y127.318 E2.56189
G1 X166.006 Y126.656 E2.57767
G1 X165.644 Y125.955 E2.59341
G1 X165.354 Y125.22 E2.60918
G1 X165.14 Y124.46 E2.62494
G1 X165.004 Y123.682 E2.6407
G1 X164.948 Y122.894 E2.65646
G1 X164.951 Y122.789 E2.65856
G1 X164.709 Y122.859 E2.66359
G1 X164.418 Y122.93 E2.66957
G1 X163.809 Y123.053 E2.68196
G1 X163.511 Y123.101 E2.68799
G1 X162.895 Y123.175 E2.70037
G1 X162.596 Y123.199 E2.70636
G1 X161.972 Y123.224 E2.71882
G1 X161.674 Y123.224 E2.72476
G1 X161.05 Y123.199 E2.73723
G1 X160.751 Y123.175 E2.74321
G1 X160.16 Y123.105 E2.75509
G1 X159.862 Y123.058 E2.76111
G1 X159.204 Y122.925 E2.77451
G1 X158.913 Y122.853 E2.78049
G1 X158.343 Y122.688 E2.79233
G1 X158.058 Y122.594 E2.79832
G1 X157.457 Y122.368 E2.81113
G1 X157.181 Y122.251 E2.81712
G1 X156.623 Y121.989 E2.82942
G1 X156.356 Y121.85 E2.83542
G1 X155.826 Y121.547 E2.84761
G1 X155.573 Y121.389 E2.85356
G1 X155.05 Y121.032 E2.8662
G1 X154.808 Y120.852 E2.87222
G1 X154.325 Y120.461 E2.88462
G1 X154.1 Y120.264 E2.89059
G1 X153.62 Y119.807 E2.90381
G1 X153.411 Y119.59 E2.90982
G1 X153.018 Y119.149 E2.92161
G1 X152.827 Y118.918 E2.92759
G1 X152.53 Y118.536 E2.93725
G1 X152.442 Y118.415 E2.94024
G1 X152.01 Y117.753 E2.95601
G1 X151.648 Y117.052 E2.97175
G1 X151.358 Y116.317 E2.98752
G1 X151.144 Y115.557 E3.00328
G1 X151.008 Y114.779 E3.01904
G1 X150.952 Y113.991 E3.03481
G1 X150.975 Y113.202 E3.05056
G1 X151.078 Y112.419 E3.06632
G1 X151.256 Y111.666 E3.08176
G1 X151.192 Y111.459 E3.08608
G1 X151.036 Y110.685 E3.10184
G1 X150.958 Y109.899 E3.1176
G1 X150.96 Y109.11 E3.13335
G1 X151.042 Y108.324 E3.14912
G1 X151.203 Y107.551 E3.16488
G1 X151.441 Y106.798 E3.18063
G1 X151.755 Y106.073 E3.1964
G1 X151.808 Y105.978 E3.19857
G1 X151.754 Y105.217 E3.2138
G1 X151.777 Y104.428 E3.22955
G1 X151.88 Y103.645 E3.24531
G1 X152.058 Y102.892 E3.26075
G1 X151.997 Y102.695 E3.26487
G1 X151.933 Y102.382 E3.27124
G1 X151.883 Y102.329 E3.2727
G1 X151.479 Y101.866 E3.28496
G1 X151.288 Y101.629 E3.29103
G1 X150.919 Y101.133 E3.30337
G1 X150.749 Y100.884 E3.30939
G1 X150.409 Y100.339 E3.32221
G1 X150.259 Y100.075 E3.32826
G1 X149.963 Y99.501 E3.34115
G1 X149.837 Y99.229 E3.34713
G1 X149.61 Y98.683 E3.35894
G1 X149.503 Y98.397 E3.36503
G1 X149.291 Y97.745 E3.37871
G1 X149.211 Y97.456 E3.3847
G1 X149.077 Y96.89 E3.3963
G1 X149.018 Y96.592 E3.40236
G1 X148.918 Y95.952 E3.41529
G1 X148.884 Y95.651 E3.42134
G1 X148.839 Y95.036 E3.43364
G1 X148.829 Y94.736 E3.43963
G1 X148.835 Y94.089 E3.45254
G1 X148.85 Y93.787 E3.45858
G1 X148.905 Y93.168 E3.47098
G1 X148.944 Y92.868 E3.47702
G1 X149.053 Y92.236 E3.48982
G1 X149.117 Y91.938 E3.4959
G1 X149.26 Y91.375 E3.50749
G1 X149.345 Y91.086 E3.5135
G1 X149.401 Y90.923 E3.51694
G1 X149.254 Y90.413 E3.52753
G1 X149.182 Y90.122 E3.53352
G1 X149.053 Y89.489 E3.54641
G1 X149.005 Y89.191 E3.55243
G1 X148.931 Y88.579 E3.56473
G1 X148.907 Y88.282 E3.57068
G1 X148.882 Y87.654 E3.58322
G1 X148.882 Y87.354 E3.58921
G1 X148.907 Y86.73 E3.60167
G1 X148.931 Y86.431 E3.60766
G1 X149.005 Y85.815 E3.62004
G1 X149.053 Y85.517 E3.62606
G1 X149.178 Y84.902 E3.63859
G1 X149.249 Y84.612 E3.64454
G1 X149.412 Y84.04 E3.65641
G1 X149.505 Y83.756 E3.66238
G1 X149.738 Y83.135 E3.67561
G1 X149.856 Y82.857 E3.68164
G1 X150.129 Y82.282 E3.69434
G1 X150.268 Y82.017 E3.70031
G0 F6000 X150.622 Y82.203
G1 F1200 X150.891 Y81.731 E3.71116
G1 X151.049 Y81.477 E3.71713
G1 X151.384 Y80.985 E3.729
G1 X151.563 Y80.743 E3.73501
G1 X151.969 Y80.241 E3.7479
G1 X152.168 Y80.016 E3.75389
G1 X152.553 Y79.613 E3.76501
G1 X152.768 Y79.404 E3.771
G1 X153.211 Y79.007 E3.78287
G1 X153.442 Y78.816 E3.78885
G1 X153.796 Y78.541 E3.79779
G1 X153.918 Y78.452 E3.80081
G1 X154.562 Y78.031 E3.81616
G1 X155.246 Y77.68 E3.8315
G1 X155.963 Y77.402 E3.84685
G1 X156.705 Y77.199 E3.8622
G1 X157.464 Y77.075 E3.87755
G1 X158.232 Y77.03 E3.8929
G1 X159 Y77.065 E3.90824
G1 X159.761 Y77.18 E3.9236
G1 X160.441 Y77.356 E3.93762
G1 X160.876 Y77.229 E3.94666
G1 X161.633 Y77.091 E3.96202
G1 X162.4 Y77.032 E3.97737
G1 X163.169 Y77.053 E3.99272
G1 X163.931 Y77.154 E4.00806
G1 X164.225 Y77.225 E4.0141
G1 X164.848 Y76.99 E4.02739
G1 X165.592 Y76.794 E4.04274
G1 X166.352 Y76.677 E4.05809
G1 X167.12 Y76.639 E4.07343
G1 X167.888 Y76.681 E4.08878
G1 X168.648 Y76.803 E4.10414
G1 X169.253 Y76.966 E4.11664
G1 X169.69 Y76.838 E4.12573
G1 X170.446 Y76.7 E4.14107
G1 X171.213 Y76.64 E4.15642
G1 X171.982 Y76.661 E4.17177
G1 X172.745 Y76.761 E4.18713
G1 X172.845 Y76.785 E4.18918
G1 X173.155 Y76.665 E4.19582
G1 X173.897 Y76.462 E4.21117
G1 X174.656 Y76.338 E4.22651
G1 X175.424 Y76.293 E4.24187
G1 X176.192 Y76.328 E4.25721
G1 X176.953 Y76.443 E4.27257
G1 X177.633 Y76.619 E4.28659
G1 X178.068 Y76.492 E4.29563
G1 X178.825 Y76.354 E4.31098
G1 X179.592 Y76.295 E4.32634
G1 X180.361 Y76.316 E4.34169
G1 X180.866 Y76.383 E4.35185
G1 X181.098 Y76.264 E4.35706
G1 X181.815 Y75.986 E4.3724
G1 X182.557 Y75.783 E4.38776
G1 X183.316 Y75.659 E4.4031
G1 X184.084 Y75.614 E4.41846
G1 X184.852 Y75.649 E4.4338
G1 X185.613 Y75.764 E4.44916
G1 X186.291 Y75.94 E4.46314
G1 X186.724 Y75.813 E4.47214
G1 X187.481 Y75.674 E4.4875
G1 X188.248 Y75.615 E4.50285
G1 X189.017 Y75.636 E4.5182
G1 X189.779 Y75.737 E4.53354
G1 X190.527 Y75.916 E4.54889
G1 X191.253 Y76.172 E4.56425
G1 X191.947 Y76.501 E4.57958
G1 X192.604 Y76.901 E4.59493
G1 X192.95 Y77.152 E4.60346
G1 X193.19 Y77.337 E4.60951
G1 X193.616 Y77.692 E4.62057
G1 X193.841 Y77.894 E4.62661
G1 X194.275 Y78.317 E4.6387
G1 X194.482 Y78.536 E4.64472
G1 X194.866 Y78.976 E4.65637
G1 X195.057 Y79.213 E4.66244
G1 X195.406 Y79.684 E4.67414
G1 X195.576 Y79.933 E4.68016
G1 X195.898 Y80.447 E4.69226
G1 X196.047 Y80.709 E4.69828
G1 X196.328 Y81.255 E4.71053
G1 X196.455 Y81.529 E4.71656
G1 X196.672 Y82.048 E4.72779
G1 X196.779 Y82.334 E4.73388
G1 X196.98 Y82.953 E4.74687
G1 X197.06 Y83.242 E4.75285
G1 X197.185 Y83.769 E4.76366
G1 X197.244 Y84.065 E4.76968
G1 X197.341 Y84.684 E4.78219
G1 X197.375 Y84.986 E4.78825
G1 X197.417 Y85.568 E4.7999
G1 X197.427 Y85.869 E4.80591
G1 X197.422 Y86.482 E4.81814
G1 X197.407 Y86.784 E4.82417
G1 X197.354 Y87.371 E4.83594
G1 X197.315 Y87.671 E4.84197
G1 X197.212 Y88.271 E4.85412
G1 X197.148 Y88.569 E4.8602
G1 X197.012 Y89.103 E4.8712
G1 X196.927 Y89.392 E4.87721
G1 X196.835 Y89.661 E4.88289
G1 X196.849 Y89.703 E4.88377
G1 X197.021 Y90.302 E4.89621
G1 X197.092 Y90.594 E4.9022
G1 X197.207 Y91.161 E4.91375
G1 X197.255 Y91.458 E4.91975
G1 X197.326 Y92.045 E4.93155
G1 X197.35 Y92.343 E4.93752
G1 X197.374 Y92.937 E4.94938
G1 X197.374 Y93.237 E4.95537
G1 X197.35 Y93.829 E4.96719
G1 X197.326 Y94.128 E4.97318
G1 X197.256 Y94.713 E4.98494
G1 X197.208 Y95.011 E4.99096
G1 X197.091 Y95.588 E5.00271
G1 X197.02 Y95.879 E5.00869
G1 X196.861 Y96.435 E5.02023
G1 X196.768 Y96.718 E5.02617
G1 X196.55 Y97.299 E5.03856
G1 X196.432 Y97.577 E5.04458
G1 X196.183 Y98.104 E5.05621
G1 X196.045 Y98.369 E5.06218
G1 X195.754 Y98.877 E5.07386
G1 X195.601 Y99.121 E5.07961
G1 X195.617 Y99.221 E5.08163
G1 X195.658 Y99.989 E5.09698
G1 X195.619 Y100.757 E5.11232
G1 X195.5 Y101.517 E5.12767
G1 X195.332 Y102.152 E5.14078
G1 X195.462 Y102.603 E5.15015
G1 X195.599 Y103.36 E5.1655
G1 X195.657 Y104.127 E5.18085
G1 X195.635 Y104.896 E5.1962
G1 X195.533 Y105.658 E5.21155
G1 X195.352 Y106.406 E5.2269
G1 X195.095 Y107.13 E5.24223
G1 X194.764 Y107.825 E5.2576
G1 X194.363 Y108.481 E5.27294
G1 X194.132 Y108.799 E5.28078
G1 X194.1 Y108.84 E5.28182
G1 X194.063 Y109.577 E5.29655
G1 X193.944 Y110.337 E5.3119
G1 X193.775 Y110.973 E5.32503
G1 X193.904 Y111.413 E5.33418
G1 X194.042 Y112.17 E5.34954
G1 X194.101 Y112.937 E5.36489
G1 X194.08 Y113.706 E5.38024
G1 X193.979 Y114.468 E5.39558
G1 X193.799 Y115.216 E5.41093
G1 X193.543 Y115.941 E5.42628
G1 X193.213 Y116.636 E5.44163
G1 X193.1 Y116.821 E5.44596
G1 X193.124 Y116.91 E5.4478
G1 X193.248 Y117.669 E5.46314
G1 X193.293 Y118.437 E5.4785
G1 X193.258 Y119.205 E5.49384
G1 X193.143 Y119.966 E5.5092
G1 X192.967 Y120.644 E5.52318
G1 X193.097 Y121.087 E5.53239
G1 X193.234 Y121.844 E5.54774
G1 X193.292 Y122.611 E5.56309
G1 X193.27 Y123.379 E5.57842
G1 X193.169 Y124.142 E5.59378
G1 X192.988 Y124.89 E5.60914
G1 X192.732 Y125.615 E5.62449
G1 X192.401 Y126.309 E5.63983
G1 X192 Y126.966 E5.65519
G1 X191.767 Y127.287 E5.66311
G1 X191.583 Y127.527 E5.66914
G1 X191.204 Y127.982 E5.68096
G1 X191.001 Y128.207 E5.68701
G1 X190.59 Y128.628 E5.69875
G1 X190.371 Y128.835 E5.70476
G1 X189.931 Y129.219 E5.71641
G1 X189.694 Y129.41 E5.72249
G1 X189.223 Y129.759 E5.73419
