;FLAVOR:Marlin
;TIME:210
;Filament used: 0.0566691m
;Layer height: 0.2
;MINX:80.932
;MINY:101.096
;MINZ:0.2
;MAXX:109.456
;MAXY:134.401
;MAXZ:4
;Generated with Cura_SteamEngine 4.8.0
M140 S50
M105
M190 S50
M104 S200
M105
M109 S200
M82 ;absolute extrusion mode
; Ender 3 Custom Start G-code
G92 E0 ; Reset Extruder
G28 ; Home all axes
M420 S1  ; use saved bed leveling
G1 Z2.0 F3000 ; Move Z Axis up little to prevent scratching of Heat Bed
G1 X0.1 Y20 Z0.3 F5000.0 ; Move to start position
G1 X0.1 Y200.0 Z0.3 F1500.0 E15 ; Draw the first line
G1 X0.4 Y200.0 Z0.3 F5000.0 ; Move to side a little
G1 X0.4 Y20 Z0.3 F1500.0 E30 ; Draw the second line
G92 E0 ; Reset Extruder
G1 Z2.0 F3000 ; Move Z Axis up little to prevent scratching of Heat Bed
G1 X5 Y20 Z0.3 F5000.0 ; Move over to prevent blob squish
G92 E0
G92 E0
G1 F2700 E-5
;LAYER_COUNT:20
;LAYER:0
M107
G0 F6000 X86.131 Y103.788 Z0.2
;TYPE:SKIRT
G1 F2700 E0
G1 F1200 X86.205 Y103.727 E0.00319
G1 X86.628 Y103.395 E0.02107
G1 X86.789 Y103.275 E0.02775
G1 X87.565 Y102.747 E0.05897
G1 X88.382 Y102.287 E0.09016
G1 X89.235 Y101.899 E0.12132
G1 X90.119 Y101.584 E0.15254
G1 X91.026 Y101.346 E0.18372
G1 X91.95 Y101.186 E0.21491
G1 X92.885 Y101.105 E0.24613
G1 X93.517 Y101.096 E0.26715
G1 X93.949 Y101.102 E0.28152
G1 X96.39 Y101.103 E0.36271
G1 X96.944 Y101.096 E0.38114
G1 X97.882 Y101.124 E0.41235
G1 X98.814 Y101.232 E0.44355
G1 X99.733 Y101.419 E0.47475
G1 X100.632 Y101.683 E0.50591
G1 X101.506 Y102.024 E0.53711
G1 X102.348 Y102.437 E0.56831
G1 X103.152 Y102.921 E0.59952
G1 X103.777 Y103.366 E0.62504
G1 X104 Y103.537 E0.63438
G1 X104.614 Y104.044 E0.66087
G1 X104.785 Y104.196 E0.66848
G1 X105.325 Y104.71 E0.69327
G1 X105.611 Y105.009 E0.70704
G1 X105.769 Y105.18 E0.71478
G1 X106.347 Y105.858 E0.74441
G1 X106.474 Y106.02 E0.75126
G1 X106.874 Y106.564 E0.77372
G1 X107.016 Y106.77 E0.78204
G1 X107.476 Y107.497 E0.81065
G1 X107.618 Y107.742 E0.82007
G1 X107.94 Y108.339 E0.84263
G1 X108.164 Y108.81 E0.85998
G1 X108.26 Y109.024 E0.86778
G1 X108.548 Y109.73 E0.89314
G1 X108.623 Y109.934 E0.90037
G1 X108.88 Y110.724 E0.928
G1 X108.957 Y110.995 E0.93737
G1 X109.171 Y111.886 E0.96785
G1 X109.219 Y112.131 E0.97615
G1 X109.354 Y113.006 E1.0056
G1 X109.381 Y113.244 E1.01356
G1 X109.441 Y114.023 E1.03955
G1 X109.453 Y114.309 E1.04907
G1 X109.456 Y115.151 E1.07708
G1 X109.447 Y115.4 E1.08536
G1 X109.392 Y117.983 E1.17129
G1 X109.403 Y120.262 E1.2471
G1 X109.408 Y120.571 E1.25737
G1 X109.403 Y121.126 E1.27583
G1 X109.395 Y121.359 E1.28359
G1 X109.335 Y122.181 E1.311
G1 X109.31 Y122.409 E1.31863
G1 X109.191 Y123.217 E1.34579
G1 X109.142 Y123.481 E1.35472
G1 X108.938 Y124.372 E1.38513
G1 X108.87 Y124.621 E1.39371
G1 X108.71 Y125.155 E1.41225
G1 X108.552 Y125.61 E1.42827
G1 X108.482 Y125.799 E1.43498
G1 X108.27 Y126.33 E1.45399
G1 X108.061 Y126.793 E1.47089
G1 X107.945 Y127.035 E1.47981
G1 X107.497 Y127.875 E1.51148
G1 X107.357 Y128.112 E1.52063
G1 X106.787 Y128.98 E1.55517
G1 X106.612 Y129.221 E1.56508
G1 X106.106 Y129.866 E1.59234
G1 X105.957 Y130.042 E1.60001
G1 X105.401 Y130.65 E1.62742
G1 X105.213 Y130.841 E1.63633
G1 X104.559 Y131.454 E1.66614
G1 X104.377 Y131.611 E1.67414
G1 X103.713 Y132.14 E1.70237
G1 X103.55 Y132.26 E1.70911
G1 X102.772 Y132.784 E1.7403
G1 X101.952 Y133.239 E1.7715
G1 X101.096 Y133.622 E1.80269
G1 X100.211 Y133.932 E1.83387
G1 X99.302 Y134.165 E1.86509
G1 X98.377 Y134.319 E1.89627
G1 X97.443 Y134.394 E1.92744
G1 X96.875 Y134.401 E1.94633
G1 X96.443 Y134.395 E1.9607
G1 X94.002 Y134.394 E2.04189
G1 X93.448 Y134.401 E2.06032
G1 X92.51 Y134.373 E2.09153
G1 X91.578 Y134.265 E2.12274
G1 X90.659 Y134.078 E2.15393
G1 X89.76 Y133.814 E2.18509
G1 X88.886 Y133.473 E2.2163
G1 X88.044 Y133.06 E2.24749
G1 X87.24 Y132.576 E2.2787
G1 X86.646 Y132.155 E2.30292
G1 X86.445 Y132.002 E2.31132
G1 X85.792 Y131.464 E2.33946
G1 X85.591 Y131.285 E2.34841
G1 X84.903 Y130.616 E2.38033
G1 X84.722 Y130.424 E2.3891
G1 X84.183 Y129.807 E2.41635
G1 X84.037 Y129.627 E2.42406
G1 X83.508 Y128.919 E2.45346
G1 X83.34 Y128.674 E2.46334
G1 X82.815 Y127.829 E2.49643
G1 X82.694 Y127.613 E2.50466
G1 X82.317 Y126.876 E2.53219
G1 X82.197 Y126.618 E2.54166
G1 X81.836 Y125.746 E2.57305
G1 X81.754 Y125.521 E2.58101
G1 X81.588 Y125.032 E2.59819
G1 X81.432 Y124.497 E2.61672
G1 X81.379 Y124.297 E2.62361
G1 X81.201 Y123.511 E2.65041
G1 X81.151 Y123.245 E2.65941
G1 X81.021 Y122.353 E2.68939
G1 X80.996 Y122.113 E2.69742
G1 X80.942 Y121.299 E2.72455
G1 X80.934 Y121.029 E2.73354
G1 X80.932 Y120.444 E2.75299
G1 X80.997 Y117.683 E2.84485
G1 X80.982 Y114.991 E2.93439
G1 X80.986 Y114.533 E2.94962
G1 X81.027 Y113.676 E2.97816
G1 X81.057 Y113.331 E2.98968
G1 X81.197 Y112.294 E3.02448
G1 X81.245 Y112.033 E3.03331
G1 X81.454 Y111.122 E3.06439
G1 X81.524 Y110.866 E3.07322
G1 X81.778 Y110.059 E3.10136
G1 X81.86 Y109.83 E3.10945
G1 X82.184 Y109.026 E3.13828
G1 X82.269 Y108.837 E3.14517
G1 X82.603 Y108.158 E3.17034
G1 X82.747 Y107.889 E3.18049
G1 X83.054 Y107.352 E3.20106
G1 X83.115 Y107.252 E3.20496
G1 X83.522 Y106.633 E3.2296
G1 X83.664 Y106.432 E3.23778
G1 X84.184 Y105.754 E3.2662
G1 X84.35 Y105.554 E3.27485
G1 X84.937 Y104.901 E3.30405
G1 X85.053 Y104.782 E3.30958
G1 X85.442 Y104.402 E3.32767
G1 X85.64 Y104.218 E3.33666
G1 X86.131 Y103.788 E3.35836
G0 F6000 X86.386 Y104.097
G1 F1200 X86.46 Y104.036 E3.36155
G1 X86.867 Y103.716 E3.37877
G1 X87.028 Y103.596 E3.38545
G1 X87.79 Y103.078 E3.4161
G1 X88.593 Y102.629 E3.4467
G1 X89.433 Y102.251 E3.47733
G1 X90.302 Y101.947 E3.50796
G1 X91.194 Y101.719 E3.53858
G1 X92.102 Y101.57 E3.56918
G1 X93.02 Y101.501 E3.5998
G1 X93.511 Y101.496 E3.61613
G1 X93.942 Y101.502 E3.63047
G1 X96.395 Y101.503 E3.71206
G1 X96.949 Y101.496 E3.73048
G1 X97.87 Y101.524 E3.76113
G1 X98.784 Y101.632 E3.79174
G1 X99.685 Y101.819 E3.82235
G1 X100.567 Y102.084 E3.85298
G1 X101.423 Y102.424 E3.88361
G1 X102.246 Y102.837 E3.91424
G1 X103.029 Y103.32 E3.94484
G1 X103.533 Y103.683 E3.9655
G1 X103.756 Y103.854 E3.97484
G1 X104.348 Y104.343 E4.00038
G1 X104.519 Y104.495 E4.00799
G1 X105.04 Y104.99 E4.03189
G1 X105.317 Y105.28 E4.04523
G1 X105.475 Y105.451 E4.05298
G1 X106.032 Y106.105 E4.08155
G1 X106.159 Y106.267 E4.08839
G1 X106.544 Y106.791 E4.11002
G1 X106.686 Y106.997 E4.11834
G1 X107.13 Y107.698 E4.14594
G1 X107.272 Y107.943 E4.15536
G1 X107.582 Y108.518 E4.17709
G1 X107.799 Y108.973 E4.19385
G1 X107.895 Y109.187 E4.20165
G1 X108.173 Y109.868 E4.22612
G1 X108.248 Y110.072 E4.23335
G1 X108.495 Y110.833 E4.25996
G1 X108.572 Y111.104 E4.26933
G1 X108.778 Y111.963 E4.29871
G1 X108.826 Y112.208 E4.30701
G1 X108.956 Y113.051 E4.33538
G1 X108.983 Y113.289 E4.34335
G1 X109.042 Y114.04 E4.3684
G1 X109.054 Y114.326 E4.37793
G1 X109.057 Y115.138 E4.40493
G1 X109.049 Y115.379 E4.41295
G1 X108.992 Y118.014 E4.50061
G1 X109.003 Y120.269 E4.57562
G1 X109.008 Y120.578 E4.5859
G1 X109.003 Y121.113 E4.60369
G1 X108.995 Y121.346 E4.61144
G1 X108.938 Y122.137 E4.63782
G1 X108.913 Y122.365 E4.64545
G1 X108.798 Y123.144 E4.67164
G1 X108.749 Y123.408 E4.68057
G1 X108.553 Y124.267 E4.70988
G1 X108.485 Y124.516 E4.71846
G1 X108.33 Y125.03 E4.73632
G1 X108.177 Y125.472 E4.75187
G1 X108.107 Y125.661 E4.75858
G1 X107.902 Y126.174 E4.77695
G1 X107.701 Y126.62 E4.79322
G1 X107.585 Y126.862 E4.80215
G1 X107.153 Y127.671 E4.83265
G1 X107.013 Y127.908 E4.84181
G1 X106.463 Y128.745 E4.87512
G1 X106.288 Y128.986 E4.88502
G1 X105.801 Y129.607 E4.91127
G1 X105.652 Y129.783 E4.91894
G1 X105.116 Y130.37 E4.94538
G1 X104.928 Y130.561 E4.95429
G1 X104.298 Y131.151 E4.983
G1 X104.116 Y131.308 E4.991
G1 X103.476 Y131.818 E5.01822
G1 X103.313 Y131.938 E5.02495
G1 X102.549 Y132.451 E5.05556
G1 X101.743 Y132.896 E5.08618
G1 X100.901 Y133.269 E5.11681
G1 X100.03 Y133.568 E5.14744
G1 X99.137 Y133.79 E5.17804
G1 X98.228 Y133.934 E5.20865
G1 X96.881 Y134.001 E5.25351
G1 X96.45 Y133.995 E5.26785
G1 X93.997 Y133.994 E5.34943
G1 X93.443 Y134.001 E5.36786
G1 X92.522 Y133.973 E5.39851
G1 X91.608 Y133.865 E5.42912
G1 X90.707 Y133.678 E5.45972
G1 X89.825 Y133.413 E5.49036
G1 X88.969 Y133.073 E5.52099
G1 X88.146 Y132.66 E5.55162
G1 X87.363 Y132.177 E5.58222
G1 X86.889 Y131.836 E5.60164
G1 X86.688 Y131.683 E5.61004
G1 X86.058 Y131.165 E5.63717
G1 X85.857 Y130.986 E5.64612
G1 X85.194 Y130.341 E5.67688
G1 X85.013 Y130.149 E5.68566
G1 X84.494 Y129.555 E5.71189
G1 X84.348 Y129.375 E5.7196
G1 X83.838 Y128.693 E5.74793
G1 X83.67 Y128.448 E5.75781
G1 X83.164 Y127.633 E5.78971
G1 X83.043 Y127.417 E5.79795
G1 X82.68 Y126.707 E5.82447
G1 X82.56 Y126.449 E5.83393
G1 X82.212 Y125.609 E5.86418
G1 X82.13 Y125.384 E5.87214
G1 X81.969 Y124.91 E5.88879
G1 X81.819 Y124.394 E5.90666
G1 X81.766 Y124.194 E5.91354
G1 X81.594 Y123.437 E5.93936
G1 X81.544 Y123.171 E5.94837
G1 X81.419 Y122.311 E5.97727
G1 X81.394 Y122.071 E5.9853
G1 X81.342 Y121.287 E6.01143
G1 X81.334 Y121.017 E6.02041
G1 X81.332 Y120.453 E6.03917
G1 X81.397 Y117.69 E6.1311
G1 X81.382 Y114.994 E6.22077
G1 X81.386 Y114.536 E6.236
G1 X81.426 Y113.711 E6.26347
G1 X81.456 Y113.366 E6.27499
G1 X81.591 Y112.367 E6.30852
G1 X81.639 Y112.106 E6.31735
G1 X81.839 Y111.227 E6.34733
G1 X81.909 Y110.971 E6.35616
G1 X82.154 Y110.194 E6.38325
G1 X82.236 Y109.965 E6.39134
G1 X82.549 Y109.19 E6.41914
G1 X82.634 Y109.001 E6.42604
G1 X82.956 Y108.346 E6.45031
G1 X83.1 Y108.077 E6.46046
G1 X83.396 Y107.56 E6.48027
G1 X83.457 Y107.46 E6.48417
G1 X83.849 Y106.864 E6.5079
G1 X83.991 Y106.663 E6.51608
G1 X84.491 Y106.009 E6.54346
G1 X84.657 Y105.809 E6.55211
G1 X85.224 Y105.18 E6.58027
G1 X85.34 Y105.061 E6.5858
G1 X85.714 Y104.695 E6.6032
G1 X85.912 Y104.511 E6.61219
G1 X86.386 Y104.097 E6.63313
G0 F6000 X86.64 Y104.405
G1 F1200 X86.714 Y104.344 E6.63632
G1 X87.106 Y104.037 E6.65288
G1 X87.267 Y103.917 E6.65956
G1 X88.015 Y103.41 E6.68961
G1 X88.804 Y102.971 E6.71964
G1 X89.629 Y102.603 E6.74969
G1 X90.483 Y102.31 E6.77972
G1 X91.36 Y102.094 E6.80976
G1 X92.252 Y101.956 E6.83978
G1 X93.506 Y101.896 E6.88153
G1 X93.937 Y101.902 E6.89587
G1 X96.401 Y101.903 E6.97782
G1 X96.955 Y101.896 E6.99625
G1 X97.857 Y101.924 E7.02627
G1 X98.754 Y102.033 E7.05632
G1 X99.637 Y102.22 E7.08634
G1 X100.501 Y102.485 E7.1164
G1 X101.337 Y102.825 E7.14642
G1 X102.141 Y103.237 E7.17646
G1 X102.904 Y103.719 E7.20648
G1 X103.29 Y104.001 E7.22238
G1 X103.513 Y104.172 E7.23173
G1 X104.083 Y104.642 E7.2563
G1 X104.254 Y104.794 E7.26391
G1 X104.754 Y105.271 E7.28689
G1 X105.024 Y105.552 E7.29985
G1 X105.182 Y105.723 E7.3076
G1 X105.717 Y106.352 E7.33506
G1 X105.844 Y106.514 E7.34191
G1 X106.215 Y107.018 E7.36272
G1 X106.357 Y107.224 E7.37104
G1 X106.784 Y107.898 E7.39758
G1 X106.926 Y108.143 E7.407
G1 X107.224 Y108.696 E7.42789
G1 X107.434 Y109.137 E7.44414
G1 X107.53 Y109.351 E7.45194
G1 X107.798 Y110.006 E7.47548
G1 X107.873 Y110.21 E7.48271
G1 X108.111 Y110.942 E7.50831
G1 X108.188 Y111.213 E7.51768
G1 X108.386 Y112.04 E7.54596
G1 X108.434 Y112.285 E7.55427
G1 X108.559 Y113.096 E7.58156
G1 X108.586 Y113.334 E7.58953
G1 X108.642 Y114.056 E7.61361
G1 X108.654 Y114.342 E7.62313
G1 X108.657 Y115.124 E7.64914
G1 X108.649 Y115.356 E7.65686
G1 X108.592 Y118.008 E7.74509
G1 X108.603 Y120.275 E7.82049
G1 X108.608 Y120.584 E7.83077
G1 X108.603 Y121.099 E7.8479
G1 X108.595 Y121.332 E7.85565
G1 X108.54 Y122.094 E7.88106
G1 X108.515 Y122.322 E7.88869
G1 X108.405 Y123.071 E7.91387
G1 X108.356 Y123.335 E7.9228
G1 X108.167 Y124.161 E7.95099
G1 X108.099 Y124.41 E7.95957
G1 X107.95 Y124.905 E7.97676
G1 X107.802 Y125.333 E7.99183
G1 X107.732 Y125.522 E7.99853
G1 X107.534 Y126.018 E8.01629
G1 X107.34 Y126.447 E8.03195
G1 X107.224 Y126.689 E8.04088
G1 X106.808 Y127.468 E8.07025
G1 X106.668 Y127.705 E8.07941
G1 X106.14 Y128.51 E8.11143
G1 X105.965 Y128.751 E8.12133
G1 X105.496 Y129.349 E8.14661
G1 X105.347 Y129.525 E8.15428
G1 X104.831 Y130.089 E8.1797
G1 X104.643 Y130.28 E8.18862
G1 X104.037 Y130.848 E8.21624
G1 X103.855 Y131.005 E8.22424
G1 X103.239 Y131.496 E8.25044
G1 X103.076 Y131.616 E8.25717
G1 X102.326 Y132.119 E8.28721
G1 X101.534 Y132.553 E8.31724
G1 X100.707 Y132.916 E8.34728
G1 X99.851 Y133.204 E8.37732
G1 X98.973 Y133.415 E8.40736
G1 X98.08 Y133.548 E8.43738
G1 X96.886 Y133.601 E8.47714
G1 X96.455 Y133.595 E8.49147
G1 X93.991 Y133.594 E8.57343
G1 X93.437 Y133.601 E8.59185
G1 X92.535 Y133.573 E8.62187
G1 X91.638 Y133.464 E8.65192
G1 X90.755 Y133.277 E8.68194
G1 X89.891 Y133.012 E8.712
G1 X89.055 Y132.672 E8.74202
G1 X88.251 Y132.26 E8.77206
G1 X87.131 Y131.518 E8.81675
G1 X86.93 Y131.365 E8.82515
G1 X86.324 Y130.866 E8.85126
G1 X86.123 Y130.687 E8.86021
G1 X85.485 Y130.067 E8.8898
G1 X85.304 Y129.875 E8.89858
G1 X84.804 Y129.303 E8.92385
G1 X84.658 Y129.123 E8.93156
G1 X84.168 Y128.466 E8.95882
G1 X84 Y128.221 E8.9687
G1 X83.513 Y127.438 E8.99936
G1 X83.392 Y127.222 E9.0076
G1 X83.042 Y126.539 E9.03313
G1 X82.922 Y126.281 E9.04259
G1 X82.588 Y125.472 E9.0717
G1 X82.506 Y125.247 E9.07966
G1 X82.35 Y124.788 E9.09579
G1 X82.205 Y124.292 E9.11298
G1 X82.152 Y124.092 E9.11986
G1 X81.988 Y123.363 E9.14471
G1 X81.938 Y123.097 E9.15371
G1 X81.817 Y122.27 E9.18151
G1 X81.792 Y122.03 E9.18954
G1 X81.741 Y121.275 E9.21471
G1 X81.733 Y121.005 E9.22369
G1 X81.732 Y120.463 E9.24172
G1 X81.797 Y117.697 E9.33374
G1 X81.782 Y114.998 E9.42351
G1 X81.786 Y114.54 E9.43874
G1 X81.824 Y113.745 E9.46522
G1 X81.854 Y113.4 E9.47673
G1 X81.984 Y112.439 E9.50899
G1 X82.032 Y112.178 E9.51781
G1 X82.225 Y111.333 E9.54664
G1 X82.295 Y111.077 E9.55547
G1 X82.531 Y110.328 E9.58159
G1 X82.613 Y110.099 E9.58968
G1 X82.913 Y109.354 E9.61639
G1 X82.998 Y109.165 E9.62328
G1 X83.308 Y108.535 E9.64664
G1 X83.452 Y108.266 E9.65679
G1 X83.737 Y107.768 E9.67587
G1 X83.798 Y107.668 E9.67977
G1 X84.175 Y107.095 E9.70258
G1 X84.317 Y106.894 E9.71076
G1 X84.799 Y106.265 E9.73712
G1 X84.965 Y106.065 E9.74577
G1 X85.51 Y105.459 E9.77287
G1 X85.626 Y105.34 E9.7784
G1 X85.987 Y104.988 E9.79517
G1 X86.185 Y104.804 E9.80416
G1 X86.64 Y104.405 E9.82429
G1 F2700 E4.82429
;MESH:d326617e-30a9-40ac-8b74-cc01c496c0e4.stl
G0 F6000 X92.548 Y111.892
G0 X93.3 Y112.735
G0 X92.687 Y113.851
G0 X92.537 Y114.624
G0 X92.615 Y115.406
G0 X92.916 Y116.133
G0 X93.419 Y116.742
G0 X93.946 Y117.094
G0 X96.412 Y118.192
;TYPE:WALL-INNER
G1 F2700 E9.82429
G1 F1200 X96.261 Y118.116 E9.82991
G1 X95.864 Y117.986 E9.84381
G1 X95.571 Y117.935 E9.8537
G1 X95.454 Y117.914 E9.85765
G1 X95.207 Y117.907 E9.86587
G1 X95.035 Y117.901 E9.87159
G1 X94.844 Y117.923 E9.87799
G1 X94.618 Y117.951 E9.88556
G1 X94.214 Y118.062 E9.8995
G1 X94.165 Y118.083 E9.90127
G1 X93.933 Y118.187 E9.90973
G1 X94.011 Y117.984 E9.91136
G1 X94.062 Y117.853 E9.91351
G1 X94.015 Y117.532 E9.9243
G1 X93.984 Y117.326 E9.93123
G1 X93.981 Y117.311 E9.93174
G1 X94.002 Y117.323
G1 X94.393 Y117.475 E9.9411
G1 X94.801 Y117.567 E9.95501
G1 X95.057 Y117.585 E9.96239
G1 X95.216 Y117.597 E9.9665
G1 X95.432 Y117.584 E9.97217
G1 X95.635 Y117.57 E9.97828
G1 X96.045 Y117.478 E9.99226
G1 X96.238 Y117.405 E9.99912
G1 X96.435 Y117.329 E10.00614
G1 X96.457 Y117.317 E10.00698
G1 X96.451 Y117.334
G1 X96.349 Y117.595 E10.01102
G1 X96.33 Y117.644 E10.01139
G1 X96.397 Y118.095 E10.02457
G1 X96.412 Y118.192
G1 F2700 E5.02457
G0 F6000 X97.403 Y119.251
G0 X97.743 Y119.963
G0 X97.86 Y120.742
G0 X97.746 Y121.519
G0 X97.126 Y122.73
G0 X97.078 Y123.126
;TYPE:WALL-OUTER
G1 F2700 E10.02457
G1 F1200 X96.876 Y122.836 E10.03633
G1 X96.835 Y122.68 E10.04169
G1 X96.871 Y122.536 E10.04663
G1 X97.006 Y122.37 E10.05374
G1 X97.212 Y122.101 E10.06501
G1 X97.389 Y121.787 E10.077
G1 X97.516 Y121.451 E10.08895
G1 X97.593 Y121.101 E10.10087
G1 X97.619 Y120.742 E10.11284
G1 X97.592 Y120.384 E10.12478
G1 X97.513 Y120.033 E10.13675
G1 X97.382 Y119.698 E10.14871
G1 X97.204 Y119.385 E10.16069
G1 X96.982 Y119.103 E10.17262
G1 X96.722 Y118.855 E10.18457
G1 X96.429 Y118.649 E10.19649
G1 X96.108 Y118.487 E10.20845
G1 X95.767 Y118.375 E10.22038
G1 X95.413 Y118.313 E10.23234
G1 X95.053 Y118.302 E10.24432
G1 X94.695 Y118.345 E10.25631
G1 X94.349 Y118.44 E10.26824
G1 X94.021 Y118.585 E10.28017
G1 X93.715 Y118.776 E10.29217
G1 X93.443 Y119.01 E10.3041
G1 X93.207 Y119.282 E10.31608
G1 X93.013 Y119.585 E10.32805
G1 X92.866 Y119.913 E10.34
