;FLAVOR:Marlin
;TIME:237
;Filament used: 0.0507791m
;Layer height: 0.12
;MINX:154.456
;MINY:68.378
;MINZ:0.12
;MAXX:183.987
;MAXY:103.505
;MAXZ:2.4
;Generated with Cura_SteamEngine 4.8.0
M140 S50
M105
M190 S50
M104 S200
M105
M109 S200
M82 ;absolute extrusion mode
; Ender 3 Custom Start G-code
G92 E0 ; Reset Extruder
G28 ; Home all axes
M420 S1  ; use saved bed leveling
G1 Z2.0 F3000 ; Move Z Axis up little to prevent scratching of Heat Bed
G1 X0.1 Y20 Z0.3 F5000.0 ; Move to start position
G1 X0.1 Y200.0 Z0.3 F1500.0 E15 ; Draw the first line
G1 X0.4 Y200.0 Z0.3 F5000.0 ; Move to side a little
G1 X0.4 Y20 Z0.3 F1500.0 E30 ; Draw the second line
G92 E0 ; Reset Extruder
G1 Z2.0 F3000 ; Move Z Axis up little to prevent scratching of Heat Bed
G1 X5 Y20 Z0.3 F5000.0 ; Move over to prevent blob squish
G92 E0
G92 E0
G1 F2700 E-5
;LAYER_COUNT:20
;LAYER:0
M107
G0 F6000 X156.179 Y75.626 Z0.12
;TYPE:SKIRT
G1 F2700 E0
G1 F1200 X156.292 Y75.414 E0.00479
G1 X156.515 Y75.016 E0.0139
G1 X156.788 Y74.567 E0.02438
G1 X156.908 Y74.38 E0.02882
G1 X157.19 Y73.963 E0.03886
G1 X157.486 Y73.557 E0.04889
G1 X157.614 Y73.39 E0.05309
G1 X157.88 Y73.057 E0.0616
G1 X158.252 Y72.627 E0.07294
G1 X158.455 Y72.404 E0.07896
G1 X158.999 Y71.847 E0.0945
G1 X159.17 Y71.684 E0.09921
G1 X159.73 Y71.186 E0.11417
G1 X159.872 Y71.068 E0.11785
G1 X160.281 Y70.744 E0.12826
G1 X160.48 Y70.594 E0.13324
G1 X161.252 Y70.062 E0.15195
G1 X162.067 Y69.597 E0.17067
G1 X162.918 Y69.204 E0.18938
G1 X163.8 Y68.885 E0.2081
G1 X164.706 Y68.642 E0.22682
G1 X165.629 Y68.477 E0.24553
G1 X166.563 Y68.391 E0.26424
G1 X167.171 Y68.378 E0.27638
G1 X168.581 Y68.388 E0.30452
G1 X168.907 Y68.394 E0.31103
G1 X170.556 Y68.388 E0.34393
G1 X171.25 Y68.379 E0.35778
G1 X172.188 Y68.407 E0.37651
G1 X173.119 Y68.514 E0.39521
G1 X174.038 Y68.7 E0.41392
G1 X174.938 Y68.964 E0.43264
G1 X175.813 Y69.304 E0.45138
G1 X176.655 Y69.717 E0.47009
G1 X177.458 Y70.2 E0.48879
G1 X178.05 Y70.619 E0.50327
G1 X178.279 Y70.793 E0.509
G1 X178.912 Y71.313 E0.52535
G1 X179.12 Y71.497 E0.53089
G1 X179.743 Y72.093 E0.5481
G1 X179.971 Y72.329 E0.55465
G1 X180.519 Y72.94 E0.57103
G1 X180.588 Y73.023 E0.57318
G1 X180.812 Y73.302 E0.58032
G1 X180.938 Y73.464 E0.58442
G1 X181.326 Y73.995 E0.59754
G1 X181.481 Y74.221 E0.60301
G1 X181.778 Y74.678 E0.61389
G1 X181.834 Y74.769 E0.61602
G1 X182.06 Y75.153 E0.62491
G1 X182.166 Y75.342 E0.62924
G1 X182.544 Y76.081 E0.6458
G1 X182.652 Y76.313 E0.65091
G1 X182.811 Y76.669 E0.65869
G1 X182.866 Y76.799 E0.6615
G1 X183.121 Y77.461 E0.67566
G1 X183.271 Y77.9 E0.68492
G1 X183.301 Y77.993 E0.68687
G1 X183.466 Y78.555 E0.69856
G1 X183.538 Y78.827 E0.70417
G1 X183.736 Y79.726 E0.72254
G1 X183.782 Y79.986 E0.72781
G1 X183.887 Y80.722 E0.74265
G1 X183.917 Y81 E0.74823
G1 X183.974 Y81.83 E0.76483
G1 X183.982 Y82.081 E0.76984
G1 X183.987 Y82.543 E0.77906
G1 X183.984 Y82.838 E0.78495
G1 X183.977 Y83.135 E0.79088
G1 X183.966 Y83.421 E0.79659
G1 X183.909 Y86 E0.84807
G1 X183.926 Y88.578 E0.89952
G1 X183.934 Y89.165 E0.91123
G1 X183.931 Y89.699 E0.92189
G1 X183.895 Y90.488 E0.93765
G1 X183.87 Y90.794 E0.94378
G1 X183.826 Y91.234 E0.9526
G1 X183.72 Y91.944 E0.96693
G1 X183.663 Y92.256 E0.97326
G1 X183.478 Y93.084 E0.99019
G1 X183.425 Y93.285 E0.99434
G1 X183.217 Y93.981 E1.00883
G1 X183.122 Y94.264 E1.01479
G1 X182.838 Y95.017 E1.03085
G1 X182.734 Y95.265 E1.03622
G1 X182.378 Y96.03 E1.05306
G1 X182.237 Y96.305 E1.05922
G1 X181.789 Y97.097 E1.07738
G1 X181.626 Y97.359 E1.08354
G1 X181.361 Y97.764 E1.0932
G1 X181.311 Y97.837 E1.09497
G1 X180.998 Y98.271 E1.10564
G1 X180.85 Y98.466 E1.11053
G1 X180.262 Y99.177 E1.12894
G1 X180.063 Y99.398 E1.13488
G1 X179.745 Y99.737 E1.14415
G1 X179.421 Y100.056 E1.15323
G1 X179.249 Y100.219 E1.15795
G1 X178.812 Y100.612 E1.16968
G1 X178.671 Y100.732 E1.17338
G1 X178.142 Y101.155 E1.18689
G1 X177.942 Y101.305 E1.19188
G1 X177.168 Y101.835 E1.2106
G1 X176.352 Y102.298 E1.22933
G1 X175.5 Y102.689 E1.24803
G1 X174.617 Y103.006 E1.26676
G1 X173.711 Y103.247 E1.28547
G1 X172.787 Y103.41 E1.30419
G1 X171.853 Y103.493 E1.3229
G1 X171.272 Y103.505 E1.3345
G1 X169.862 Y103.495 E1.36264
G1 X169.536 Y103.489 E1.36914
G1 X167.887 Y103.495 E1.40205
G1 X167.192 Y103.504 E1.41592
G1 X166.254 Y103.476 E1.43465
G1 X165.323 Y103.369 E1.45335
G1 X164.403 Y103.183 E1.47208
G1 X163.503 Y102.919 E1.4908
G1 X162.629 Y102.579 E1.50952
G1 X161.787 Y102.166 E1.52823
G1 X160.983 Y101.683 E1.54695
G1 X160.383 Y101.256 E1.56164
G1 X160.144 Y101.074 E1.56764
G1 X159.5 Y100.545 E1.58427
G1 X159.302 Y100.369 E1.58956
G1 X158.667 Y99.757 E1.60716
G1 X158.439 Y99.519 E1.61373
G1 X158.001 Y99.033 E1.62679
G1 X157.666 Y98.625 E1.63733
G1 X157.519 Y98.437 E1.64209
G1 X157.105 Y97.871 E1.65608
G1 X156.947 Y97.64 E1.66167
G1 X156.646 Y97.175 E1.67272
G1 X156.597 Y97.095 E1.67459
G1 X156.37 Y96.708 E1.68355
G1 X156.259 Y96.509 E1.68809
G1 X155.872 Y95.747 E1.70515
G1 X155.763 Y95.51 E1.71036
G1 X155.614 Y95.17 E1.71776
G1 X155.567 Y95.058 E1.72019
G1 X155.329 Y94.441 E1.73338
G1 X155.234 Y94.17 E1.73912
G1 X154.973 Y93.315 E1.75695
G1 X154.894 Y93.013 E1.76318
G1 X154.695 Y92.091 E1.78201
G1 X154.65 Y91.829 E1.78731
G1 X154.551 Y91.119 E1.80162
G1 X154.523 Y90.853 E1.80696
G1 X154.483 Y90.362 E1.81679
G1 X154.478 Y90.279 E1.81845
G1 X154.459 Y89.779 E1.82843
G1 X154.456 Y89.574 E1.83252
G1 X154.456 Y89.284 E1.83831
G1 X154.459 Y89.029 E1.8434
G1 X154.466 Y88.75 E1.84897
G1 X154.478 Y88.417 E1.85562
G1 X154.534 Y85.883 E1.9062
G1 X154.518 Y83.316 E1.95743
G1 X154.513 Y83.072 E1.9623
G1 X154.509 Y82.724 E1.96924
G1 X154.509 Y82.463 E1.97445
G1 X154.513 Y82.138 E1.98094
G1 X154.536 Y81.548 E1.99272
G1 X154.573 Y81.081 E2.00207
G1 X154.598 Y80.829 E2.00712
G1 X154.713 Y79.995 E2.02392
G1 X154.752 Y79.775 E2.02838
G1 X154.829 Y79.38 E2.03641
G1 X154.966 Y78.801 E2.04829
G1 X155.03 Y78.559 E2.05328
G1 X155.245 Y77.843 E2.0682
G1 X155.33 Y77.592 E2.07349
G1 X155.517 Y77.081 E2.08435
G1 X155.705 Y76.626 E2.09417
G1 X155.812 Y76.382 E2.09949
G1 X156.179 Y75.626 E2.11626
G0 F6000 X156.532 Y75.814
G1 F1200 X156.645 Y75.602 E2.12106
G1 X156.86 Y75.219 E2.12982
G1 X157.125 Y74.783 E2.14
G1 X157.245 Y74.596 E2.14444
G1 X157.516 Y74.194 E2.15411
G1 X157.567 Y74.122 E2.15587
G1 X157.804 Y73.801 E2.16384
G1 X157.932 Y73.634 E2.16803
G1 X158.189 Y73.311 E2.17627
G1 X158.547 Y72.896 E2.18721
G1 X158.75 Y72.673 E2.19323
G1 X159.275 Y72.136 E2.20821
G1 X159.446 Y71.973 E2.21293
G1 X159.985 Y71.493 E2.22733
G1 X160.127 Y71.375 E2.23102
G1 X160.522 Y71.063 E2.24106
G1 X160.721 Y70.913 E2.24603
G1 X161.479 Y70.392 E2.26439
G1 X162.28 Y69.938 E2.28276
G1 X163.117 Y69.555 E2.30113
G1 X163.985 Y69.246 E2.31952
G1 X164.876 Y69.014 E2.33789
G1 X165.783 Y68.86 E2.35625
G1 X166.701 Y68.786 E2.37463
G1 X167.168 Y68.778 E2.38395
G1 X168.574 Y68.788 E2.41201
G1 X168.902 Y68.795 E2.41856
G1 X170.562 Y68.788 E2.45169
G1 X171.255 Y68.779 E2.46552
G1 X172.176 Y68.807 E2.4839
G1 X173.09 Y68.914 E2.50227
G1 X173.991 Y69.101 E2.52063
G1 X174.873 Y69.365 E2.53901
G1 X175.729 Y69.705 E2.55739
G1 X176.552 Y70.117 E2.57575
G1 X177.336 Y70.6 E2.59413
G1 X177.808 Y70.938 E2.60571
G1 X178.037 Y71.112 E2.61145
G1 X178.647 Y71.613 E2.62721
G1 X178.855 Y71.797 E2.63275
G1 X179.455 Y72.371 E2.64932
G1 X179.683 Y72.607 E2.65587
G1 X180.211 Y73.196 E2.67165
G1 X180.496 Y73.547 E2.68068
G1 X180.622 Y73.709 E2.68477
G1 X180.997 Y74.222 E2.69745
G1 X181.152 Y74.448 E2.70292
G1 X181.438 Y74.888 E2.71339
G1 X181.494 Y74.979 E2.71553
G1 X181.711 Y75.349 E2.72409
G1 X181.817 Y75.538 E2.72841
G1 X182.182 Y76.249 E2.74436
G1 X182.29 Y76.481 E2.74947
G1 X182.442 Y76.825 E2.75697
G1 X182.497 Y76.955 E2.75979
G1 X182.743 Y77.593 E2.77343
G1 X182.89 Y78.023 E2.7825
G1 X182.92 Y78.116 E2.78445
G1 X183.079 Y78.658 E2.79573
G1 X183.151 Y78.93 E2.80134
G1 X183.342 Y79.795 E2.81902
G1 X183.388 Y80.055 E2.82429
G1 X183.489 Y80.765 E2.8386
G1 X183.519 Y81.043 E2.84418
G1 X183.575 Y81.842 E2.86016
G1 X183.583 Y82.093 E2.86517
G1 X183.587 Y82.539 E2.87407
G1 X183.584 Y82.834 E2.87996
G1 X183.578 Y83.12 E2.88567
G1 X183.564 Y83.496 E2.89318
G1 X183.509 Y85.994 E2.94304
G1 X183.526 Y88.59 E2.99485
G1 X183.534 Y89.169 E3.0064
G1 X183.531 Y89.696 E3.01692
G1 X183.497 Y90.455 E3.03208
G1 X183.472 Y90.761 E3.03821
G1 X183.428 Y91.188 E3.04678
G1 X183.326 Y91.872 E3.06058
G1 X183.269 Y92.184 E3.06691
G1 X183.092 Y92.982 E3.08322
G1 X183.039 Y93.183 E3.08737
G1 X182.838 Y93.853 E3.10133
G1 X182.743 Y94.136 E3.10728
G1 X182.469 Y94.862 E3.12277
G1 X182.365 Y95.11 E3.12814
G1 X182.022 Y95.847 E3.14436
G1 X181.881 Y96.122 E3.15053
G1 X181.449 Y96.885 E3.16802
G1 X181.286 Y97.147 E3.17418
G1 X181.031 Y97.538 E3.1835
G1 X180.981 Y97.611 E3.18526
G1 X180.679 Y98.029 E3.19555
G1 X180.531 Y98.224 E3.20044
G1 X179.965 Y98.909 E3.21817
G1 X179.766 Y99.13 E3.22411
G1 X179.458 Y99.458 E3.23309
G1 X179.146 Y99.766 E3.24183
G1 X178.974 Y99.929 E3.24656
G1 X178.553 Y100.307 E3.25785
G1 X178.412 Y100.427 E3.26155
G1 X177.902 Y100.835 E3.27458
G1 X177.702 Y100.985 E3.27957
G1 X176.942 Y101.505 E3.29795
G1 X176.14 Y101.957 E3.31632
G1 X175.302 Y102.338 E3.33469
G1 X174.434 Y102.644 E3.35306
G1 X173.542 Y102.874 E3.37144
G1 X172.634 Y103.026 E3.38981
G1 X171.275 Y103.105 E3.41698
G1 X169.869 Y103.095 E3.44504
G1 X169.541 Y103.088 E3.45159
G1 X167.879 Y103.095 E3.48475
G1 X167.186 Y103.104 E3.49858
G1 X166.266 Y103.076 E3.51695
G1 X165.352 Y102.969 E3.53532
G1 X164.45 Y102.782 E3.5537
G1 X163.568 Y102.518 E3.57207
G1 X162.713 Y102.178 E3.59043
G1 X161.89 Y101.766 E3.6088
G1 X161.106 Y101.283 E3.62718
G1 X160.625 Y100.938 E3.63899
G1 X160.386 Y100.756 E3.64498
G1 X159.766 Y100.246 E3.66101
G1 X159.568 Y100.07 E3.66629
G1 X158.956 Y99.48 E3.68326
G1 X158.728 Y99.242 E3.68983
G1 X158.305 Y98.774 E3.70242
G1 X158.254 Y98.714 E3.70399
G1 X157.981 Y98.378 E3.71263
G1 X157.834 Y98.19 E3.7174
G1 X157.435 Y97.645 E3.73088
G1 X157.277 Y97.414 E3.73646
G1 X156.987 Y96.967 E3.74709
G1 X156.938 Y96.887 E3.74897
G1 X156.72 Y96.514 E3.75759
G1 X156.609 Y96.315 E3.76214
G1 X156.236 Y95.58 E3.77858
G1 X156.127 Y95.343 E3.78379
G1 X155.983 Y95.016 E3.79092
G1 X155.936 Y94.904 E3.79334
G1 X155.707 Y94.309 E3.80607
G1 X155.612 Y94.038 E3.8118
G1 X155.36 Y93.214 E3.82899
G1 X155.281 Y92.912 E3.83522
G1 X155.089 Y92.023 E3.85337
G1 X155.044 Y91.761 E3.85868
G1 X154.949 Y91.077 E3.87246
G1 X154.921 Y90.811 E3.8778
G1 X154.882 Y90.338 E3.88727
G1 X154.877 Y90.255 E3.88893
G1 X154.859 Y89.773 E3.89855
G1 X154.856 Y89.568 E3.90264
G1 X154.856 Y89.288 E3.90823
G1 X154.865 Y88.765 E3.91867
G1 X154.878 Y88.422 E3.92552
G1 X154.934 Y85.889 E3.97608
G1 X154.918 Y83.303 E4.02769
G1 X154.913 Y83.068 E4.03238
G1 X154.909 Y82.72 E4.03932
G1 X154.909 Y82.468 E4.04435
G1 X154.913 Y82.143 E4.05084
G1 X154.935 Y81.575 E4.06218
G1 X154.971 Y81.121 E4.07127
G1 X154.996 Y80.869 E4.07632
G1 X155.107 Y80.065 E4.09252
G1 X155.146 Y79.845 E4.09698
G1 X155.221 Y79.461 E4.10479
G1 X155.352 Y78.903 E4.11623
G1 X155.416 Y78.661 E4.12122
G1 X155.624 Y77.971 E4.1356
G1 X155.709 Y77.72 E4.14089
G1 X155.889 Y77.228 E4.15135
G1 X156.071 Y76.787 E4.16087
G1 X156.178 Y76.543 E4.16618
G1 X156.532 Y75.814 E4.18236
G0 F6000 X156.885 Y76.002
G1 F1200 X156.998 Y75.79 E4.18715
G1 X157.204 Y75.421 E4.19559
G1 X157.251 Y75.341 E4.19744
G1 X157.462 Y74.999 E4.20546
G1 X157.582 Y74.812 E4.20989
G1 X157.843 Y74.425 E4.21921
G1 X158.121 Y74.044 E4.22862
G1 X158.249 Y73.877 E4.23282
G1 X158.499 Y73.564 E4.24081
G1 X158.843 Y73.166 E4.25131
G1 X159.046 Y72.943 E4.25733
G1 X159.551 Y72.426 E4.27175
G1 X159.722 Y72.263 E4.27646
G1 X160.241 Y71.801 E4.29033
G1 X160.383 Y71.683 E4.29401
G1 X160.762 Y71.383 E4.30366
G1 X160.961 Y71.233 E4.30863
G1 X161.706 Y70.722 E4.32666
G1 X162.493 Y70.278 E4.34469
G1 X163.316 Y69.906 E4.36272
G1 X164.168 Y69.609 E4.38072
G1 X165.044 Y69.388 E4.39875
G1 X165.936 Y69.245 E4.41678
G1 X167.166 Y69.178 E4.44136
G1 X168.566 Y69.188 E4.4693
G1 X168.895 Y69.195 E4.47587
G1 X170.57 Y69.188 E4.5093
G1 X171.261 Y69.179 E4.52309
G1 X172.163 Y69.207 E4.5411
G1 X173.06 Y69.315 E4.55913
G1 X173.944 Y69.502 E4.57716
G1 X174.807 Y69.766 E4.59517
G1 X175.644 Y70.105 E4.61319
G1 X176.448 Y70.517 E4.63122
G1 X177.566 Y71.256 E4.65796
G1 X177.795 Y71.43 E4.6637
G1 X178.382 Y71.912 E4.67886
G1 X178.59 Y72.096 E4.6844
G1 X179.168 Y72.649 E4.70036
G1 X179.396 Y72.885 E4.70691
G1 X179.904 Y73.451 E4.72209
G1 X179.973 Y73.534 E4.72424
G1 X180.18 Y73.793 E4.73086
G1 X180.306 Y73.955 E4.73496
G1 X180.667 Y74.448 E4.74715
G1 X180.822 Y74.674 E4.75262
G1 X181.097 Y75.097 E4.76269
G1 X181.153 Y75.188 E4.76482
G1 X181.362 Y75.545 E4.77308
G1 X181.468 Y75.734 E4.7774
G1 X181.819 Y76.418 E4.79274
G1 X181.927 Y76.65 E4.79785
G1 X182.074 Y76.981 E4.80508
G1 X182.129 Y77.111 E4.80789
G1 X182.365 Y77.724 E4.821
G1 X182.509 Y78.146 E4.8299
G1 X182.539 Y78.239 E4.83185
G1 X182.692 Y78.76 E4.84269
G1 X182.764 Y79.032 E4.8483
G1 X182.948 Y79.865 E4.86533
G1 X182.994 Y80.125 E4.8706
G1 X183.091 Y80.808 E4.88436
G1 X183.121 Y81.086 E4.88994
G1 X183.175 Y81.855 E4.90533
G1 X183.183 Y82.106 E4.91034
G1 X183.187 Y82.535 E4.9189
G1 X183.184 Y82.83 E4.92479
G1 X183.178 Y83.106 E4.9303
G1 X183.165 Y83.442 E4.93701
G1 X183.109 Y85.987 E4.98781
G1 X183.126 Y88.602 E5.03999
G1 X183.134 Y89.174 E5.05141
G1 X183.135 Y89.385 E5.05562
G1 X183.132 Y89.692 E5.06175
G1 X183.098 Y90.423 E5.07635
G1 X183.073 Y90.729 E5.08248
G1 X183.031 Y91.142 E5.09076
G1 X182.933 Y91.8 E5.10404
G1 X182.876 Y92.112 E5.11037
G1 X182.705 Y92.88 E5.12607
G1 X182.652 Y93.081 E5.13022
G1 X182.459 Y93.726 E5.14365
G1 X182.364 Y94.009 E5.14961
G1 X182.1 Y94.708 E5.16452
G1 X181.996 Y94.956 E5.16989
G1 X181.666 Y95.665 E5.18549
G1 X181.525 Y95.94 E5.19166
G1 X181.11 Y96.674 E5.20849
G1 X180.947 Y96.936 E5.21464
G1 X180.701 Y97.312 E5.22361
G1 X180.651 Y97.385 E5.22538
G1 X180.361 Y97.788 E5.23529
G1 X180.213 Y97.983 E5.24017
G1 X179.668 Y98.641 E5.25722
G1 X179.469 Y98.862 E5.26316
G1 X179.171 Y99.179 E5.27184
G1 X178.871 Y99.476 E5.28026
G1 X178.699 Y99.639 E5.28499
G1 X178.294 Y100.003 E5.29586
G1 X178.153 Y100.123 E5.29955
G1 X177.662 Y100.515 E5.31209
G1 X177.462 Y100.665 E5.31708
G1 X176.716 Y101.174 E5.3351
G1 X175.928 Y101.616 E5.35313
G1 X175.104 Y101.986 E5.37116
G1 X174.251 Y102.281 E5.38917
G1 X173.375 Y102.5 E5.40719
G1 X172.483 Y102.641 E5.42521
G1 X171.277 Y102.705 E5.44931
G1 X169.877 Y102.695 E5.47725
G1 X169.548 Y102.688 E5.48382
G1 X167.873 Y102.695 E5.51725
G1 X167.181 Y102.704 E5.53106
G1 X166.279 Y102.676 E5.54907
G1 X165.382 Y102.568 E5.5671
G1 X164.498 Y102.381 E5.58513
G1 X163.635 Y102.117 E5.60314
G1 X162.798 Y101.778 E5.62116
G1 X161.994 Y101.366 E5.63919
G1 X160.867 Y100.62 E5.66616
G1 X160.628 Y100.438 E5.67215
G1 X160.031 Y99.947 E5.68758
G1 X159.833 Y99.771 E5.69287
G1 X159.244 Y99.203 E5.70919
G1 X159.016 Y98.965 E5.71577
G1 X158.61 Y98.515 E5.72787
G1 X158.296 Y98.132 E5.73775
G1 X158.149 Y97.944 E5.74251
G1 X157.765 Y97.419 E5.75549
G1 X157.607 Y97.188 E5.76108
G1 X157.328 Y96.758 E5.77131
G1 X157.279 Y96.678 E5.77318
G1 X157.069 Y96.319 E5.78148
G1 X156.958 Y96.12 E5.78603
G1 X156.599 Y95.413 E5.80185
G1 X156.49 Y95.176 E5.80706
G1 X156.305 Y94.749 E5.81634
G1 X156.084 Y94.176 E5.8286
G1 X155.989 Y93.905 E5.83433
G1 X155.747 Y93.112 E5.85088
G1 X155.668 Y92.81 E5.8571
G1 X155.483 Y91.956 E5.87454
G1 X155.438 Y91.694 E5.87985
G1 X155.347 Y91.035 E5.89312
G1 X155.319 Y90.769 E5.89846
G1 X155.281 Y90.314 E5.90757
G1 X155.276 Y90.231 E5.90923
G1 X155.259 Y89.767 E5.9185
G1 X155.256 Y89.562 E5.92259
G1 X155.256 Y89.293 E5.92796
G1 X155.259 Y89.038 E5.93305
G1 X155.265 Y88.779 E5.93822
G1 X155.278 Y88.441 E5.94497
G1 X155.334 Y85.896 E5.99577
G1 X155.318 Y83.289 E6.04779
G1 X155.313 Y83.063 E6.05231
G1 X155.309 Y82.715 E6.05925
G1 X155.309 Y82.472 E6.0641
G1 X155.313 Y82.147 E6.07059
G1 X155.334 Y81.601 E6.08149
G1 X155.369 Y81.16 E6.09032
G1 X155.394 Y80.908 E6.09537
G1 X155.501 Y80.135 E6.11095
G1 X155.54 Y79.915 E6.1154
G1 X155.612 Y79.542 E6.12298
G1 X155.739 Y79.005 E6.134
G1 X155.803 Y78.763 E6.13899
G1 X156.003 Y78.099 E6.15283
G1 X156.088 Y77.848 E6.15812
