;FLAVOR:Marlin
;TIME:307
;Filament used: 0.158523m
;Layer height: 0.2
;MINX:87.327
;MINY:99.932
;MINZ:0.2
;MAXX:132.031
;MAXY:135.718
;MAXZ:4
;Generated with Cura_SteamEngine 4.8.0
M140 S50
M105
M190 S50
M104 S200
M105
M109 S200
M82 ;absolute extrusion mode
; Ender 3 Custom Start G-code
G92 E0 ; Reset Extruder
G28 ; Home all axes
M420 S1  ; use saved bed leveling
G1 Z2.0 F3000 ; Move Z Axis up little to prevent scratching of Heat Bed
G1 X0.1 Y20 Z0.3 F5000.0 ; Move to start position
G1 X0.1 Y200.0 Z0.3 F1500.0 E15 ; Draw the first line
G1 X0.4 Y200.0 Z0.3 F5000.0 ; Move to side a little
G1 X0.4 Y20 Z0.3 F1500.0 E30 ; Draw the second line
G92 E0 ; Reset Extruder
G1 Z2.0 F3000 ; Move Z Axis up little to prevent scratching of Heat Bed
G1 X5 Y20 Z0.3 F5000.0 ; Move over to prevent blob squish
G92 E0
G92 E0
G1 F2700 E-5
;LAYER_COUNT:20
;LAYER:0
M107
G0 F6000 X92.345 Y103.572 Z0.2
;TYPE:SKIRT
G1 F2700 E0
G1 F1200 X92.57 Y103.379 E0.00986
G1 X93.202 Y102.876 E0.03672
G1 X93.385 Y102.741 E0.04429
G1 X94.163 Y102.217 E0.07549
G1 X94.982 Y101.761 E0.10666
G1 X95.838 Y101.377 E0.13787
G1 X96.723 Y101.066 E0.16907
G1 X97.631 Y100.833 E0.20025
G1 X98.556 Y100.677 E0.23145
G1 X99.491 Y100.601 E0.26265
G1 X100.057 Y100.594 E0.28147
G1 X100.76 Y100.603 E0.30486
G1 X103.161 Y100.605 E0.38472
G1 X104.507 Y100.589 E0.42949
G1 X107.091 Y100.521 E0.51546
G1 X109.629 Y100.384 E0.6
G1 X112.12 Y100.177 E0.68313
G1 X112.598 Y100.124 E0.69913
G1 X114.019 Y99.984 E0.74662
G1 X115.234 Y99.932 E0.78707
G1 X115.961 Y99.941 E0.81125
G1 X118.407 Y99.942 E0.89261
G1 X119.255 Y99.932 E0.92081
G1 X120.192 Y99.961 E0.95199
G1 X121.124 Y100.069 E0.9832
G1 X122.042 Y100.257 E1.01437
G1 X122.942 Y100.522 E1.04557
G1 X123.816 Y100.863 E1.07677
G1 X124.657 Y101.277 E1.10795
G1 X125.768 Y101.973 E1.15155
G1 X125.855 Y102.035 E1.15511
G1 X126.265 Y102.342 E1.17214
G1 X126.428 Y102.47 E1.17904
G1 X126.995 Y102.947 E1.20368
G1 X127.206 Y103.137 E1.21313
G1 X127.623 Y103.533 E1.23225
G1 X127.98 Y103.901 E1.24931
G1 X128.153 Y104.088 E1.25778
G1 X128.738 Y104.776 E1.28782
G1 X128.933 Y105.025 E1.29833
G1 X129.405 Y105.675 E1.32505
G1 X129.546 Y105.885 E1.33346
G1 X130.009 Y106.637 E1.36284
G1 X130.166 Y106.917 E1.37351
G1 X130.438 Y107.435 E1.39297
G1 X130.659 Y107.903 E1.41019
G1 X130.75 Y108.108 E1.41765
G1 X131.025 Y108.788 E1.44204
G1 X131.129 Y109.072 E1.4521
G1 X131.407 Y109.94 E1.48242
G1 X131.49 Y110.242 E1.49283
G1 X131.624 Y110.786 E1.51147
G1 X131.641 Y110.863 E1.51409
G1 X131.737 Y111.347 E1.5305
G1 X131.776 Y111.571 E1.53807
G1 X131.847 Y112.035 E1.55368
G1 X131.859 Y112.127 E1.55676
G1 X131.909 Y112.592 E1.57232
G1 X131.927 Y112.798 E1.5792
G1 X131.965 Y113.453 E1.60102
G1 X131.973 Y113.743 E1.61067
G1 X131.975 Y114.26 E1.62786
G1 X131.964 Y114.845 E1.64732
G1 X131.95 Y117.455 E1.73413
G1 X131.995 Y119.672 E1.80789
G1 X132.025 Y120.615 E1.83927
G1 X132.031 Y120.916 E1.84928
G1 X132.02 Y121.562 E1.87077
G1 X132.01 Y121.776 E1.87789
G1 X131.986 Y122.157 E1.89059
G1 X131.918 Y122.81 E1.91243
G1 X131.877 Y123.115 E1.92266
G1 X131.721 Y123.999 E1.95252
G1 X131.66 Y124.278 E1.96202
G1 X131.476 Y125 E1.9868
G1 X131.419 Y125.196 E1.99359
G1 X131.211 Y125.838 E2.01604
G1 X131.112 Y126.114 E2.02579
G1 X130.776 Y126.943 E2.05554
G1 X130.654 Y127.212 E2.06536
G1 X130.349 Y127.833 E2.08837
G1 X130.265 Y127.991 E2.09433
G1 X129.993 Y128.472 E2.1127
G1 X129.874 Y128.671 E2.12042
G1 X129.407 Y129.388 E2.14888
G1 X129.217 Y129.656 E2.1598
G1 X128.711 Y130.315 E2.18744
G1 X128.58 Y130.473 E2.19426
G1 X128.294 Y130.804 E2.20881
G1 X127.928 Y131.198 E2.2267
G1 X127.721 Y131.41 E2.23655
G1 X126.995 Y132.089 E2.26962
G1 X126.755 Y132.294 E2.28011
G1 X126.096 Y132.815 E2.30806
G1 X125.922 Y132.942 E2.31522
G1 X125.142 Y133.462 E2.3464
G1 X124.32 Y133.914 E2.3776
G1 X123.462 Y134.294 E2.40881
G1 X122.576 Y134.6 E2.43999
G1 X121.666 Y134.829 E2.4712
G1 X120.741 Y134.979 E2.50237
G1 X119.805 Y135.051 E2.53359
G1 X119.274 Y135.056 E2.55125
G1 X118.793 Y135.049 E2.56725
G1 X116.287 Y135.045 E2.6506
G1 X114.873 Y135.061 E2.69763
G1 X112.301 Y135.127 E2.78321
G1 X109.782 Y135.262 E2.86711
G1 X107.258 Y135.47 E2.95134
G1 X106.755 Y135.526 E2.96818
G1 X105.334 Y135.666 E3.01567
G1 X104.119 Y135.718 E3.05612
G1 X103.392 Y135.709 E3.0803
G1 X100.946 Y135.708 E3.16165
G1 X100.098 Y135.718 E3.18986
G1 X99.161 Y135.689 E3.22104
G1 X98.229 Y135.581 E3.25224
G1 X97.311 Y135.393 E3.28341
G1 X96.411 Y135.128 E3.31461
G1 X95.537 Y134.787 E3.34582
G1 X94.696 Y134.373 E3.377
G1 X93.893 Y133.888 E3.4082
G1 X93.311 Y133.475 E3.43193
G1 X93.069 Y133.291 E3.44204
G1 X92.594 Y132.909 E3.46232
G1 X92.198 Y132.559 E3.4799
G1 X92.008 Y132.383 E3.48851
G1 X91.475 Y131.854 E3.51349
G1 X91.265 Y131.631 E3.52367
G1 X90.891 Y131.214 E3.54231
G1 X90.468 Y130.688 E3.56476
G1 X90.273 Y130.43 E3.57551
G1 X89.828 Y129.797 E3.60125
G1 X89.705 Y129.608 E3.60875
G1 X89.468 Y129.228 E3.62364
G1 X89.159 Y128.682 E3.64451
G1 X89.026 Y128.431 E3.65396
G1 X88.659 Y127.67 E3.68206
G1 X88.535 Y127.385 E3.6924
G1 X88.202 Y126.522 E3.72316
G1 X88.113 Y126.259 E3.7324
G1 X87.89 Y125.513 E3.75829
G1 X87.826 Y125.268 E3.76672
G1 X87.715 Y124.802 E3.78265
G1 X87.61 Y124.271 E3.80065
G1 X87.571 Y124.043 E3.80835
G1 X87.501 Y123.569 E3.82428
G1 X87.446 Y123.076 E3.84078
G1 X87.427 Y122.863 E3.84789
G1 X87.393 Y122.371 E3.8643
G1 X87.379 Y121.859 E3.88133
G1 X87.378 Y121.642 E3.88855
G1 X87.385 Y121.168 E3.90432
G1 X87.409 Y118.499 E3.99309
G1 X87.35 Y115.657 E4.08764
G1 X87.327 Y114.975 E4.11033
G1 X87.334 Y114.087 E4.13987
G1 X87.356 Y113.66 E4.15409
G1 X87.361 Y113.584 E4.15662
G1 X87.435 Y112.84 E4.18149
G1 X87.476 Y112.535 E4.19173
G1 X87.619 Y111.71 E4.21957
G1 X87.665 Y111.494 E4.22692
G1 X87.836 Y110.802 E4.25063
G1 X87.918 Y110.511 E4.26068
G1 X88.188 Y109.681 E4.28971
G1 X88.29 Y109.405 E4.2995
G1 X88.634 Y108.58 E4.32923
G1 X88.747 Y108.337 E4.33814
G1 X88.933 Y107.956 E4.35225
G1 X88.993 Y107.839 E4.35662
G1 X89.3 Y107.281 E4.3778
G1 X89.41 Y107.094 E4.38502
G1 X89.616 Y106.756 E4.39818
G1 X89.958 Y106.246 E4.41861
G1 X90.142 Y105.987 E4.42917
G1 X90.678 Y105.292 E4.45836
G1 X90.854 Y105.082 E4.46748
G1 X91.421 Y104.457 E4.49554
G1 X91.643 Y104.23 E4.50611
G1 X92.345 Y103.572 E4.53811
G0 F6000 X92.606 Y103.875
G1 F1200 X92.831 Y103.682 E4.54797
G1 X93.439 Y103.198 E4.57381
G1 X93.622 Y103.063 E4.58138
G1 X94.386 Y102.549 E4.612
G1 X95.192 Y102.103 E4.64264
G1 X96.033 Y101.729 E4.67325
G1 X96.904 Y101.43 E4.70388
G1 X97.797 Y101.207 E4.7345
G1 X98.706 Y101.062 E4.76511
G1 X100.051 Y100.994 E4.80991
G1 X100.754 Y101.003 E4.83329
G1 X103.165 Y101.005 E4.91348
G1 X104.523 Y100.989 E4.95865
G1 X107.123 Y100.921 E5.04516
G1 X109.613 Y100.786 E5.12809
G1 X112.165 Y100.574 E5.21327
G1 X112.638 Y100.522 E5.22909
G1 X114.059 Y100.382 E5.27659
G1 X115.23 Y100.332 E5.31557
G1 X115.957 Y100.341 E5.33975
G1 X118.41 Y100.342 E5.42134
G1 X119.259 Y100.332 E5.44958
G1 X120.179 Y100.361 E5.48019
G1 X121.094 Y100.47 E5.51084
G1 X121.995 Y100.658 E5.54145
G1 X122.877 Y100.923 E5.57208
G1 X123.732 Y101.264 E5.6027
G1 X124.554 Y101.677 E5.6333
G1 X125.536 Y102.299 E5.67196
G1 X125.623 Y102.361 E5.67551
G1 X126.018 Y102.656 E5.69191
G1 X126.181 Y102.784 E5.6988
G1 X126.727 Y103.244 E5.72255
G1 X126.938 Y103.434 E5.73199
G1 X127.34 Y103.816 E5.75044
G1 X127.686 Y104.173 E5.76697
G1 X127.859 Y104.36 E5.77544
G1 X128.423 Y105.022 E5.80437
G1 X128.618 Y105.271 E5.81489
G1 X129.073 Y105.898 E5.84066
G1 X129.214 Y106.108 E5.84907
G1 X129.66 Y106.833 E5.87738
G1 X129.817 Y107.113 E5.88806
G1 X130.079 Y107.612 E5.9068
G1 X130.293 Y108.065 E5.92347
G1 X130.384 Y108.27 E5.93093
G1 X130.65 Y108.926 E5.95447
G1 X130.754 Y109.21 E5.96453
G1 X131.021 Y110.046 E5.99372
G1 X131.104 Y110.348 E6.00414
G1 X131.234 Y110.872 E6.02209
G1 X131.251 Y110.949 E6.02471
G1 X131.343 Y111.416 E6.04055
G1 X131.382 Y111.64 E6.04811
G1 X131.45 Y112.087 E6.06315
G1 X131.462 Y112.179 E6.06623
G1 X131.511 Y112.627 E6.08122
G1 X131.529 Y112.833 E6.0881
G1 X131.565 Y113.464 E6.10912
G1 X131.573 Y113.754 E6.11877
G1 X131.575 Y114.252 E6.13533
G1 X131.564 Y114.835 E6.15473
G1 X131.55 Y117.461 E6.24207
G1 X131.593 Y119.607 E6.31346
G1 X131.626 Y120.628 E6.34744
G1 X131.631 Y120.921 E6.35718
G1 X131.62 Y121.544 E6.37791
G1 X131.61 Y121.758 E6.38503
G1 X131.587 Y122.127 E6.39733
G1 X131.522 Y122.756 E6.41836
G1 X131.481 Y123.061 E6.4286
G1 X131.33 Y123.913 E6.45738
G1 X131.269 Y124.192 E6.46688
G1 X131.092 Y124.888 E6.49076
G1 X131.035 Y125.084 E6.49755
G1 X130.835 Y125.703 E6.51919
G1 X130.736 Y125.979 E6.52894
G1 X130.412 Y126.778 E6.55762
G1 X130.29 Y127.047 E6.56744
G1 X129.995 Y127.645 E6.58962
G1 X129.911 Y127.803 E6.59557
G1 X129.649 Y128.267 E6.61329
G1 X129.53 Y128.466 E6.621
G1 X129.08 Y129.157 E6.64843
G1 X128.89 Y129.425 E6.65936
G1 X128.403 Y130.06 E6.68597
G1 X128.272 Y130.218 E6.6928
G1 X127.995 Y130.539 E6.7069
G1 X127.642 Y130.918 E6.72413
G1 X127.435 Y131.13 E6.73398
G1 X126.736 Y131.785 E6.76584
G1 X126.496 Y131.99 E6.77634
G1 X125.86 Y132.492 E6.80329
G1 X125.686 Y132.619 E6.81046
G1 X124.92 Y133.129 E6.84106
G1 X124.112 Y133.57 E6.87168
G1 X123.269 Y133.94 E6.9023
G1 X122.397 Y134.235 E6.93292
G1 X121.502 Y134.454 E6.96356
G1 X120.592 Y134.594 E6.99419
G1 X119.28 Y134.656 E7.03787
G1 X118.8 Y134.649 E7.05384
G1 X116.283 Y134.645 E7.13755
G1 X114.93 Y134.661 E7.18256
G1 X112.27 Y134.728 E7.27106
G1 X109.727 Y134.865 E7.35576
G1 X107.247 Y135.069 E7.43853
G1 X106.715 Y135.128 E7.45633
G1 X105.294 Y135.268 E7.50382
G1 X104.123 Y135.318 E7.5428
G1 X103.396 Y135.309 E7.56699
G1 X100.943 Y135.308 E7.64857
G1 X100.094 Y135.318 E7.67681
G1 X99.174 Y135.289 E7.70743
G1 X98.259 Y135.18 E7.73808
G1 X97.358 Y134.992 E7.76869
G1 X96.476 Y134.727 E7.79932
G1 X95.621 Y134.386 E7.82993
G1 X94.799 Y133.973 E7.86053
G1 X94.015 Y133.489 E7.89118
G1 X93.553 Y133.157 E7.9101
G1 X93.311 Y132.973 E7.92021
G1 X92.853 Y132.604 E7.93977
G1 X92.47 Y132.265 E7.95678
G1 X92.28 Y132.089 E7.9654
G1 X91.766 Y131.58 E7.98946
G1 X91.556 Y131.357 E7.99965
G1 X91.195 Y130.953 E8.01767
G1 X90.787 Y130.446 E8.03931
G1 X90.592 Y130.188 E8.05007
G1 X90.164 Y129.579 E8.07482
G1 X90.041 Y129.39 E8.08232
G1 X89.811 Y129.021 E8.09679
G1 X89.513 Y128.495 E8.11689
G1 X89.38 Y128.244 E8.12634
G1 X89.026 Y127.51 E8.15345
G1 X88.902 Y127.225 E8.16378
G1 X88.581 Y126.394 E8.19341
G1 X88.492 Y126.131 E8.20265
G1 X88.277 Y125.412 E8.22761
G1 X88.213 Y125.167 E8.23603
G1 X88.105 Y124.715 E8.25149
G1 X88.005 Y124.203 E8.26884
G1 X87.966 Y123.975 E8.27653
G1 X87.897 Y123.515 E8.292
G1 X87.844 Y123.041 E8.30786
G1 X87.825 Y122.828 E8.31498
G1 X87.793 Y122.351 E8.33088
G1 X87.779 Y121.857 E8.34732
G1 X87.778 Y121.64 E8.35453
G1 X87.78 Y121.363 E8.36375
G1 X87.786 Y121.102 E8.37243
G1 X87.809 Y118.494 E8.45918
G1 X87.75 Y115.649 E8.55382
G1 X87.727 Y114.962 E8.57668
G1 X87.733 Y114.106 E8.60515
G1 X87.755 Y113.686 E8.61914
G1 X87.76 Y113.61 E8.62168
G1 X87.831 Y112.894 E8.64561
G1 X87.872 Y112.589 E8.65584
G1 X88.01 Y111.793 E8.68271
G1 X88.056 Y111.577 E8.69006
G1 X88.221 Y110.91 E8.71291
G1 X88.303 Y110.619 E8.72297
G1 X88.563 Y109.82 E8.75091
G1 X88.665 Y109.544 E8.7607
G1 X88.996 Y108.748 E8.78937
G1 X89.109 Y108.505 E8.79829
G1 X89.289 Y108.138 E8.81188
G1 X89.349 Y108.021 E8.81625
G1 X89.644 Y107.484 E8.83663
G1 X89.754 Y107.297 E8.84385
G1 X89.955 Y106.969 E8.85664
G1 X90.284 Y106.478 E8.8763
G1 X90.468 Y106.219 E8.88687
G1 X90.985 Y105.549 E8.91502
G1 X91.161 Y105.339 E8.92413
G1 X91.707 Y104.737 E8.95116
G1 X91.929 Y104.51 E8.96172
G1 X92.606 Y103.875 E8.99259
G0 F6000 X92.866 Y104.179
G1 F1200 X93.091 Y103.986 E9.00245
G1 X93.677 Y103.52 E9.02735
G1 X93.86 Y103.385 E9.03492
G1 X94.61 Y102.881 E9.06497
G1 X95.401 Y102.446 E9.095
G1 X96.228 Y102.083 E9.12504
G1 X97.083 Y101.794 E9.15505
G1 X97.961 Y101.582 E9.1851
G1 X98.854 Y101.448 E9.21513
G1 X100.046 Y101.394 E9.25482
G1 X100.748 Y101.403 E9.27817
G1 X103.17 Y101.405 E9.35872
G1 X104.467 Y101.39 E9.40186
G1 X107.154 Y101.319 E9.49127
G1 X109.669 Y101.183 E9.57504
G1 X112.206 Y100.972 E9.65971
G1 X112.677 Y100.92 E9.67547
G1 X114.098 Y100.78 E9.72296
G1 X115.225 Y100.732 E9.76048
G1 X115.952 Y100.741 E9.78466
G1 X118.415 Y100.742 E9.86658
G1 X119.264 Y100.732 E9.89482
G1 X120.167 Y100.761 E9.92487
G1 X121.063 Y100.87 E9.95489
G1 X121.946 Y101.058 E9.98492
G1 X122.81 Y101.323 E10.01498
G1 X123.646 Y101.664 E10.04501
G1 X124.449 Y102.077 E10.07504
G1 X125.304 Y102.624 E10.1088
G1 X125.391 Y102.686 E10.11235
G1 X125.771 Y102.971 E10.12815
G1 X125.934 Y103.099 E10.13504
G1 X126.459 Y103.541 E10.15787
G1 X126.67 Y103.731 E10.16731
G1 X127.057 Y104.099 E10.18508
G1 X127.392 Y104.444 E10.20107
G1 X127.565 Y104.631 E10.20954
G1 X128.109 Y105.269 E10.23743
G1 X128.304 Y105.518 E10.24795
G1 X128.741 Y106.121 E10.27272
G1 X128.882 Y106.331 E10.28113
G1 X129.311 Y107.028 E10.30835
G1 X129.468 Y107.308 E10.31903
G1 X129.721 Y107.789 E10.3371
G1 X129.928 Y108.228 E10.35325
G1 X130.019 Y108.433 E10.36071
G1 X130.274 Y109.064 E10.38334
G1 X130.378 Y109.348 E10.3934
G1 X130.635 Y110.152 E10.42148
G1 X130.718 Y110.454 E10.43189
G1 X130.843 Y110.958 E10.44917
G1 X130.86 Y111.035 E10.45179
G1 X130.949 Y111.484 E10.46701
G1 X130.988 Y111.708 E10.47457
G1 X131.053 Y112.139 E10.48907
G1 X131.065 Y112.231 E10.49216
G1 X131.112 Y112.662 E10.50658
G1 X131.13 Y112.868 E10.51346
G1 X131.165 Y113.475 E10.53368
G1 X131.173 Y113.765 E10.54333
G1 X131.175 Y114.244 E10.55926
G1 X131.164 Y114.825 E10.57859
G1 X131.15 Y117.467 E10.66646
G1 X131.194 Y119.629 E10.73838
G1 X131.226 Y120.641 E10.77206
G1 X131.231 Y120.926 E10.78154
G1 X131.221 Y121.525 E10.80147
G1 X131.211 Y121.739 E10.80859
G1 X131.188 Y122.097 E10.82052
G1 X131.125 Y122.703 E10.84079
G1 X131.084 Y123.008 E10.85102
G1 X130.94 Y123.828 E10.87871
G1 X130.879 Y124.107 E10.88821
G1 X130.708 Y124.776 E10.91118
G1 X130.651 Y124.972 E10.91797
G1 X130.458 Y125.568 E10.9388
G1 X130.359 Y125.844 E10.94856
G1 X130.047 Y126.613 E10.97616
G1 X129.925 Y126.882 E10.98598
G1 X129.642 Y127.457 E11.0073
G1 X129.558 Y127.615 E11.01325
G1 X129.306 Y128.062 E11.03032
G1 X129.187 Y128.261 E11.03803
G1 X128.754 Y128.925 E11.0644
G1 X128.564 Y129.193 E11.07532
G1 X128.095 Y129.804 E11.10094
G1 X127.964 Y129.962 E11.10777
G1 X127.695 Y130.274 E11.12147
G1 X127.356 Y130.639 E11.13804
G1 X127.149 Y130.851 E11.14789
G1 X126.476 Y131.481 E11.17855
G1 X126.236 Y131.686 E11.18905
G1 X125.624 Y132.169 E11.21498
G1 X125.45 Y132.296 E11.22215
G1 X124.698 Y132.795 E11.25216
G1 X123.905 Y133.227 E11.2822
G1 X123.076 Y133.586 E11.31225
G1 X122.219 Y133.87 E11.34227
G1 X121.34 Y134.078 E11.37232
G1 X120.446 Y134.207 E11.40236
G1 X119.286 Y134.256 E11.44098
G1 X118.807 Y134.249 E11.45691
G1 X116.279 Y134.245 E11.54099
G1 X114.915 Y134.261 E11.58636
G1 X112.237 Y134.329 E11.67546
G1 X109.746 Y134.463 E11.75843
G1 X107.17 Y134.675 E11.8444
G1 X106.676 Y134.73 E11.86093
G1 X105.255 Y134.87 E11.90842
G1 X104.128 Y134.918 E11.94594
G1 X103.401 Y134.909 E11.97012
G1 X100.938 Y134.908 E12.05204
G1 X100.089 Y134.918 E12.08028
G1 X99.186 Y134.889 E12.11033
G1 X98.29 Y134.78 E12.14035
G1 X97.407 Y134.592 E12.17038
G1 X96.543 Y134.327 E12.20044
G1 X95.707 Y133.986 E12.23047
G1 X94.904 Y133.573 E12.2605
G1 X93.795 Y132.839 E12.30473
G1 X93.553 Y132.655 E12.31484
G1 X93.113 Y132.3 E12.33365
G1 X92.741 Y131.972 E12.35014
G1 X92.551 Y131.796 E12.35876
G1 X92.057 Y131.306 E12.3819
G1 X91.847 Y131.083 E12.39209
G1 X91.499 Y130.693 E12.40947
G1 X91.106 Y130.205 E12.43031
G1 X90.911 Y129.947 E12.44107
G1 X90.499 Y129.361 E12.46489
G1 X90.376 Y129.172 E12.47239
G1 X90.153 Y128.814 E12.48642
G1 X89.866 Y128.308 E12.50577
G1 X89.733 Y128.057 E12.51522
G1 X89.393 Y127.35 E12.54131
G1 X89.269 Y127.065 E12.55165
G1 X88.96 Y126.266 E12.58014
G1 X88.871 Y126.003 E12.58938
G1 X88.664 Y125.311 E12.6134
G1 X88.6 Y125.066 E12.62182
G1 X88.496 Y124.629 E12.63676
G1 X88.399 Y124.136 E12.65347
G1 X88.36 Y123.908 E12.66117
G1 X88.293 Y123.462 E12.67617
G1 X88.242 Y123.005 E12.69146
G1 X88.223 Y122.792 E12.69858
G1 X88.192 Y122.33 E12.71398
G1 X88.179 Y121.855 E12.72978
