;FLAVOR:Marlin
;TIME:947
;Filament used: 0.20294m
;Layer height: 0.12
;MINX:46.446
;MINY:68.378
;MINZ:0.12
;MAXX:183.987
;MAXY:193.952
;MAXZ:7.5
;Generated with Cura_SteamEngine 4.8.0
M140 S50
M105
M190 S50
M104 S200
M105
M109 S200
M82 ;absolute extrusion mode
; Ender 3 Custom Start G-code
G92 E0 ; Reset Extruder
G28 ; Home all axes
M420 S1  ; use saved bed leveling
G1 Z2.0 F3000 ; Move Z Axis up little to prevent scratching of Heat Bed
G1 X0.1 Y20 Z0.3 F5000.0 ; Move to start position
G1 X0.1 Y200.0 Z0.3 F1500.0 E15 ; Draw the first line
G1 X0.4 Y200.0 Z0.3 F5000.0 ; Move to side a little
G1 X0.4 Y20 Z0.3 F1500.0 E30 ; Draw the second line
G92 E0 ; Reset Extruder
G1 Z2.0 F3000 ; Move Z Axis up little to prevent scratching of Heat Bed
G1 X5 Y20 Z0.3 F5000.0 ; Move over to prevent blob squish
G92 E0
G92 E0
G1 F2700 E-5
;LAYER_COUNT:20
;LAYER:0
M107
G0 F6000 X56.533 Y158.945 Z0.12
;TYPE:SKIRT
G1 F2700 E0
G1 F1200 X57.419 Y158.637 E0.01872
G1 X58.328 Y158.406 E0.03744
G1 X59.253 Y158.253 E0.05615
G1 X60.607 Y158.173 E0.08321
G1 X61.625 Y158.177 E0.10353
G1 X62.471 Y158.191 E0.12041
G1 X63.917 Y158.184 E0.14927
G1 X64.743 Y158.174 E0.16576
G1 X65.68 Y158.202 E0.18446
G1 X66.612 Y158.311 E0.20319
G1 X67.531 Y158.498 E0.2219
G1 X68.431 Y158.763 E0.24063
G1 X69.305 Y159.103 E0.25934
G1 X70.146 Y159.517 E0.27805
G1 X71.258 Y160.213 E0.30423
G1 X71.324 Y160.26 E0.30584
G1 X71.741 Y160.572 E0.31624
G1 X71.928 Y160.719 E0.32098
G1 X72.523 Y161.222 E0.33653
G1 X72.718 Y161.399 E0.34179
G1 X73.25 Y161.915 E0.35658
G1 X73.456 Y162.129 E0.36251
G1 X73.917 Y162.64 E0.37624
G1 X73.99 Y162.726 E0.37849
G1 X74.272 Y163.072 E0.3874
G1 X74.397 Y163.232 E0.39145
G1 X74.773 Y163.743 E0.40411
G1 X74.926 Y163.964 E0.40948
G1 X75.235 Y164.435 E0.42072
G1 X75.3 Y164.54 E0.42318
G1 X75.57 Y165.001 E0.43384
G1 X75.673 Y165.187 E0.43809
G1 X75.897 Y165.612 E0.44767
G1 X76.113 Y166.065 E0.45769
G1 X76.205 Y166.269 E0.46215
G1 X76.355 Y166.615 E0.46968
G1 X76.584 Y167.21 E0.4824
G1 X76.677 Y167.474 E0.48799
G1 X76.916 Y168.239 E0.50398
G1 X76.971 Y168.441 E0.50816
G1 X77.137 Y169.141 E0.52252
G1 X77.202 Y169.461 E0.52903
G1 X77.296 Y169.988 E0.53972
G1 X77.309 Y170.073 E0.54143
G1 X77.379 Y170.627 E0.55258
G1 X77.402 Y170.854 E0.55713
G1 X77.439 Y171.317 E0.5664
G1 X77.461 Y171.847 E0.57698
G1 X77.466 Y172.133 E0.58269
G1 X77.461 Y172.728 E0.59457
G1 X77.442 Y173.246 E0.60491
G1 X77.387 Y175.74 E0.65469
G1 X77.404 Y178.352 E0.70682
G1 X77.413 Y179.024 E0.72023
G1 X77.413 Y179.281 E0.72536
G1 X77.41 Y179.517 E0.73007
G1 X77.4 Y179.865 E0.73702
G1 X77.353 Y180.556 E0.75084
G1 X77.321 Y180.875 E0.75724
G1 X77.22 Y181.621 E0.77226
G1 X77.186 Y181.821 E0.77631
G1 X77.014 Y182.645 E0.79311
G1 X76.939 Y182.945 E0.79928
G1 X76.817 Y183.391 E0.80851
G1 X76.649 Y183.924 E0.81966
G1 X76.582 Y184.119 E0.82377
G1 X76.421 Y184.559 E0.83312
G1 X76.229 Y185.025 E0.84318
G1 X76.142 Y185.224 E0.84752
G1 X75.864 Y185.811 E0.86048
G1 X75.729 Y186.076 E0.86641
G1 X75.402 Y186.673 E0.88
G1 X75.343 Y186.773 E0.88231
G1 X75.129 Y187.12 E0.89045
G1 X75.02 Y187.29 E0.89448
G1 X74.529 Y187.994 E0.91161
G1 X74.348 Y188.233 E0.91759
G1 X73.909 Y188.776 E0.93152
G1 X73.721 Y188.994 E0.93727
G1 X73.025 Y189.73 E0.95748
G1 X72.803 Y189.944 E0.96364
G1 X72.227 Y190.461 E0.97908
G1 X72.025 Y190.63 E0.98434
G1 X71.469 Y191.065 E0.99843
G1 X71.323 Y191.172 E1.00204
G1 X70.544 Y191.694 E1.02075
G1 X69.723 Y192.147 E1.03947
G1 X68.866 Y192.529 E1.05819
G1 X67.98 Y192.837 E1.07691
G1 X67.071 Y193.067 E1.09562
G1 X66.146 Y193.22 E1.11433
G1 X64.795 Y193.3 E1.14134
G1 X63.777 Y193.296 E1.16165
G1 X62.931 Y193.282 E1.17854
G1 X61.485 Y193.289 E1.2074
G1 X60.664 Y193.299 E1.22378
G1 X59.726 Y193.271 E1.24251
G1 X58.795 Y193.162 E1.26121
G1 X57.876 Y192.975 E1.27993
G1 X56.976 Y192.71 E1.29865
G1 X56.102 Y192.37 E1.31737
G1 X55.26 Y191.956 E1.33609
G1 X54.457 Y191.472 E1.3548
G1 X53.916 Y191.09 E1.36802
G1 X53.698 Y190.926 E1.37346
G1 X53.033 Y190.384 E1.39058
G1 X52.812 Y190.189 E1.39646
G1 X52.399 Y189.805 E1.40772
G1 X52.308 Y189.716 E1.41026
G1 X51.933 Y189.331 E1.42098
G1 X51.78 Y189.166 E1.42547
G1 X51.238 Y188.536 E1.44206
G1 X51.055 Y188.306 E1.44793
G1 X50.57 Y187.647 E1.46425
G1 X50.408 Y187.409 E1.47
G1 X50.09 Y186.915 E1.48172
G1 X50.044 Y186.839 E1.4835
G1 X49.828 Y186.465 E1.49212
G1 X49.718 Y186.266 E1.49665
G1 X49.477 Y185.805 E1.50703
G1 X49.281 Y185.392 E1.51616
G1 X49.184 Y185.176 E1.52088
G1 X48.896 Y184.469 E1.53612
G1 X48.797 Y184.2 E1.54184
G1 X48.662 Y183.811 E1.55005
G1 X48.632 Y183.719 E1.55198
G1 X48.447 Y183.09 E1.56507
G1 X48.372 Y182.803 E1.57099
G1 X48.166 Y181.837 E1.5907
G1 X48.118 Y181.55 E1.59651
G1 X48.016 Y180.776 E1.61209
G1 X47.987 Y180.471 E1.6182
G1 X47.939 Y179.586 E1.63589
G1 X47.935 Y179.304 E1.64152
G1 X47.941 Y178.745 E1.65267
G1 X47.96 Y178.227 E1.66302
G1 X48.015 Y175.733 E1.7128
G1 X47.998 Y173.121 E1.76492
G1 X47.989 Y172.449 E1.77834
G1 X47.989 Y172.197 E1.78337
G1 X47.992 Y171.952 E1.78826
G1 X48.004 Y171.557 E1.79614
G1 X48.047 Y170.938 E1.80852
G1 X48.077 Y170.633 E1.81464
G1 X48.193 Y169.79 E1.83162
G1 X48.232 Y169.57 E1.83608
G1 X48.309 Y169.173 E1.84415
G1 X48.449 Y168.579 E1.85633
G1 X48.519 Y168.315 E1.86178
G1 X48.791 Y167.439 E1.88008
G1 X48.893 Y167.153 E1.88614
G1 X49.178 Y166.434 E1.90158
G1 X49.27 Y166.224 E1.90615
G1 X49.462 Y165.809 E1.91528
G1 X49.701 Y165.34 E1.92578
G1 X49.796 Y165.164 E1.92977
G1 X50.008 Y164.79 E1.93835
G1 X50.261 Y164.374 E1.94807
G1 X50.376 Y164.194 E1.95233
G1 X50.626 Y163.82 E1.96131
G1 X50.965 Y163.354 E1.97281
G1 X51.117 Y163.156 E1.97779
G1 X51.671 Y162.489 E1.9951
G1 X51.863 Y162.276 E2.00082
G1 X52.064 Y162.06 E2.00671
G1 X52.498 Y161.624 E2.01898
G1 X52.672 Y161.459 E2.02377
G1 X53.244 Y160.953 E2.03901
G1 X53.449 Y160.784 E2.04431
G1 X53.941 Y160.402 E2.05674
G1 X54.076 Y160.303 E2.06008
G1 X54.855 Y159.781 E2.07879
G1 X55.676 Y159.327 E2.09752
G1 X56.533 Y158.945 E2.11624
G0 F6000 X56.727 Y159.298
G1 F1200 X57.598 Y159.001 E2.13461
G1 X58.492 Y158.781 E2.15298
G1 X59.402 Y158.639 E2.17136
G1 X60.606 Y158.573 E2.19542
G1 X61.619 Y158.577 E2.21564
G1 X62.466 Y158.592 E2.23254
G1 X63.919 Y158.584 E2.26154
G1 X64.748 Y158.574 E2.27808
G1 X65.668 Y158.603 E2.29645
G1 X66.582 Y158.711 E2.31482
G1 X67.484 Y158.899 E2.33321
G1 X68.365 Y159.163 E2.35156
G1 X69.221 Y159.504 E2.36995
G1 X70.043 Y159.917 E2.38831
G1 X71.026 Y160.539 E2.41152
G1 X71.092 Y160.586 E2.41314
G1 X71.494 Y160.887 E2.42316
G1 X71.681 Y161.034 E2.42791
G1 X72.254 Y161.518 E2.44287
G1 X72.449 Y161.695 E2.44813
G1 X72.962 Y162.193 E2.4624
G1 X73.168 Y162.407 E2.46833
G1 X73.612 Y162.898 E2.48154
G1 X73.685 Y162.984 E2.48379
G1 X73.957 Y163.318 E2.49238
G1 X74.082 Y163.478 E2.49644
G1 X74.444 Y163.97 E2.50862
G1 X74.597 Y164.191 E2.51399
G1 X74.895 Y164.646 E2.52484
G1 X74.96 Y164.751 E2.52731
G1 X75.22 Y165.195 E2.53758
G1 X75.323 Y165.381 E2.54182
G1 X75.54 Y165.793 E2.55111
G1 X75.749 Y166.229 E2.56076
G1 X75.841 Y166.433 E2.56523
G1 X75.986 Y166.769 E2.57253
G1 X76.207 Y167.343 E2.5848
G1 X76.3 Y167.607 E2.59039
G1 X76.53 Y168.344 E2.6058
G1 X76.585 Y168.546 E2.60997
G1 X76.745 Y169.221 E2.62382
G1 X76.81 Y169.541 E2.63033
G1 X76.9 Y170.048 E2.64061
G1 X76.913 Y170.133 E2.64233
G1 X76.981 Y170.667 E2.65307
G1 X77.004 Y170.894 E2.65762
G1 X77.04 Y171.343 E2.66661
G1 X77.061 Y171.854 E2.67682
G1 X77.066 Y172.14 E2.68253
G1 X77.061 Y172.714 E2.69398
G1 X77.044 Y173.191 E2.70351
G1 X76.987 Y175.734 E2.75427
G1 X77.003 Y178.301 E2.80549
G1 X77.008 Y178.559 E2.81064
G1 X77.013 Y179.028 E2.82
G1 X77.01 Y179.512 E2.82966
G1 X77.001 Y179.85 E2.83641
G1 X76.955 Y180.516 E2.84973
G1 X76.923 Y180.835 E2.85613
G1 X76.826 Y181.554 E2.87061
G1 X76.792 Y181.754 E2.87466
G1 X76.626 Y182.548 E2.89085
G1 X76.551 Y182.848 E2.89702
G1 X76.433 Y183.28 E2.90595
G1 X76.271 Y183.794 E2.91671
G1 X76.204 Y183.989 E2.92082
G1 X76.048 Y184.413 E2.92984
G1 X75.862 Y184.865 E2.93959
G1 X75.775 Y185.064 E2.94393
G1 X75.508 Y185.63 E2.95642
G1 X75.373 Y185.895 E2.96235
G1 X75.057 Y186.469 E2.97543
G1 X74.998 Y186.569 E2.97774
G1 X74.792 Y186.904 E2.98559
G1 X74.683 Y187.074 E2.98962
G1 X74.21 Y187.753 E3.00614
G1 X74.029 Y187.992 E3.01212
G1 X73.606 Y188.515 E3.02554
G1 X73.418 Y188.733 E3.03129
G1 X72.748 Y189.442 E3.05075
G1 X72.526 Y189.656 E3.05691
G1 X71.971 Y190.154 E3.07179
G1 X71.769 Y190.323 E3.07704
G1 X71.233 Y190.743 E3.09063
G1 X71.087 Y190.85 E3.09425
G1 X70.321 Y191.361 E3.11262
G1 X69.514 Y191.804 E3.13099
G1 X68.672 Y192.176 E3.14936
G1 X67.801 Y192.473 E3.16773
G1 X66.907 Y192.693 E3.1861
G1 X65.997 Y192.835 E3.20448
G1 X64.796 Y192.9 E3.22848
G1 X63.783 Y192.896 E3.2487
G1 X62.936 Y192.881 E3.2656
G1 X61.483 Y192.889 E3.2946
G1 X60.659 Y192.899 E3.31104
G1 X59.738 Y192.87 E3.32943
G1 X58.824 Y192.762 E3.3478
G1 X57.923 Y192.575 E3.36616
G1 X57.041 Y192.31 E3.38454
G1 X56.186 Y191.969 E3.40291
G1 X55.363 Y191.556 E3.42129
G1 X54.579 Y191.073 E3.43966
G1 X54.157 Y190.771 E3.45002
G1 X53.939 Y190.607 E3.45546
G1 X53.298 Y190.084 E3.47197
G1 X53.077 Y189.889 E3.47786
G1 X52.678 Y189.519 E3.48871
G1 X52.587 Y189.43 E3.49125
G1 X52.226 Y189.059 E3.50158
G1 X52.073 Y188.894 E3.50608
G1 X51.551 Y188.287 E3.52205
G1 X51.368 Y188.057 E3.52792
G1 X50.9 Y187.422 E3.54366
G1 X50.738 Y187.184 E3.5494
G1 X50.433 Y186.708 E3.56069
G1 X50.387 Y186.632 E3.56246
G1 X50.178 Y186.271 E3.57078
G1 X50.068 Y186.072 E3.57532
G1 X49.835 Y185.626 E3.58536
G1 X49.646 Y185.228 E3.59416
G1 X49.549 Y185.012 E3.59888
G1 X49.271 Y184.331 E3.61356
G1 X49.172 Y184.062 E3.61928
G1 X49.042 Y183.687 E3.6272
G1 X49.012 Y183.595 E3.62913
G1 X48.834 Y182.989 E3.64174
G1 X48.759 Y182.702 E3.64766
G1 X48.56 Y181.771 E3.66665
G1 X48.512 Y181.484 E3.67246
G1 X48.415 Y180.738 E3.68747
G1 X48.386 Y180.433 E3.69359
G1 X48.339 Y179.58 E3.71064
G1 X48.335 Y179.298 E3.71626
G1 X48.341 Y178.759 E3.72702
G1 X48.358 Y178.282 E3.73655
G1 X48.415 Y175.739 E3.78731
G1 X48.399 Y173.172 E3.83854
G1 X48.394 Y172.914 E3.84369
G1 X48.389 Y172.445 E3.85305
G1 X48.392 Y171.957 E3.86278
G1 X48.403 Y171.574 E3.87043
G1 X48.445 Y170.977 E3.88237
G1 X48.475 Y170.672 E3.88849
G1 X48.587 Y169.86 E3.90485
G1 X48.626 Y169.64 E3.90931
G1 X48.701 Y169.254 E3.91715
G1 X48.836 Y168.681 E3.9289
G1 X48.906 Y168.417 E3.93435
G1 X49.168 Y167.573 E3.95199
G1 X49.27 Y167.287 E3.95805
G1 X49.545 Y166.594 E3.97293
G1 X49.637 Y166.384 E3.9775
G1 X49.823 Y165.982 E3.98634
G1 X50.053 Y165.53 E3.99646
G1 X50.148 Y165.354 E4.00045
G1 X50.352 Y164.993 E4.00873
G1 X50.598 Y164.589 E4.01817
G1 X50.713 Y164.409 E4.02243
G1 X50.955 Y164.047 E4.03112
G1 X51.282 Y163.597 E4.04222
G1 X51.434 Y163.399 E4.0472
G1 X51.969 Y162.757 E4.06388
G1 X52.322 Y162.369 E4.07435
G1 X52.773 Y161.914 E4.08713
G1 X52.947 Y161.749 E4.09192
G1 X53.498 Y161.262 E4.10659
G1 X53.703 Y161.093 E4.11189
G1 X54.178 Y160.724 E4.1239
G1 X54.313 Y160.625 E4.12724
G1 X55.078 Y160.113 E4.14561
G1 X55.885 Y159.67 E4.16398
G1 X56.727 Y159.298 E4.18235
G0 F6000 X56.921 Y159.652
G1 F1200 X57.777 Y159.366 E4.20036
G1 X58.656 Y159.156 E4.21839
G1 X59.549 Y159.025 E4.23641
G1 X60.605 Y158.973 E4.25751
G1 X61.612 Y158.976 E4.2776
G1 X62.506 Y158.991 E4.29544
G1 X63.921 Y158.984 E4.32368
G1 X64.753 Y158.974 E4.34029
G1 X65.655 Y159.003 E4.3583
G1 X66.552 Y159.111 E4.37633
G1 X67.435 Y159.299 E4.39434
G1 X68.299 Y159.564 E4.41238
G1 X69.135 Y159.904 E4.43039
G1 X69.938 Y160.317 E4.44841
G1 X70.794 Y160.864 E4.46868
G1 X70.86 Y160.911 E4.4703
G1 X71.247 Y161.201 E4.47995
G1 X71.434 Y161.348 E4.48469
G1 X71.985 Y161.814 E4.4991
G1 X72.18 Y161.991 E4.50435
G1 X72.674 Y162.47 E4.51808
G1 X72.88 Y162.684 E4.52401
G1 X73.307 Y163.157 E4.53673
G1 X73.38 Y163.243 E4.53898
G1 X73.642 Y163.564 E4.54725
G1 X73.767 Y163.724 E4.5513
G1 X74.115 Y164.198 E4.56303
G1 X74.268 Y164.419 E4.5684
G1 X74.555 Y164.856 E4.57883
G1 X74.62 Y164.961 E4.5813
G1 X74.87 Y165.389 E4.59119
G1 X74.973 Y165.575 E4.59543
G1 X75.183 Y165.974 E4.60443
G1 X75.384 Y166.394 E4.61372
G1 X75.476 Y166.598 E4.61819
G1 X75.617 Y166.924 E4.62527
G1 X75.83 Y167.476 E4.63708
G1 X75.923 Y167.74 E4.64267
G1 X76.144 Y168.449 E4.65749
G1 X76.199 Y168.651 E4.66167
G1 X76.353 Y169.301 E4.675
G1 X76.418 Y169.621 E4.68151
G1 X76.505 Y170.109 E4.6914
G1 X76.518 Y170.194 E4.69312
G1 X76.583 Y170.708 E4.70346
G1 X76.606 Y170.935 E4.70801
G1 X76.641 Y171.369 E4.7167
G1 X76.661 Y171.861 E4.72653
G1 X76.666 Y172.147 E4.73224
G1 X76.661 Y172.699 E4.74325
G1 X76.644 Y173.167 E4.7526
G1 X76.587 Y175.727 E4.8037
G1 X76.603 Y178.315 E4.85535
G1 X76.608 Y178.563 E4.8603
G1 X76.613 Y179.032 E4.86966
G1 X76.61 Y179.507 E4.87914
G1 X76.601 Y179.836 E4.8857
G1 X76.557 Y180.476 E4.89851
G1 X76.525 Y180.795 E4.9049
G1 X76.432 Y181.486 E4.91882
G1 X76.398 Y181.686 E4.92287
G1 X76.237 Y182.451 E4.93847
G1 X76.162 Y182.751 E4.94464
G1 X76.048 Y183.17 E4.9533
G1 X75.892 Y183.664 E4.96364
G1 X75.825 Y183.859 E4.96776
G1 X75.676 Y184.267 E4.97642
G1 X75.496 Y184.705 E4.98587
G1 X75.409 Y184.904 E4.99021
G1 X75.152 Y185.448 E5.00222
G1 X75.017 Y185.713 E5.00815
G1 X74.713 Y186.266 E5.02074
G1 X74.654 Y186.366 E5.02306
G1 X74.456 Y186.689 E5.03062
G1 X74.347 Y186.859 E5.03465
G1 X73.891 Y187.511 E5.05053
G1 X73.71 Y187.75 E5.05651
G1 X73.303 Y188.253 E5.06942
G1 X73.115 Y188.471 E5.07517
G1 X72.47 Y189.154 E5.09392
G1 X72.248 Y189.368 E5.10007
G1 X71.714 Y189.847 E5.11439
G1 X71.512 Y190.016 E5.11964
G1 X70.996 Y190.42 E5.13272
G1 X70.85 Y190.527 E5.13633
G1 X70.099 Y191.028 E5.15435
G1 X69.306 Y191.461 E5.17238
G1 X68.479 Y191.822 E5.19039
G1 X67.622 Y192.108 E5.20841
G1 X66.743 Y192.317 E5.22645
G1 X65.85 Y192.448 E5.24446
G1 X64.797 Y192.5 E5.2655
G1 X63.79 Y192.497 E5.28559
G1 X62.896 Y192.482 E5.30344
G1 X61.481 Y192.489 E5.33167
G1 X60.654 Y192.499 E5.34818
G1 X59.751 Y192.47 E5.36621
G1 X58.855 Y192.362 E5.38422
G1 X57.971 Y192.174 E5.40225
G1 X57.108 Y191.909 E5.42027
G1 X56.271 Y191.569 E5.4383
G1 X55.468 Y191.156 E5.45632
G1 X54.397 Y190.451 E5.48191
G1 X54.179 Y190.287 E5.48735
G1 X53.562 Y189.784 E5.50324
G1 X53.341 Y189.589 E5.50912
G1 X52.958 Y189.233 E5.51955
G1 X52.867 Y189.144 E5.52209
G1 X52.52 Y188.787 E5.53203
G1 X52.367 Y188.622 E5.53652
G1 X51.864 Y188.038 E5.5519
G1 X51.681 Y187.808 E5.55777
G1 X51.231 Y187.196 E5.57292
G1 X51.069 Y186.958 E5.57867
G1 X50.775 Y186.501 E5.58951
G1 X50.528 Y186.078 E5.59929
G1 X50.418 Y185.879 E5.60383
G1 X50.193 Y185.448 E5.61353
G1 X50.011 Y185.065 E5.62199
G1 X49.914 Y184.849 E5.62672
G1 X49.647 Y184.193 E5.64085
G1 X49.548 Y183.924 E5.64657
G1 X49.393 Y183.471 E5.65613
G1 X49.221 Y182.888 E5.66826
G1 X49.146 Y182.601 E5.67418
G1 X48.955 Y181.705 E5.69246
G1 X48.907 Y181.418 E5.69827
G1 X48.813 Y180.7 E5.71272
G1 X48.784 Y180.395 E5.71883
G1 X48.739 Y179.575 E5.73522
G1 X48.735 Y179.293 E5.74085
G1 X48.741 Y178.774 E5.7512
G1 X48.758 Y178.306 E5.76055
G1 X48.815 Y175.746 E5.81165
G1 X48.799 Y173.158 E5.8633
G1 X48.794 Y172.91 E5.86825
G1 X48.789 Y172.441 E5.87761
G1 X48.792 Y171.962 E5.88717
G1 X48.803 Y171.59 E5.89459
G1 X48.843 Y171.017 E5.90606
G1 X48.873 Y170.712 E5.91217
G1 X48.981 Y169.93 E5.92793
G1 X49.02 Y169.71 E5.93239
G1 X49.093 Y169.335 E5.94001
G1 X49.223 Y168.784 E5.95131
G1 X49.293 Y168.52 E5.95676
G1 X49.545 Y167.708 E5.97372
G1 X49.647 Y167.422 E5.97978
G1 X49.911 Y166.755 E5.9941
G1 X50.003 Y166.545 E5.99867
G1 X50.183 Y166.155 E6.00725
G1 X50.405 Y165.72 E6.01699
G1 X50.5 Y165.544 E6.02098
G1 X50.696 Y165.197 E6.02894
G1 X50.935 Y164.804 E6.03812
G1 X51.05 Y164.624 E6.04238
G1 X51.285 Y164.273 E6.05081
G1 X51.599 Y163.841 E6.06147
G1 X51.751 Y163.643 E6.06645
G1 X52.266 Y163.025 E6.0825
G1 X52.458 Y162.812 E6.08822
G1 X52.646 Y162.609 E6.09374
G1 X53.048 Y162.205 E6.10512
G1 X53.222 Y162.04 E6.1099
G1 X53.753 Y161.571 E6.12404
G1 X53.958 Y161.402 E6.12934
G1 X54.414 Y161.047 E6.14088
G1 X54.549 Y160.948 E6.14422
G1 X55.3 Y160.446 E6.16224
G1 X56.093 Y160.013 E6.18027
G1 X56.921 Y159.652 E6.1983
G1 F2700 E1.1983
;MESH:4928352c-b6a6-47d4-8fff-d37eb11e71dc.stl(5)
G0 F6000 X59.811 Y168.923
G0 X60.502 Y169.758
G0 X60.069 Y171.831
G0 X60.073 Y172.668
