;FLAVOR:Marlin
;TIME:612
;Filament used: 0.188355m
;Layer height: 0.12
;MINX:146.69
;MINY:66.82
;MINZ:0.12
;MAXX:202.178
;MAXY:117.354
;MAXZ:2.4
;Generated with Cura_SteamEngine 4.8.0
M140 S50
M105
M190 S50
M104 S200
M105
M109 S200
M82 ;absolute extrusion mode
; Ender 3 Custom Start G-code
G92 E0 ; Reset Extruder
G28 ; Home all axes
M420 S1  ; use saved bed leveling
G1 Z2.0 F3000 ; Move Z Axis up little to prevent scratching of Heat Bed
G1 X0.1 Y20 Z0.3 F5000.0 ; Move to start position
G1 X0.1 Y200.0 Z0.3 F1500.0 E15 ; Draw the first line
G1 X0.4 Y200.0 Z0.3 F5000.0 ; Move to side a little
G1 X0.4 Y20 Z0.3 F1500.0 E30 ; Draw the second line
G92 E0 ; Reset Extruder
G1 Z2.0 F3000 ; Move Z Axis up little to prevent scratching of Heat Bed
G1 X5 Y20 Z0.3 F5000.0 ; Move over to prevent blob squish
G92 E0
G92 E0
G1 F2700 E-5
;LAYER_COUNT:20
;LAYER:0
M107
G0 F6000 X148.813 Y88.758 Z0.12
;TYPE:SKIRT
G1 F2700 E0
G1 F1200 X149.076 Y88.331 E0.01001
G1 X149.764 Y87.272 E0.03521
G1 X151.129 Y85.104 E0.08634
G1 X152.414 Y82.929 E0.13675
G1 X153.638 Y80.72 E0.18715
G1 X154.795 Y78.479 E0.23748
G1 X155.666 Y76.682 E0.27733
G1 X155.929 Y76.124 E0.28964
G1 X156.164 Y75.655 E0.30011
G1 X156.279 Y75.438 E0.30501
G1 X156.505 Y75.032 E0.31428
G1 X156.553 Y74.95 E0.31618
G1 X156.795 Y74.556 E0.32541
G1 X156.914 Y74.371 E0.3298
G1 X157.174 Y73.984 E0.3391
G1 X157.473 Y73.575 E0.34921
G1 X157.61 Y73.396 E0.35371
G1 X157.864 Y73.077 E0.36185
G1 X158.252 Y72.626 E0.37372
G1 X158.456 Y72.402 E0.37976
G1 X158.999 Y71.847 E0.39526
G1 X159.17 Y71.684 E0.39997
G1 X159.759 Y71.162 E0.41568
G1 X159.902 Y71.044 E0.41938
G1 X160.282 Y70.744 E0.42904
G1 X160.481 Y70.594 E0.43401
G1 X161.253 Y70.062 E0.45272
G1 X162.068 Y69.597 E0.47145
G1 X162.919 Y69.204 E0.49016
G1 X163.801 Y68.885 E0.50887
G1 X164.707 Y68.642 E0.52759
G1 X165.63 Y68.477 E0.5463
G1 X166.54 Y68.392 E0.56454
G1 X167.099 Y68.363 E0.57571
G1 X169.605 Y68.203 E0.62582
G1 X172.135 Y67.967 E0.67653
G1 X174.652 Y67.662 E0.72713
G1 X177.177 Y67.283 E0.77808
G1 X178.748 Y67.012 E0.8099
G1 X179.516 Y66.907 E0.82537
G1 X179.755 Y66.883 E0.83016
G1 X180.243 Y66.845 E0.83993
G1 X180.693 Y66.826 E0.84892
G1 X180.936 Y66.821 E0.85377
G1 X181.372 Y66.82 E0.86247
G1 X181.651 Y66.827 E0.86804
G1 X182.153 Y66.844 E0.87806
G1 X184.806 Y66.9 E0.93102
G1 X187.473 Y66.879 E0.98424
G1 X187.875 Y66.874 E0.99226
G1 X188.154 Y66.874 E0.99783
G1 X188.398 Y66.877 E1.0027
G1 X188.788 Y66.888 E1.01049
G1 X189.434 Y66.934 E1.02341
G1 X189.753 Y66.966 E1.02981
G1 X190.499 Y67.067 E1.04483
G1 X190.699 Y67.101 E1.04888
G1 X191.539 Y67.277 E1.06601
G1 X191.857 Y67.357 E1.07255
G1 X192.352 Y67.494 E1.0828
G1 X192.9 Y67.672 E1.0943
G1 X193.171 Y67.768 E1.10004
G1 X193.912 Y68.061 E1.11594
G1 X194.122 Y68.153 E1.12051
G1 X194.451 Y68.304 E1.12774
G1 X194.989 Y68.575 E1.13976
G1 X195.197 Y68.687 E1.14447
G1 X195.611 Y68.921 E1.15396
G1 X195.977 Y69.145 E1.16253
G1 X196.16 Y69.262 E1.16686
G1 X196.563 Y69.532 E1.17654
G1 X196.986 Y69.842 E1.18701
G1 X197.185 Y69.995 E1.19202
G1 X197.715 Y70.429 E1.20569
G1 X197.92 Y70.608 E1.21112
G1 X198.341 Y70.995 E1.22253
G1 X198.406 Y71.058 E1.22434
G1 X198.734 Y71.39 E1.23365
G1 X198.879 Y71.543 E1.23786
G1 X199.345 Y72.068 E1.25186
G1 X199.525 Y72.284 E1.25748
G1 X199.935 Y72.807 E1.27074
G1 X200.038 Y72.947 E1.27421
G1 X200.561 Y73.726 E1.29293
G1 X201.016 Y74.546 E1.31165
G1 X201.4 Y75.402 E1.33037
G1 X201.709 Y76.287 E1.34907
G1 X201.941 Y77.196 E1.3678
G1 X202.095 Y78.121 E1.38651
G1 X202.178 Y79.492 E1.41392
G1 X202.174 Y80.51 E1.43423
G1 X202.16 Y81.356 E1.45112
G1 X202.167 Y82.8 E1.47994
G1 X202.177 Y83.627 E1.49644
G1 X202.149 Y84.564 E1.51515
G1 X202.04 Y85.496 E1.53387
G1 X201.853 Y86.415 E1.55259
G1 X201.588 Y87.315 E1.57131
G1 X201.248 Y88.188 E1.59001
G1 X200.851 Y88.999 E1.60803
G1 X200.412 Y89.808 E1.6264
G1 X199.853 Y90.807 E1.64924
G1 X198.699 Y93.011 E1.69889
G1 X197.593 Y95.274 E1.74916
G1 X196.551 Y97.574 E1.79954
G1 X195.558 Y99.935 E1.85066
G1 X194.836 Y101.791 E1.8904
G1 X194.344 Y103.093 E1.91818
G1 X194.101 Y103.683 E1.93091
G1 X193.978 Y103.959 E1.93694
G1 X193.598 Y104.73 E1.95409
G1 X193.459 Y104.986 E1.95991
G1 X193.054 Y105.671 E1.97579
G1 X192.931 Y105.863 E1.98034
G1 X192.643 Y106.29 E1.99062
G1 X192.382 Y106.648 E1.99946
G1 X192.251 Y106.821 E2.00379
G1 X191.884 Y107.281 E2.01553
G1 X191.824 Y107.352 E2.01739
G1 X191.536 Y107.679 E2.02608
G1 X191.352 Y107.88 E2.03152
G1 X190.819 Y108.423 E2.0467
G1 X190.655 Y108.579 E2.05122
G1 X190.104 Y109.069 E2.06594
G1 X189.891 Y109.246 E2.07146
G1 X189.273 Y109.724 E2.08705
G1 X189.135 Y109.823 E2.09044
G1 X188.35 Y110.337 E2.10917
G1 X187.525 Y110.782 E2.12788
G1 X186.664 Y111.155 E2.1466
G1 X185.775 Y111.453 E2.16531
G1 X184.869 Y111.674 E2.18392
G1 X183.629 Y111.919 E2.20915
G1 X183.172 Y112.003 E2.21842
G1 X180.781 Y112.511 E2.2672
G1 X178.257 Y113.123 E2.31903
G1 X175.861 Y113.776 E2.36859
G1 X173.453 Y114.506 E2.4188
G1 X171.047 Y115.312 E2.46944
G1 X168.678 Y116.179 E2.51978
G1 X168.166 Y116.38 E2.53076
G1 X167.448 Y116.65 E2.54606
G1 X166.557 Y116.942 E2.56478
G1 X165.644 Y117.158 E2.5835
G1 X164.716 Y117.295 E2.60222
G1 X163.497 Y117.354 E2.62657
G1 X161.981 Y117.342 E2.65683
G1 X161.784 Y117.338 E2.66076
G1 X160.16 Y117.344 E2.69317
G1 X159.4 Y117.352 E2.70834
G1 X158.462 Y117.322 E2.72706
G1 X157.531 Y117.213 E2.74577
G1 X156.612 Y117.024 E2.76449
G1 X155.713 Y116.758 E2.7832
G1 X154.84 Y116.416 E2.80191
G1 X153.999 Y116.001 E2.82063
G1 X153.061 Y115.425 E2.8426
G1 X152.991 Y115.377 E2.84429
G1 X152.44 Y114.973 E2.85792
G1 X152.28 Y114.848 E2.86198
G1 X151.764 Y114.419 E2.87537
G1 X151.556 Y114.235 E2.88091
G1 X150.884 Y113.588 E2.89953
G1 X150.657 Y113.35 E2.90609
G1 X150.078 Y112.692 E2.92358
G1 X149.888 Y112.458 E2.92959
G1 X149.355 Y111.745 E2.94736
G1 X149.187 Y111.5 E2.95329
G1 X148.847 Y110.973 E2.9658
G1 X148.798 Y110.892 E2.96769
G1 X148.583 Y110.52 E2.97627
G1 X148.473 Y110.321 E2.9808
G1 X148.232 Y109.86 E2.99119
G1 X148.013 Y109.394 E3.00146
G1 X147.897 Y109.132 E3.00718
G1 X147.601 Y108.393 E3.02307
G1 X147.521 Y108.17 E3.02779
G1 X147.376 Y107.74 E3.03685
G1 X147.205 Y107.154 E3.04903
G1 X147.136 Y106.891 E3.05446
G1 X146.952 Y106.06 E3.07144
G1 X146.908 Y105.817 E3.07637
G1 X146.835 Y105.358 E3.08565
G1 X146.765 Y104.774 E3.09738
G1 X146.739 Y104.491 E3.10305
G1 X146.694 Y103.654 E3.11978
G1 X146.69 Y103.394 E3.12497
G1 X146.696 Y102.827 E3.13629
G1 X146.715 Y102.314 E3.14653
G1 X146.77 Y99.781 E3.19709
G1 X146.754 Y97.216 E3.24828
G1 X146.749 Y96.961 E3.25337
G1 X146.744 Y96.508 E3.26241
G1 X146.744 Y96.252 E3.26752
G1 X146.747 Y96.007 E3.27241
G1 X146.759 Y95.612 E3.2803
G1 X146.804 Y94.972 E3.2931
G1 X146.836 Y94.653 E3.2995
G1 X146.952 Y93.819 E3.3163
G1 X146.99 Y93.606 E3.32062
G1 X147.143 Y92.888 E3.33527
G1 X147.214 Y92.602 E3.34115
G1 X147.327 Y92.181 E3.34985
G1 X147.352 Y92.095 E3.35164
G1 X147.536 Y91.523 E3.36363
G1 X147.622 Y91.278 E3.36881
G1 X147.958 Y90.434 E3.38694
G1 X148.088 Y90.143 E3.3933
G1 X148.433 Y89.439 E3.40894
G1 X148.547 Y89.226 E3.41376
G1 X148.813 Y88.758 E3.42451
G0 F6000 X149.156 Y88.963
G1 F1200 X149.213 Y88.868 E3.42672
G1 X149.412 Y88.549 E3.43422
G1 X150.062 Y87.548 E3.45804
G1 X151.478 Y85.3 E3.51106
G1 X152.765 Y83.121 E3.56156
G1 X153.985 Y80.918 E3.61181
G1 X155.144 Y78.675 E3.6622
G1 X156.047 Y76.813 E3.7035
G1 X156.291 Y76.294 E3.71494
G1 X156.517 Y75.842 E3.72503
G1 X156.632 Y75.625 E3.72993
G1 X156.85 Y75.234 E3.73886
G1 X156.898 Y75.152 E3.74076
G1 X157.131 Y74.773 E3.74963
G1 X157.25 Y74.588 E3.75402
G1 X157.544 Y74.154 E3.76449
G1 X157.79 Y73.819 E3.77278
G1 X157.927 Y73.64 E3.77728
G1 X158.174 Y73.33 E3.78519
G1 X158.548 Y72.896 E3.79662
G1 X158.752 Y72.672 E3.80267
G1 X159.275 Y72.136 E3.81761
G1 X159.446 Y71.973 E3.82233
G1 X160.013 Y71.47 E3.83745
G1 X160.156 Y71.352 E3.84115
G1 X160.523 Y71.063 E3.85047
G1 X160.722 Y70.913 E3.85545
G1 X161.48 Y70.392 E3.8738
G1 X162.281 Y69.938 E3.89218
G1 X163.118 Y69.555 E3.91055
G1 X163.986 Y69.246 E3.92893
G1 X164.877 Y69.014 E3.94731
G1 X165.784 Y68.86 E3.96567
G1 X166.561 Y68.792 E3.98123
G1 X167.068 Y68.766 E3.99136
G1 X169.666 Y68.599 E4.04331
G1 X172.153 Y68.368 E4.09316
G1 X174.683 Y68.061 E4.14402
G1 X177.261 Y67.674 E4.19604
G1 X178.816 Y67.406 E4.22753
G1 X179.556 Y67.305 E4.24243
G1 X179.795 Y67.281 E4.24723
G1 X180.268 Y67.244 E4.2567
G1 X180.701 Y67.226 E4.26534
G1 X180.944 Y67.221 E4.2702
G1 X181.368 Y67.22 E4.27866
G1 X181.638 Y67.226 E4.28405
G1 X182.205 Y67.246 E4.29537
G1 X184.801 Y67.3 E4.34719
G1 X187.476 Y67.279 E4.40057
G1 X187.88 Y67.274 E4.40863
G1 X188.149 Y67.274 E4.414
G1 X188.393 Y67.277 E4.41887
G1 X188.771 Y67.288 E4.42642
G1 X189.394 Y67.332 E4.43888
G1 X189.713 Y67.364 E4.44528
G1 X190.432 Y67.461 E4.45976
G1 X190.632 Y67.495 E4.46381
G1 X191.441 Y67.665 E4.4803
G1 X191.759 Y67.745 E4.48685
G1 X192.238 Y67.878 E4.49677
G1 X192.766 Y68.049 E4.50784
G1 X193.037 Y68.145 E4.51358
G1 X193.752 Y68.428 E4.52893
G1 X193.962 Y68.52 E4.5335
G1 X194.28 Y68.666 E4.54048
G1 X194.799 Y68.927 E4.55208
G1 X195.007 Y69.039 E4.55679
G1 X195.409 Y69.266 E4.566
G1 X195.762 Y69.482 E4.57426
G1 X195.945 Y69.599 E4.5786
G1 X196.334 Y69.86 E4.58795
G1 X196.742 Y70.159 E4.59804
G1 X196.941 Y70.312 E4.60305
G1 X197.452 Y70.73 E4.61622
G1 X197.657 Y70.909 E4.62165
G1 X198.062 Y71.282 E4.63264
G1 X198.127 Y71.345 E4.63445
G1 X198.444 Y71.666 E4.64345
G1 X198.589 Y71.819 E4.64766
G1 X199.038 Y72.324 E4.66114
G1 X199.218 Y72.54 E4.66675
G1 X199.613 Y73.044 E4.67953
G1 X199.716 Y73.184 E4.683
G1 X200.229 Y73.949 E4.70138
G1 X200.674 Y74.755 E4.71976
G1 X201.047 Y75.597 E4.73813
G1 X201.345 Y76.468 E4.75651
G1 X201.567 Y77.361 E4.77487
G1 X201.71 Y78.271 E4.79325
G1 X201.778 Y79.491 E4.81764
G1 X201.774 Y80.504 E4.83785
G1 X201.759 Y81.351 E4.85476
G1 X201.767 Y82.804 E4.88375
G1 X201.777 Y83.632 E4.90028
G1 X201.748 Y84.552 E4.91865
G1 X201.64 Y85.466 E4.93701
G1 X201.453 Y86.368 E4.9554
G1 X201.188 Y87.249 E4.97376
G1 X200.847 Y88.105 E4.99214
G1 X200.499 Y88.809 E5.00782
G1 X200.063 Y89.612 E5.02605
G1 X199.518 Y90.585 E5.04831
G1 X198.321 Y92.872 E5.09982
G1 X197.247 Y95.07 E5.14864
G1 X196.176 Y97.433 E5.20041
G1 X195.187 Y99.783 E5.25129
G1 X194.477 Y101.609 E5.29039
G1 X193.97 Y102.951 E5.31902
G1 X193.736 Y103.52 E5.3313
G1 X193.613 Y103.796 E5.33733
G1 X193.246 Y104.539 E5.35386
G1 X193.107 Y104.795 E5.35968
G1 X192.718 Y105.455 E5.37497
G1 X192.595 Y105.647 E5.37952
G1 X192.317 Y106.059 E5.38944
G1 X192.064 Y106.407 E5.39802
G1 X191.933 Y106.58 E5.40235
G1 X191.578 Y107.023 E5.41368
G1 X191.518 Y107.094 E5.41554
G1 X191.241 Y107.409 E5.42391
G1 X191.057 Y107.61 E5.42935
G1 X190.544 Y108.133 E5.44396
G1 X190.38 Y108.289 E5.44848
G1 X189.849 Y108.762 E5.46267
G1 X189.636 Y108.939 E5.4682
G1 X189.04 Y109.399 E5.48322
G1 X188.902 Y109.498 E5.48661
G1 X188.131 Y110.002 E5.505
G1 X187.32 Y110.436 E5.52335
G1 X186.474 Y110.799 E5.54172
G1 X185.599 Y111.087 E5.56011
G1 X184.791 Y111.281 E5.57669
G1 X183.557 Y111.525 E5.60179
G1 X183.115 Y111.606 E5.61076
G1 X180.682 Y112.123 E5.6604
G1 X178.163 Y112.734 E5.71212
G1 X175.745 Y113.393 E5.76214
G1 X173.316 Y114.13 E5.81279
G1 X170.951 Y114.921 E5.86256
G1 X168.521 Y115.811 E5.9142
G1 X168.025 Y116.006 E5.92484
G1 X167.307 Y116.276 E5.94015
G1 X166.432 Y116.562 E5.95852
G1 X165.535 Y116.771 E5.9769
G1 X164.624 Y116.902 E5.99526
G1 X163.5 Y116.954 E6.01772
G1 X161.988 Y116.942 E6.04789
G1 X161.79 Y116.938 E6.05184
G1 X160.159 Y116.944 E6.08439
G1 X159.396 Y116.952 E6.09962
G1 X158.475 Y116.922 E6.11801
G1 X157.561 Y116.812 E6.13638
G1 X156.66 Y116.624 E6.15475
G1 X155.779 Y116.357 E6.17312
G1 X154.924 Y116.016 E6.19149
G1 X154.102 Y115.601 E6.20987
G1 X153.287 Y115.095 E6.22901
G1 X153.217 Y115.047 E6.2307
G1 X152.686 Y114.658 E6.24384
G1 X152.526 Y114.533 E6.24789
G1 X152.029 Y114.119 E6.2608
G1 X151.821 Y113.935 E6.26634
G1 X151.174 Y113.312 E6.28427
G1 X150.947 Y113.074 E6.29083
G1 X150.388 Y112.44 E6.3077
G1 X150.198 Y112.206 E6.31371
G1 X149.685 Y111.519 E6.33082
G1 X149.517 Y111.274 E6.33675
G1 X149.189 Y110.766 E6.34882
G1 X149.14 Y110.685 E6.35071
G1 X148.933 Y110.326 E6.35898
G1 X148.823 Y110.127 E6.36351
G1 X148.59 Y109.681 E6.37356
G1 X148.379 Y109.232 E6.38346
G1 X148.263 Y108.97 E6.38917
G1 X147.978 Y108.258 E6.40448
G1 X147.898 Y108.035 E6.40921
G1 X147.757 Y107.617 E6.41801
G1 X147.592 Y107.053 E6.42974
G1 X147.523 Y106.79 E6.43516
G1 X147.346 Y105.989 E6.45153
G1 X147.302 Y105.746 E6.45646
G1 X147.23 Y105.3 E6.46548
G1 X147.163 Y104.738 E6.47677
G1 X147.137 Y104.455 E6.48244
G1 X147.094 Y103.648 E6.49857
G1 X147.09 Y103.388 E6.50376
G1 X147.096 Y102.841 E6.51468
G1 X147.114 Y102.336 E6.52476
G1 X147.17 Y99.787 E6.57564
G1 X147.154 Y97.203 E6.62721
G1 X147.149 Y96.957 E6.63212
G1 X147.144 Y96.504 E6.64116
G1 X147.147 Y96.012 E6.65098
G1 X147.158 Y95.629 E6.65862
G1 X147.202 Y95.012 E6.67097
G1 X147.234 Y94.693 E6.67737
G1 X147.346 Y93.889 E6.69357
G1 X147.384 Y93.676 E6.69788
G1 X147.531 Y92.984 E6.712
G1 X147.602 Y92.698 E6.71788
G1 X147.711 Y92.293 E6.72625
G1 X147.736 Y92.207 E6.72804
G1 X147.913 Y91.655 E6.73961
G1 X147.999 Y91.41 E6.74479
G1 X148.323 Y90.597 E6.76226
G1 X148.453 Y90.306 E6.76862
G1 X148.785 Y89.628 E6.78368
G1 X148.899 Y89.415 E6.7885
G1 X149.156 Y88.963 E6.79888
G0 F6000 X149.499 Y89.169
G1 F1200 X149.747 Y88.767 E6.8083
G1 X150.46 Y87.669 E6.83443
G1 X151.809 Y85.526 E6.88496
G1 X153.11 Y83.323 E6.93602
G1 X154.325 Y81.13 E6.98605
G1 X155.509 Y78.838 E7.03753
G1 X156.411 Y76.979 E7.07877
G1 X156.653 Y76.464 E7.09012
G1 X156.87 Y76.03 E7.09981
G1 X156.985 Y75.813 E7.10471
G1 X157.195 Y75.436 E7.11332
G1 X157.243 Y75.354 E7.11522
G1 X157.467 Y74.989 E7.12376
G1 X157.586 Y74.804 E7.12815
G1 X157.871 Y74.384 E7.13828
G1 X158.108 Y74.062 E7.14626
G1 X158.245 Y73.883 E7.15076
G1 X158.483 Y73.583 E7.1584
G1 X158.844 Y73.165 E7.16942
G1 X159.048 Y72.941 E7.17547
G1 X159.551 Y72.426 E7.18984
G1 X159.722 Y72.263 E7.19455
G1 X160.268 Y71.779 E7.20911
G1 X160.411 Y71.661 E7.21281
G1 X160.763 Y71.383 E7.22176
G1 X160.962 Y71.233 E7.22673
G1 X161.707 Y70.722 E7.24476
G1 X162.494 Y70.278 E7.2628
G1 X163.317 Y69.906 E7.28082
G1 X164.169 Y69.609 E7.29883
G1 X165.045 Y69.388 E7.31685
G1 X165.937 Y69.245 E7.33488
G1 X166.581 Y69.191 E7.34778
G1 X167.112 Y69.164 E7.35839
G1 X169.695 Y68.998 E7.41004
G1 X172.202 Y68.765 E7.46029
G1 X174.759 Y68.454 E7.51169
G1 X177.293 Y68.074 E7.56283
G1 X178.884 Y67.8 E7.59504
G1 X179.596 Y67.703 E7.60938
G1 X179.835 Y67.679 E7.61418
G1 X180.292 Y67.643 E7.62333
G1 X180.709 Y67.626 E7.63165
G1 X180.952 Y67.621 E7.6365
G1 X181.364 Y67.62 E7.64473
G1 X181.624 Y67.626 E7.64992
G1 X182.182 Y67.645 E7.66106
G1 X184.796 Y67.7 E7.71323
G1 X187.479 Y67.679 E7.76678
G1 X187.886 Y67.674 E7.7749
G1 X188.144 Y67.674 E7.78005
G1 X188.388 Y67.677 E7.78492
G1 X188.755 Y67.688 E7.79225
G1 X189.354 Y67.73 E7.80423
G1 X189.673 Y67.762 E7.81063
G1 X190.364 Y67.855 E7.82454
G1 X190.564 Y67.889 E7.82859
G1 X191.343 Y68.053 E7.84448
G1 X191.661 Y68.133 E7.85102
G1 X192.125 Y68.261 E7.86063
G1 X192.633 Y68.426 E7.87129
G1 X192.904 Y68.522 E7.87702
G1 X193.591 Y68.794 E7.89177
G1 X193.801 Y68.886 E7.89634
G1 X194.11 Y69.028 E7.90313
G1 X194.61 Y69.279 E7.91429
G1 X194.818 Y69.391 E7.91901
G1 X195.207 Y69.612 E7.92794
G1 X195.546 Y69.819 E7.93586
G1 X195.729 Y69.936 E7.9402
G1 X196.106 Y70.189 E7.94926
G1 X196.498 Y70.476 E7.95895
G1 X196.697 Y70.629 E7.96396
G1 X197.189 Y71.032 E7.97665
G1 X197.394 Y71.211 E7.98209
G1 X197.784 Y71.57 E7.99266
G1 X197.849 Y71.633 E7.99447
G1 X198.153 Y71.941 E8.00311
G1 X198.298 Y72.094 E8.00731
G1 X198.731 Y72.58 E8.0203
G1 X198.911 Y72.796 E8.02591
G1 X199.291 Y73.281 E8.03821
G1 X199.394 Y73.421 E8.04168
G1 X199.896 Y74.172 E8.05971
G1 X200.331 Y74.964 E8.07774
G1 X200.693 Y75.791 E8.09575
G1 X200.981 Y76.647 E8.11378
G1 X201.192 Y77.525 E8.1318
G1 X201.324 Y78.418 E8.14981
G1 X201.378 Y79.49 E8.17123
G1 X201.375 Y80.497 E8.19133
G1 X201.36 Y81.38 E8.20895
G1 X201.367 Y82.806 E8.23741
G1 X201.377 Y83.637 E8.25399
G1 X201.348 Y84.539 E8.272
