;FLAVOR:Marlin
;TIME:472
;Filament used: 0.118528m
;Layer height: 0.2
;MINX:103.26
;MINY:101.455
;MINZ:0.2
;MAXX:131.74
;MAXY:134.076
;MAXZ:10
;Generated with Cura_SteamEngine 4.8.0
M140 S50
M105
M190 S50
M104 S200
M105
M109 S200
M82 ;absolute extrusion mode
; Ender 3 Custom Start G-code
G92 E0 ; Reset Extruder
G28 ; Home all axes
M420 S1  ; use saved bed leveling
G1 Z2.0 F3000 ; Move Z Axis up little to prevent scratching of Heat Bed
G1 X0.1 Y20 Z0.3 F5000.0 ; Move to start position
G1 X0.1 Y200.0 Z0.3 F1500.0 E15 ; Draw the first line
G1 X0.4 Y200.0 Z0.3 F5000.0 ; Move to side a little
G1 X0.4 Y20 Z0.3 F1500.0 E30 ; Draw the second line
G92 E0 ; Reset Extruder
G1 Z2.0 F3000 ; Move Z Axis up little to prevent scratching of Heat Bed
G1 X5 Y20 Z0.3 F5000.0 ; Move over to prevent blob squish
G92 E0
G92 E0
G1 F2700 E-5
;LAYER_COUNT:50
;LAYER:0
M107
G0 F6000 X107.19 Y104.948 Z0.2
;TYPE:SKIRT
G1 F2700 E0
G1 F1200 X107.859 Y104.29 E0.03121
G1 X108.581 Y103.692 E0.06239
G1 X109.352 Y103.157 E0.0936
G1 X110.165 Y102.69 E0.12479
G1 X111.015 Y102.294 E0.15598
G1 X111.896 Y101.972 E0.18717
G1 X112.801 Y101.726 E0.21837
G1 X113.724 Y101.559 E0.24956
G1 X114.658 Y101.47 E0.28077
G1 X115.296 Y101.455 E0.302
G1 X115.779 Y101.459 E0.31806
G1 X117.829 Y101.499 E0.38626
G1 X118.501 Y101.493 E0.40861
G1 X119.847 Y101.497 E0.45338
G1 X120.784 Y101.54 E0.48458
G1 X121.713 Y101.662 E0.51574
G1 X122.629 Y101.863 E0.54693
G1 X123.525 Y102.142 E0.57814
G1 X124.394 Y102.496 E0.60935
G1 X125.229 Y102.922 E0.64053
G1 X126.025 Y103.418 E0.67172
G1 X126.776 Y103.98 E0.70292
G1 X127.476 Y104.604 E0.73411
G1 X127.925 Y105.066 E0.75554
G1 X128.078 Y105.233 E0.76307
G1 X128.669 Y105.935 E0.79359
G1 X128.843 Y106.16 E0.80305
G1 X129.369 Y106.901 E0.83328
G1 X129.515 Y107.126 E0.8422
G1 X129.921 Y107.804 E0.86848
G1 X130.018 Y107.98 E0.87517
G1 X130.246 Y108.416 E0.89153
G1 X130.584 Y109.151 E0.91844
G1 X130.686 Y109.396 E0.92727
G1 X131.01 Y110.28 E0.95858
G1 X131.115 Y110.609 E0.97007
G1 X131.373 Y111.562 E1.0029
G1 X131.424 Y111.791 E1.01071
G1 X131.594 Y112.756 E1.0433
G1 X131.637 Y113.085 E1.05433
G1 X131.722 Y114.095 E1.08804
G1 X131.732 Y114.359 E1.09683
G1 X131.74 Y114.854 E1.1133
G1 X131.733 Y115.574 E1.13725
G1 X131.702 Y116.997 E1.18459
G1 X131.712 Y119.332 E1.26225
G1 X131.735 Y120.692 E1.30749
G1 X131.707 Y121.697 E1.34093
G1 X131.69 Y121.925 E1.34853
G1 X131.581 Y122.848 E1.37945
G1 X131.522 Y123.216 E1.39184
G1 X131.296 Y124.285 E1.42818
G1 X131.231 Y124.531 E1.43665
G1 X130.97 Y125.38 E1.46619
G1 X130.885 Y125.621 E1.47469
G1 X130.538 Y126.485 E1.50566
G1 X130.418 Y126.751 E1.51536
G1 X129.971 Y127.635 E1.54831
G1 X129.822 Y127.899 E1.55839
G1 X129.292 Y128.744 E1.59157
G1 X129.149 Y128.951 E1.59993
G1 X128.571 Y129.715 E1.6318
G1 X128.388 Y129.936 E1.64134
G1 X127.947 Y130.436 E1.66352
G1 X127.801 Y130.592 E1.67062
G1 X127.132 Y131.249 E1.70181
G1 X126.409 Y131.847 E1.73302
G1 X125.638 Y132.38 E1.76419
G1 X124.824 Y132.846 E1.79539
G1 X123.973 Y133.241 E1.82659
G1 X123.092 Y133.562 E1.85778
G1 X122.187 Y133.807 E1.88896
G1 X121.264 Y133.974 E1.92016
G1 X120.33 Y134.062 E1.95136
G1 X119.704 Y134.076 E1.97219
G1 X119.221 Y134.072 E1.98825
G1 X117.171 Y134.032 E2.05645
G1 X116.499 Y134.038 E2.0788
G1 X115.153 Y134.034 E2.12357
G1 X114.216 Y133.991 E2.15477
G1 X113.287 Y133.869 E2.18593
G1 X112.371 Y133.668 E2.21712
G1 X111.475 Y133.389 E2.24833
G1 X110.606 Y133.035 E2.27954
G1 X109.771 Y132.609 E2.31072
G1 X108.975 Y132.113 E2.34192
G1 X108.224 Y131.551 E2.37311
G1 X107.524 Y130.927 E2.4043
G1 X107.038 Y130.424 E2.42757
G1 X106.882 Y130.252 E2.43529
G1 X106.333 Y129.597 E2.46372
G1 X106.151 Y129.362 E2.4736
G1 X105.623 Y128.619 E2.50392
G1 X105.497 Y128.425 E2.51161
G1 X105.224 Y127.982 E2.52892
G1 X104.984 Y127.553 E2.54527
G1 X104.864 Y127.327 E2.55378
G1 X104.481 Y126.531 E2.58316
G1 X104.392 Y126.325 E2.59062
G1 X104.23 Y125.928 E2.60489
G1 X103.986 Y125.241 E2.62913
G1 X103.881 Y124.911 E2.64065
G1 X103.624 Y123.957 E2.67351
G1 X103.575 Y123.736 E2.68104
G1 X103.412 Y122.82 E2.71199
G1 X103.369 Y122.5 E2.72273
G1 X103.277 Y121.396 E2.75957
G1 X103.266 Y121.061 E2.77072
G1 X103.26 Y120.613 E2.78562
G1 X103.267 Y119.949 E2.80771
G1 X103.298 Y118.55 E2.85425
G1 X103.288 Y116.161 E2.93371
G1 X103.265 Y114.838 E2.97772
G1 X103.294 Y113.825 E3.01143
G1 X103.311 Y113.599 E3.01896
G1 X103.421 Y112.668 E3.05014
G1 X103.481 Y112.297 E3.06264
G1 X103.7 Y111.261 E3.09786
G1 X103.758 Y111.04 E3.10546
G1 X104.033 Y110.15 E3.13645
G1 X104.141 Y109.846 E3.14718
G1 X104.505 Y108.948 E3.1794
G1 X104.603 Y108.734 E3.18723
G1 X105.028 Y107.9 E3.21836
G1 X105.188 Y107.617 E3.22918
G1 X105.689 Y106.815 E3.26063
G1 X105.826 Y106.615 E3.26869
G1 X106.46 Y105.778 E3.30362
G1 X106.648 Y105.553 E3.31337
G1 X107.049 Y105.099 E3.33351
G1 X107.19 Y104.948 E3.34039
G0 F6000 X107.483 Y105.221
G1 F1200 X108.139 Y104.576 E3.37098
G1 X108.85 Y103.99 E3.40163
G1 X109.609 Y103.468 E3.43227
G1 X110.41 Y103.015 E3.46287
G1 X111.247 Y102.632 E3.49349
G1 X112.114 Y102.323 E3.5241
G1 X113.005 Y102.091 E3.55473
G1 X113.913 Y101.937 E3.58536
G1 X114.83 Y101.863 E3.61596
G1 X115.294 Y101.855 E3.63139
G1 X115.771 Y101.859 E3.64726
G1 X117.825 Y101.899 E3.71559
G1 X118.5 Y101.893 E3.73804
G1 X119.846 Y101.897 E3.78281
G1 X120.765 Y101.94 E3.81341
G1 X121.678 Y102.062 E3.84404
G1 X122.576 Y102.263 E3.87465
G1 X123.454 Y102.541 E3.90528
G1 X124.304 Y102.895 E3.9359
G1 X125.12 Y103.321 E3.96652
G1 X125.896 Y103.816 E3.99713
G1 X126.627 Y104.376 E4.02776
G1 X127.306 Y104.998 E4.05839
G1 X127.63 Y105.336 E4.07396
G1 X127.783 Y105.503 E4.08149
G1 X128.352 Y106.179 E4.11088
G1 X128.526 Y106.404 E4.12034
G1 X129.033 Y107.119 E4.1495
G1 X129.179 Y107.344 E4.15842
G1 X129.57 Y107.998 E4.18376
G1 X129.667 Y108.174 E4.19044
G1 X129.844 Y108.507 E4.20299
G1 X129.889 Y108.596 E4.2063
G1 X130.215 Y109.305 E4.23226
G1 X130.317 Y109.55 E4.24109
G1 X130.629 Y110.401 E4.27123
G1 X130.734 Y110.73 E4.28272
G1 X130.983 Y111.649 E4.31439
G1 X131.034 Y111.878 E4.32219
G1 X131.198 Y112.808 E4.3536
G1 X131.241 Y113.137 E4.36464
G1 X131.322 Y114.11 E4.39711
G1 X131.332 Y114.374 E4.4059
G1 X131.34 Y114.851 E4.42176
G1 X131.336 Y115.407 E4.44026
G1 X131.302 Y116.99 E4.49292
G1 X131.312 Y119.34 E4.57108
G1 X131.335 Y120.699 E4.61629
G1 X131.308 Y121.667 E4.6485
G1 X131.291 Y121.895 E4.6561
G1 X131.186 Y122.785 E4.68591
G1 X131.127 Y123.153 E4.6983
G1 X130.909 Y124.183 E4.73332
G1 X130.844 Y124.429 E4.74178
G1 X130.592 Y125.247 E4.77025
G1 X130.507 Y125.488 E4.77875
G1 X130.173 Y126.321 E4.8086
G1 X130.053 Y126.587 E4.81831
G1 X129.622 Y127.438 E4.85003
G1 X129.473 Y127.702 E4.86012
G1 X128.963 Y128.517 E4.89209
G1 X128.82 Y128.724 E4.90046
G1 X128.263 Y129.459 E4.93114
G1 X128.08 Y129.68 E4.94068
G1 X127.655 Y130.163 E4.96208
G1 X127.509 Y130.319 E4.96918
G1 X126.852 Y130.963 E4.99978
G1 X126.14 Y131.548 E5.03043
G1 X125.381 Y132.069 E5.06105
G1 X124.58 Y132.522 E5.09166
G1 X123.742 Y132.904 E5.12229
G1 X122.874 Y133.211 E5.15291
G1 X121.983 Y133.442 E5.18353
G1 X121.075 Y133.595 E5.21415
G1 X119.706 Y133.676 E5.25977
G1 X119.229 Y133.672 E5.27563
G1 X117.175 Y133.632 E5.34396
G1 X116.5 Y133.638 E5.36641
G1 X115.154 Y133.634 E5.41118
G1 X114.235 Y133.591 E5.44178
G1 X113.322 Y133.469 E5.47242
G1 X112.424 Y133.268 E5.50302
G1 X111.546 Y132.99 E5.53365
G1 X110.696 Y132.636 E5.56428
G1 X109.88 Y132.21 E5.59489
G1 X109.104 Y131.715 E5.62551
G1 X108.373 Y131.155 E5.65614
G1 X107.694 Y130.533 E5.68676
G1 X107.334 Y130.155 E5.70412
G1 X107.178 Y129.983 E5.71185
G1 X106.649 Y129.352 E5.73923
G1 X106.467 Y129.117 E5.74912
G1 X105.958 Y128.401 E5.77834
G1 X105.832 Y128.207 E5.78603
G1 X105.569 Y127.779 E5.80274
G1 X105.337 Y127.365 E5.81853
G1 X105.217 Y127.139 E5.82704
G1 X104.848 Y126.372 E5.85535
G1 X104.759 Y126.166 E5.86281
G1 X104.602 Y125.782 E5.87661
G1 X104.367 Y125.12 E5.89997
G1 X104.262 Y124.79 E5.91149
G1 X104.014 Y123.871 E5.94315
G1 X103.965 Y123.65 E5.95068
G1 X103.808 Y122.767 E5.98051
G1 X103.765 Y122.447 E5.99125
G1 X103.677 Y121.383 E6.02676
G1 X103.666 Y121.048 E6.0379
G1 X103.66 Y120.616 E6.05227
G1 X103.667 Y119.958 E6.07416
G1 X103.698 Y118.557 E6.12077
G1 X103.688 Y116.159 E6.20053
G1 X103.665 Y114.831 E6.2447
G1 X103.693 Y113.855 E6.27718
G1 X103.71 Y113.629 E6.28472
G1 X103.816 Y112.732 E6.31476
G1 X103.876 Y112.361 E6.32726
G1 X104.087 Y111.362 E6.36122
G1 X104.145 Y111.141 E6.36882
G1 X104.41 Y110.283 E6.39869
G1 X104.518 Y109.979 E6.40942
G1 X104.868 Y109.115 E6.44042
G1 X104.966 Y108.901 E6.44825
G1 X105.377 Y108.097 E6.47828
G1 X105.537 Y107.814 E6.48909
G1 X106.019 Y107.041 E6.51939
G1 X106.156 Y106.841 E6.52746
G1 X106.767 Y106.034 E6.56112
G1 X106.955 Y105.809 E6.57087
G1 X107.342 Y105.372 E6.59029
G1 X107.483 Y105.221 E6.59716
G0 F6000 X107.775 Y105.494
G1 F1200 X108.42 Y104.861 E6.62722
G1 X109.118 Y104.289 E6.65723
G1 X109.864 Y103.78 E6.68727
G1 X110.653 Y103.34 E6.71732
G1 X111.477 Y102.971 E6.74735
G1 X112.331 Y102.676 E6.7774
G1 X113.207 Y102.458 E6.80742
G1 X114.099 Y102.318 E6.83745
G1 X115.291 Y102.255 E6.87716
G1 X115.763 Y102.259 E6.89286
G1 X117.787 Y102.299 E6.96019
G1 X118.498 Y102.293 E6.98384
G1 X119.844 Y102.297 E7.0286
G1 X120.746 Y102.34 E7.05864
G1 X121.641 Y102.462 E7.08868
G1 X122.522 Y102.663 E7.11874
G1 X123.381 Y102.941 E7.14877
G1 X124.212 Y103.294 E7.1788
G1 X125.009 Y103.719 E7.20884
G1 X125.765 Y104.213 E7.23887
G1 X126.474 Y104.772 E7.2689
G1 X127.335 Y105.607 E7.3088
G1 X127.488 Y105.774 E7.31633
G1 X128.036 Y106.424 E7.34461
G1 X128.21 Y106.649 E7.35407
G1 X128.697 Y107.337 E7.3821
G1 X128.843 Y107.562 E7.39102
G1 X129.22 Y108.191 E7.41541
G1 X129.317 Y108.367 E7.4221
G1 X129.487 Y108.688 E7.43418
G1 X129.532 Y108.777 E7.4375
G1 X129.846 Y109.459 E7.46247
G1 X129.948 Y109.704 E7.47129
G1 X130.248 Y110.523 E7.5003
G1 X130.353 Y110.852 E7.51179
G1 X130.592 Y111.736 E7.54225
G1 X130.643 Y111.965 E7.55005
G1 X130.801 Y112.86 E7.58028
G1 X130.844 Y113.189 E7.59132
G1 X130.923 Y114.125 E7.62256
G1 X130.933 Y114.389 E7.63134
G1 X130.94 Y114.848 E7.64661
G1 X130.934 Y115.556 E7.67016
G1 X130.902 Y117.021 E7.7189
G1 X130.911 Y119.235 E7.79254
G1 X130.936 Y120.706 E7.84147
G1 X130.909 Y121.637 E7.87245
G1 X130.892 Y121.865 E7.88005
G1 X130.791 Y122.722 E7.90875
G1 X130.732 Y123.09 E7.92115
G1 X130.523 Y124.081 E7.95484
G1 X130.458 Y124.327 E7.9633
G1 X130.215 Y125.114 E7.99069
G1 X130.13 Y125.355 E7.99919
G1 X129.809 Y126.156 E8.02789
G1 X129.689 Y126.422 E8.0376
G1 X129.274 Y127.241 E8.06814
G1 X129.125 Y127.505 E8.07822
G1 X128.634 Y128.29 E8.10902
G1 X128.491 Y128.497 E8.11738
G1 X127.955 Y129.204 E8.14689
G1 X127.772 Y129.425 E8.15644
G1 X127.363 Y129.89 E8.17703
G1 X127.217 Y130.046 E8.18414
G1 X126.572 Y130.677 E8.21415
G1 X125.873 Y131.249 E8.24419
G1 X125.126 Y131.757 E8.27424
G1 X124.337 Y132.197 E8.30429
G1 X123.512 Y132.565 E8.33433
G1 X122.658 Y132.859 E8.36437
G1 X121.782 Y133.076 E8.39439
G1 X120.889 Y133.214 E8.42444
G1 X119.709 Y133.276 E8.46374
G1 X119.237 Y133.272 E8.47944
G1 X117.213 Y133.232 E8.54677
G1 X116.502 Y133.238 E8.57042
G1 X115.156 Y133.234 E8.61519
G1 X114.254 Y133.191 E8.64523
G1 X113.359 Y133.069 E8.67527
G1 X112.478 Y132.868 E8.70532
G1 X111.619 Y132.59 E8.73535
G1 X110.788 Y132.237 E8.76538
G1 X109.991 Y131.812 E8.79543
G1 X109.235 Y131.318 E8.82546
G1 X108.526 Y130.759 E8.85549
G1 X107.631 Y129.887 E8.89705
G1 X107.475 Y129.715 E8.90478
G1 X106.966 Y129.108 E8.93112
G1 X106.784 Y128.873 E8.94101
G1 X106.294 Y128.183 E8.96916
G1 X106.168 Y127.989 E8.97685
G1 X105.913 Y127.575 E8.99302
G1 X105.69 Y127.177 E9.0082
G1 X105.57 Y126.951 E9.01671
G1 X105.216 Y126.213 E9.04393
G1 X105.127 Y126.007 E9.05139
G1 X104.974 Y125.636 E9.06474
G1 X104.748 Y124.999 E9.08722
G1 X104.643 Y124.669 E9.09874
G1 X104.405 Y123.784 E9.12922
G1 X104.356 Y123.563 E9.13675
G1 X104.205 Y122.713 E9.16546
G1 X104.162 Y122.393 E9.1762
G1 X104.076 Y121.37 E9.21035
G1 X104.065 Y121.035 E9.2215
G1 X104.06 Y120.619 E9.23533
G1 X104.067 Y119.967 E9.25702
G1 X104.098 Y118.564 E9.3037
G1 X104.089 Y116.287 E9.37943
G1 X104.064 Y114.824 E9.4281
G1 X104.092 Y113.885 E9.45934
G1 X104.109 Y113.659 E9.46688
G1 X104.211 Y112.796 E9.49578
G1 X104.271 Y112.425 E9.50828
G1 X104.474 Y111.464 E9.54095
G1 X104.532 Y111.243 E9.54855
G1 X104.787 Y110.417 E9.5773
G1 X104.895 Y110.113 E9.58803
G1 X105.232 Y109.281 E9.61789
G1 X105.33 Y109.067 E9.62572
G1 X105.725 Y108.294 E9.65459
G1 X105.885 Y108.011 E9.6654
G1 X106.349 Y107.267 E9.69457
G1 X106.486 Y107.067 E9.70263
G1 X107.074 Y106.291 E9.73501
G1 X107.262 Y106.066 E9.74476
G1 X107.634 Y105.645 E9.76345
G1 X107.775 Y105.494 E9.77032
G1 F2700 E4.77032
;MESH:28277919-7806-43e7-9f94-73b6792487a3.stl
G0 F6000 X114.352 Y112.441
G0 X115.268 Y113.092
G0 X114.887 Y114.123
G0 X114.818 Y114.971
G0 X115.018 Y115.8
G0 X115.465 Y116.525
G0 X116.119 Y117.073
G0 X118.705 Y118.182
;TYPE:WALL-INNER
G1 F2700 E9.77032
G1 F1200 X118.558 Y118.119 E9.77564
G1 X118.125 Y117.984 E9.79073
G1 X117.731 Y117.93 E9.80395
G1 X117.676 Y117.922 E9.8058
G1 X117.329 Y117.927 E9.81734
G1 X117.224 Y117.929 E9.82084
G1 X117.012 Y117.967 E9.828
G1 X116.778 Y118.009 E9.83591
G1 X116.546 Y118.089 E9.84407
G1 X116.424 Y118.131 E9.84836
G1 X116.351 Y118.157 E9.85094
G1 X116.233 Y118.221 E9.8554
G1 X116.278 Y118.124 E9.8555
G1 X116.36 Y117.949 E9.85915
G1 X116.347 Y117.821 E9.86256
G1 X116.325 Y117.624 E9.86916
G1 X116.304 Y117.428 E9.87571
G1 X116.295 Y117.349 E9.87836
G1 X116.442 Y117.412 E9.88077
G1 X116.631 Y117.47 E9.88555
G1 X116.875 Y117.546 E9.89405
G1 X117.058 Y117.573 E9.9002
G1 X117.271 Y117.603 E9.90674
G1 X117.324 Y117.611 E9.90801
G1 X117.669 Y117.605 E9.91711
G1 X117.776 Y117.602 E9.92016
G1 X118.222 Y117.523 E9.93522
G1 X118.576 Y117.4 E9.94769
G1 X118.65 Y117.374 E9.9503
G1 X118.767 Y117.311 E9.95472
G1 X118.722 Y117.407 E9.95486
G1 X118.64 Y117.582 E9.95849
G1 X118.696 Y118.103 E9.974
G1 X118.705 Y118.182
G1 F2700 E4.974
G0 F6000 X119.534 Y119.004
G0 X119.982 Y119.731
G0 X120.182 Y120.56
G0 X120.127 Y121.246
G0 X119.755 Y122.4
G0 X119.773 Y122.797
;TYPE:WALL-OUTER
G1 F2700 E9.974
G1 F1200 X119.554 Y122.573 E9.98441
G1 X119.467 Y122.416 E9.99038
G1 X119.471 Y122.258 E9.99564
G1 X119.584 Y122.055 E10.00337
G1 X119.758 Y121.72 E10.01592
G1 X119.88 Y121.351 E10.02885
G1 X119.942 Y120.966 E10.04182
G1 X119.943 Y120.578 E10.05473
G1 X119.882 Y120.193 E10.06769
G1 X119.761 Y119.823 E10.08064
G1 X119.584 Y119.476 E10.09359
G1 X119.353 Y119.162 E10.10656
G1 X119.075 Y118.89 E10.1195
G1 X118.758 Y118.664 E10.13244
G1 X118.409 Y118.492 E10.14538
G1 X118.037 Y118.376 E10.15835
G1 X117.651 Y118.322 E10.17131
G1 X117.263 Y118.328 E10.18422
G1 X116.879 Y118.397 E10.19719
G1 X116.512 Y118.524 E10.21011
G1 X116.169 Y118.709 E10.22307
G1 X115.86 Y118.946 E10.23602
G1 X115.593 Y119.229 E10.24896
G1 X115.373 Y119.55 E10.26191
G1 X115.207 Y119.902 E10.27485
G1 X115.098 Y120.277 E10.28784
G1 X115.052 Y120.663 E10.30077
G1 X115.066 Y121.052 E10.31371
G1 X115.142 Y121.434 E10.32667
G1 X115.277 Y121.798 E10.33958
G1 X115.452 Y122.109 E10.35145
G1 X115.512 Y122.287 E10.3577
G1 X115.478 Y122.452 E10.3633
G1 X115.422 Y122.528 E10.36644
G1 X115.19 Y122.755 E10.37724
G1 X115.14 Y122.699 E10.37973
G1 X114.987 Y122.496 E10.38819
G1 X114.84 Y122.26 E10.39744
G1 X114.724 Y122.03 E10.406
G1 X114.621 Y121.774 E10.41518
G1 X114.549 Y121.535 E10.42348
G1 X114.492 Y121.267 E10.4326
G1 X114.459 Y120.994 E10.44174
G1 X114.45 Y120.738 E10.45026
G1 X114.465 Y120.461 E10.45949
G1 X114.5 Y120.215 E10.46775
G1 X114.565 Y119.939 E10.47719
G1 X114.642 Y119.702 E10.48547
G1 X114.754 Y119.44 E10.49495
G1 X114.872 Y119.22 E10.50325
G1 X115.027 Y118.982 E10.5127
G1 X115.18 Y118.787 E10.52094
G1 X115.374 Y118.58 E10.53038
G1 X115.569 Y118.406 E10.53907
G1 X115.794 Y118.215 E10.54889
G1 X115.95 Y117.881 E10.56115
G1 X115.909 Y117.502 E10.57383
G1 X115.702 Y117.229 E10.58522
G1 X115.462 Y117.032 E10.59555
G1 X115.271 Y116.844 E10.60446
G1 X115.098 Y116.642 E10.61331
G1 X114.939 Y116.419 E10.62242
G1 X114.805 Y116.19 E10.63124
G1 X114.688 Y115.945 E10.64027
