;FLAVOR:Marlin
;TIME:3006
;Filament used: 1.35243m
;Layer height: 0.2
;MINX:83.347
;MINY:78.789
;MINZ:0.2
;MAXX:151.656
;MAXY:156.207
;MAXZ:6.2
;Generated with Cura_SteamEngine 4.8.0
M140 S60
M105
M190 S60
M104 S190
M105
M109 S190
M82 ;absolute extrusion mode
; Ender 3 Custom Start G-code
G92 E0 ; Reset Extruder
G28 ; Home all axes
M420 S1  ; use saved bed leveling
G1 Z2.0 F3000 ; Move Z Axis up little to prevent scratching of Heat Bed
G1 X0.1 Y20 Z0.3 F5000.0 ; Move to start position
G1 X0.1 Y200.0 Z0.3 F1500.0 E15 ; Draw the first line
G1 X0.4 Y200.0 Z0.3 F5000.0 ; Move to side a little
G1 X0.4 Y20 Z0.3 F1500.0 E30 ; Draw the second line
G92 E0 ; Reset Extruder
G1 Z2.0 F3000 ; Move Z Axis up little to prevent scratching of Heat Bed
G1 X5 Y20 Z0.3 F5000.0 ; Move over to prevent blob squish
G92 E0
G92 E0
G1 F2700 E-5
;LAYER_COUNT:31
;LAYER:0
M107
G0 F6000 X106.955 Y85.566 Z0.2
;TYPE:SKIRT
G1 F2700 E0
G1 F1200 X107.568 Y84.856 E0.0312
G1 X108.24 Y84.201 E0.06241
G1 X108.964 Y83.606 E0.09358
G1 X109.737 Y83.074 E0.12479
G1 X110.552 Y82.61 E0.15598
G1 X111.404 Y82.218 E0.18717
G1 X112.632 Y81.796 E0.23036
G1 X113.033 Y81.686 E0.24419
G1 X115.009 Y81.163 E0.31218
G1 X117.509 Y80.426 E0.39887
G1 X118.753 Y80.03 E0.44229
G1 X119.417 Y79.813 E0.46552
G1 X120.009 Y79.637 E0.48606
G1 X120.186 Y79.59 E0.49215
G1 X120.579 Y79.494 E0.50561
G1 X120.919 Y79.417 E0.5172
G1 X121.701 Y79.269 E0.54368
G1 X121.899 Y79.239 E0.55034
G1 X122.59 Y79.157 E0.57348
G1 X122.819 Y79.137 E0.58113
G1 X123.524 Y79.098 E0.60461
G1 X124.762 Y79.07 E0.6458
G1 X127.397 Y78.973 E0.7335
G1 X129.573 Y78.828 E0.80603
G1 X130.137 Y78.799 E0.82481
G1 X130.375 Y78.789 E0.83274
G1 X131.313 Y78.804 E0.86394
G1 X132.246 Y78.898 E0.89513
G1 X133.167 Y79.072 E0.9263
G1 X133.742 Y79.223 E0.94608
G1 X134.079 Y79.321 E0.95775
G1 X134.405 Y79.421 E0.96909
G1 X134.562 Y79.472 E0.97458
G1 X134.876 Y79.579 E0.98561
G1 X135.339 Y79.745 E1.00197
G1 X135.86 Y79.947 E1.02056
G1 X136.402 Y80.173 E1.04009
G1 X137.04 Y80.463 E1.0634
G1 X137.445 Y80.663 E1.07842
G1 X138.267 Y81.114 E1.10961
G1 X138.89 Y81.52 E1.13434
G1 X139.285 Y81.797 E1.15039
G1 X139.62 Y82.042 E1.16419
G1 X140.045 Y82.365 E1.18195
G1 X142.206 Y83.958 E1.27124
G1 X143.059 Y84.55 E1.30577
G1 X143.267 Y84.708 E1.31446
G1 X144.312 Y85.438 E1.35686
G1 X145.025 Y85.981 E1.38667
G1 X145.228 Y86.149 E1.39543
G1 X145.766 Y86.624 E1.4193
G1 X145.927 Y86.776 E1.42666
G1 X146.475 Y87.331 E1.45261
G1 X146.634 Y87.504 E1.46042
G1 X147.188 Y88.156 E1.48888
G1 X147.345 Y88.356 E1.49733
G1 X147.684 Y88.813 E1.51626
G1 X147.777 Y88.945 E1.52163
G1 X148.186 Y89.568 E1.54642
G1 X148.395 Y89.912 E1.55981
G1 X148.844 Y90.727 E1.59075
G1 X149.197 Y91.437 E1.61713
G1 X149.479 Y92.051 E1.6396
G1 X149.561 Y92.245 E1.6466
G1 X149.731 Y92.67 E1.66183
G1 X149.855 Y93.004 E1.67368
G1 X150.096 Y93.687 E1.69777
G1 X150.2 Y93.996 E1.70861
G1 X150.279 Y94.243 E1.71724
G1 X150.452 Y94.842 E1.73797
G1 X150.738 Y95.949 E1.776
G1 X150.836 Y96.361 E1.79009
G1 X151.003 Y97.128 E1.8162
G1 X151.081 Y97.518 E1.82942
G1 X151.213 Y98.251 E1.8542
G1 X151.273 Y98.622 E1.8667
G1 X151.385 Y99.394 E1.89264
G1 X151.435 Y99.787 E1.90582
G1 X151.541 Y100.764 E1.9385
G1 X151.573 Y101.106 E1.94993
G1 X151.605 Y101.522 E1.96381
G1 X151.631 Y102.006 E1.97993
G1 X151.648 Y102.525 E1.9972
G1 X151.654 Y102.803 E2.00645
G1 X151.656 Y103.072 E2.01539
G1 X151.653 Y103.411 E2.02667
G1 X151.645 Y103.753 E2.03805
G1 X151.633 Y104.074 E2.04873
G1 X151.624 Y104.245 E2.05443
G1 X151.588 Y104.722 E2.07034
G1 X151.551 Y105.106 E2.08317
G1 X151.482 Y105.67 E2.10207
G1 X151.464 Y105.791 E2.10614
G1 X151.345 Y106.452 E2.12847
G1 X151.27 Y106.806 E2.14051
G1 X150.945 Y108.005 E2.18183
G1 X150.864 Y108.248 E2.19035
G1 X150.521 Y109.143 E2.22223
G1 X150.417 Y109.383 E2.23093
G1 X150.246 Y109.759 E2.24466
G1 X150.201 Y109.853 E2.24813
G1 X149.985 Y110.279 E2.26402
G1 X149.889 Y110.459 E2.2708
G1 X149.715 Y110.774 E2.28277
G1 X149.59 Y110.991 E2.2911
G1 X149.437 Y111.247 E2.30102
G1 X149.205 Y111.626 E2.3158
G1 X147.777 Y113.912 E2.40545
G1 X146.517 Y116.062 E2.48833
G1 X145.311 Y118.258 E2.57166
G1 X144.154 Y120.518 E2.65611
G1 X143.065 Y122.797 E2.74011
G1 X142.06 Y125.065 E2.82262
G1 X141.089 Y127.434 E2.90778
G1 X140.208 Y129.771 E2.99085
G1 X139.402 Y132.108 E3.07307
G1 X138.643 Y134.565 E3.1586
G1 X138.414 Y135.287 E3.18379
G1 X138.093 Y136.168 E3.21498
G1 X137.808 Y136.8 E3.23804
G1 X136.69 Y139.198 E3.32604
G1 X135.833 Y141.173 E3.39764
G1 X135.343 Y142.341 E3.43977
G1 X134.921 Y143.233 E3.47259
G1 X134.822 Y143.42 E3.47963
G1 X134.621 Y143.784 E3.49346
G1 X134.308 Y144.304 E3.51365
G1 X133.913 Y144.921 E3.53801
G1 X133.539 Y145.485 E3.56052
G1 X133.267 Y145.891 E3.57678
G1 X133.084 Y146.156 E3.58749
G1 X132.542 Y146.916 E3.61853
G1 X132.357 Y147.168 E3.62893
G1 X132.248 Y147.312 E3.63494
G1 X130.73 Y149.363 E3.71981
G1 X129.237 Y151.503 E3.80659
G1 X128.669 Y152.248 E3.83775
G1 X128.038 Y152.943 E3.86897
G1 X127.351 Y153.581 E3.90016
G1 X126.612 Y154.159 E3.93136
G1 X125.827 Y154.671 E3.96253
G1 X125 Y155.115 E3.99375
G1 X124.139 Y155.486 E4.02494
G1 X123.25 Y155.783 E4.05611
G1 X122.338 Y156.003 E4.08731
G1 X121.411 Y156.145 E4.11851
G1 X120.475 Y156.207 E4.14971
G1 X119.537 Y156.189 E4.18091
G1 X118.605 Y156.091 E4.21208
G1 X117.683 Y155.915 E4.2433
G1 X116.781 Y155.66 E4.27447
G1 X116.244 Y155.468 E4.29344
G1 X113.672 Y154.472 E4.38518
G1 X111.734 Y153.779 E4.45363
G1 X110.942 Y153.507 E4.48149
G1 X110.324 Y153.274 E4.50345
G1 X109.49 Y152.929 E4.53347
G1 X108.402 Y152.466 E4.5728
G1 X106.032 Y151.534 E4.6575
G1 X104.908 Y151.122 E4.69732
G1 X104.042 Y150.762 E4.72851
G1 X103.21 Y150.33 E4.75969
G1 X102.357 Y149.785 E4.79336
G1 X102.093 Y149.599 E4.8041
G1 X101.35 Y149.027 E4.83529
G1 X100.658 Y148.393 E4.8665
G1 X99.784 Y147.41 E4.91025
G1 X99.193 Y146.659 E4.94204
G1 X98.848 Y146.207 E4.96095
G1 X98.539 Y145.779 E4.97851
G1 X98.357 Y145.514 E4.9892
G1 X97.851 Y144.705 E5.02094
G1 X97.792 Y144.601 E5.02491
G1 X96.486 Y142.376 E5.11072
G1 X95.139 Y140.223 E5.19519
G1 X93.746 Y138.132 E5.27876
G1 X92.312 Y136.104 E5.36137
G1 X90.771 Y134.051 E5.44675
G1 X89.222 Y132.104 E5.5295
G1 X88.002 Y130.648 E5.59268
G1 X87.745 Y130.347 E5.60584
G1 X87.337 Y129.839 E5.62751
G1 X87.064 Y129.478 E5.64257
G1 X86.531 Y128.706 E5.67377
G1 X86.15 Y128.053 E5.69892
G1 X85.837 Y127.471 E5.72089
G1 X85.521 Y126.834 E5.74455
G1 X85.457 Y126.694 E5.74967
G1 X85.324 Y126.391 E5.76067
G1 X85.185 Y126.061 E5.77258
G1 X85.014 Y125.632 E5.78794
G1 X84.875 Y125.259 E5.80118
G1 X84.764 Y124.946 E5.81223
G1 X84.57 Y124.373 E5.83235
G1 X84.49 Y124.128 E5.84092
G1 X84.225 Y123.277 E5.87056
G1 X84.097 Y122.847 E5.88549
G1 X83.986 Y122.457 E5.89897
G1 X83.865 Y122.005 E5.91454
G1 X83.801 Y121.747 E5.92338
G1 X83.719 Y121.4 E5.93524
G1 X83.613 Y120.903 E5.95214
G1 X83.569 Y120.669 E5.96006
G1 X83.427 Y119.654 E5.99415
G1 X83.394 Y119.299 E6.006
G1 X83.347 Y118.362 E6.03721
G1 X83.419 Y117.029 E6.08161
G1 X83.48 Y116.553 E6.09757
G1 X83.51 Y116.353 E6.1043
G1 X83.688 Y115.433 E6.13546
G1 X83.945 Y114.53 E6.16669
G1 X84.115 Y114.053 E6.18353
G1 X84.208 Y113.81 E6.19219
G1 X84.58 Y112.949 E6.22338
G1 X85.024 Y112.123 E6.25457
G1 X85.537 Y111.338 E6.28576
G1 X86.115 Y110.6 E6.31694
G1 X86.754 Y109.913 E6.34815
G1 X87.193 Y109.503 E6.36812
G1 X88.073 Y108.725 E6.40719
G1 X90.037 Y106.94 E6.49546
G1 X91.822 Y105.223 E6.57784
G1 X93.601 Y103.411 E6.6623
G1 X95.306 Y101.575 E6.74563
G1 X96.975 Y99.669 E6.8299
G1 X98.569 Y97.744 E6.91302
G1 X100.133 Y95.743 E6.9975
G1 X101.613 Y93.734 E7.08049
G1 X103.061 Y91.648 E7.16495
G1 X104.429 Y89.553 E7.24817
G1 X105.841 Y87.245 E7.33816
G1 X106.089 Y86.825 E7.35438
G1 X106.6 Y86.039 E7.38556
G1 X106.955 Y85.566 E7.40523
G0 F6000 X107.269 Y85.815
G1 F1200 X107.871 Y85.118 E7.43586
G1 X108.532 Y84.477 E7.46649
G1 X109.245 Y83.895 E7.4971
G1 X110.007 Y83.377 E7.52775
G1 X110.81 Y82.928 E7.55835
G1 X111.65 Y82.55 E7.58898
G1 X112.739 Y82.182 E7.62721
G1 X113.135 Y82.073 E7.64088
G1 X115.119 Y81.548 E7.70913
G1 X117.602 Y80.816 E7.79523
G1 X118.874 Y80.411 E7.83963
G1 X119.541 Y80.193 E7.86297
G1 X120.112 Y80.024 E7.88278
G1 X120.289 Y79.977 E7.88887
G1 X120.668 Y79.884 E7.90185
G1 X121.008 Y79.807 E7.91344
G1 X121.761 Y79.665 E7.93893
G1 X121.959 Y79.635 E7.94559
G1 X122.625 Y79.555 E7.9679
G1 X122.854 Y79.535 E7.97555
G1 X123.534 Y79.498 E7.9982
G1 X124.785 Y79.469 E8.03982
G1 X127.405 Y79.373 E8.12702
G1 X129.6 Y79.227 E8.20018
G1 X130.156 Y79.199 E8.2187
G1 X130.156 Y79.206 E8.21893
G1 X130.42 Y79.188 E8.22773
G1 X131.34 Y79.206 E8.25834
G1 X132.255 Y79.304 E8.28895
G1 X133.159 Y79.481 E8.31958
G1 X133.63 Y79.607 E8.3358
G1 X133.967 Y79.705 E8.34747
G1 X134.282 Y79.802 E8.35844
G1 X134.439 Y79.853 E8.36393
G1 X134.741 Y79.956 E8.37454
G1 X135.204 Y80.122 E8.3909
G1 X135.706 Y80.316 E8.4088
G1 X136.248 Y80.542 E8.42833
G1 X136.862 Y80.822 E8.45078
G1 X137.267 Y81.022 E8.4658
G1 X138.074 Y81.465 E8.49642
G1 X138.66 Y81.847 E8.51968
G1 X139.055 Y82.124 E8.53573
G1 X139.378 Y82.36 E8.54903
G1 X139.868 Y82.732 E8.5695
G1 X141.969 Y84.281 E8.65632
G1 X142.831 Y84.879 E8.69121
G1 X143.031 Y85.031 E8.69956
G1 X144.083 Y85.766 E8.74225
G1 X144.77 Y86.289 E8.77097
G1 X144.973 Y86.457 E8.77973
G1 X145.492 Y86.915 E8.80275
G1 X145.653 Y87.067 E8.81012
G1 X146.18 Y87.602 E8.83509
G1 X146.339 Y87.775 E8.84291
G1 X146.873 Y88.403 E8.87033
G1 X147.03 Y88.603 E8.87878
G1 X147.357 Y89.043 E8.89702
G1 X147.45 Y89.175 E8.90239
G1 X147.844 Y89.776 E8.92629
G1 X148.053 Y90.12 E8.93968
G1 X148.486 Y90.905 E8.96949
G1 X148.839 Y91.615 E8.99587
G1 X149.111 Y92.207 E9.01754
G1 X149.193 Y92.401 E9.02454
G1 X149.306 Y92.679 E9.03452
G1 X149.359 Y92.815 E9.03938
G1 X149.478 Y93.137 E9.05079
G1 X149.719 Y93.82 E9.07488
G1 X149.819 Y94.118 E9.08534
G1 X149.898 Y94.365 E9.09396
G1 X150.065 Y94.942 E9.11394
G1 X150.351 Y96.049 E9.15197
G1 X150.445 Y96.446 E9.16554
G1 X150.612 Y97.213 E9.19165
G1 X150.687 Y97.589 E9.2044
G1 X150.819 Y98.322 E9.22917
G1 X150.877 Y98.679 E9.2412
G1 X150.989 Y99.451 E9.26715
G1 X151.037 Y99.83 E9.27985
G1 X151.143 Y100.807 E9.31254
G1 X151.174 Y101.137 E9.32356
G1 X151.206 Y101.553 E9.33744
G1 X151.231 Y102.019 E9.35296
G1 X151.248 Y102.538 E9.37023
G1 X151.254 Y102.806 E9.37915
G1 X151.256 Y103.075 E9.3881
G1 X151.253 Y103.402 E9.39897
G1 X151.245 Y103.744 E9.41035
G1 X151.233 Y104.053 E9.42064
G1 X151.224 Y104.224 E9.42633
G1 X151.19 Y104.684 E9.44167
G1 X151.153 Y105.068 E9.4545
G1 X151.087 Y105.611 E9.4727
G1 X151.069 Y105.732 E9.47677
G1 X150.954 Y106.369 E9.49829
G1 X150.879 Y106.723 E9.51033
G1 X150.565 Y107.878 E9.55014
G1 X150.484 Y108.121 E9.55866
G1 X150.154 Y108.984 E9.58939
G1 X150.05 Y109.224 E9.59809
G1 X149.885 Y109.586 E9.61132
G1 X149.84 Y109.68 E9.61479
G1 X149.632 Y110.091 E9.63011
G1 X149.536 Y110.271 E9.63689
G1 X149.368 Y110.574 E9.64842
G1 X149.243 Y110.791 E9.65675
G1 X149.096 Y111.038 E9.66631
G1 X148.865 Y111.414 E9.68098
G1 X147.45 Y113.678 E9.76978
G1 X146.171 Y115.862 E9.85396
G1 X144.948 Y118.089 E9.93847
G1 X143.794 Y120.341 E10.02263
G1 X142.708 Y122.615 E10.10645
G1 X141.69 Y124.914 E10.19007
G1 X140.721 Y127.278 E10.27505
G1 X139.832 Y129.636 E10.35886
G1 X139.018 Y131.995 E10.44186
G1 X138.262 Y134.444 E10.52711
G1 X138.033 Y135.166 E10.5523
G1 X137.717 Y136.03 E10.5829
G1 X137.448 Y136.624 E10.60459
G1 X136.332 Y139.018 E10.69244
G1 X135.464 Y141.019 E10.76499
G1 X134.974 Y142.187 E10.80712
G1 X134.567 Y143.046 E10.83873
G1 X134.468 Y143.233 E10.84577
G1 X134.272 Y143.588 E10.85926
G1 X133.971 Y144.089 E10.87869
G1 X133.579 Y144.7 E10.90284
G1 X133.206 Y145.263 E10.9253
G1 X132.934 Y145.669 E10.94156
G1 X132.758 Y145.924 E10.95186
G1 X132.216 Y146.684 E10.98291
G1 X132.038 Y146.927 E10.99293
G1 X131.929 Y147.071 E10.99893
G1 X130.396 Y149.142 E11.08463
G1 X128.909 Y151.274 E11.17109
G1 X128.35 Y152.005 E11.2017
G1 X127.73 Y152.686 E11.23233
G1 X127.053 Y153.309 E11.26293
G1 X126.324 Y153.872 E11.29356
G1 X125.55 Y154.37 E11.32417
G1 X124.735 Y154.798 E11.35479
G1 X123.886 Y155.154 E11.38541
G1 X123.009 Y155.435 E11.41604
G1 X122.111 Y155.639 E11.44667
G1 X121.199 Y155.764 E11.47729
G1 X120.28 Y155.81 E11.50789
G1 X119.36 Y155.775 E11.53851
G1 X118.446 Y155.661 E11.56915
G1 X117.546 Y155.468 E11.59976
G1 X116.388 Y155.095 E11.64023
G1 X113.789 Y154.089 E11.73292
G1 X111.92 Y153.421 E11.79893
G1 X111.072 Y153.129 E11.82876
G1 X110.477 Y152.904 E11.84992
G1 X109.646 Y152.561 E11.87982
G1 X108.544 Y152.092 E11.91966
G1 X106.153 Y151.152 E12.00511
G1 X105.046 Y150.746 E12.04432
G1 X104.196 Y150.392 E12.07495
G1 X103.38 Y149.966 E12.10556
G1 X102.587 Y149.458 E12.13689
G1 X102.323 Y149.272 E12.14763
G1 X101.594 Y148.71 E12.17824
G1 X100.917 Y148.086 E12.20887
G1 X100.098 Y147.162 E12.24993
G1 X99.397 Y146.269 E12.28769
G1 X99.166 Y145.965 E12.30039
G1 X98.868 Y145.553 E12.3173
G1 X98.686 Y145.288 E12.328
G1 X98.199 Y144.508 E12.35858
G1 X98.142 Y144.407 E12.36244
G1 X96.827 Y142.168 E12.4488
G1 X95.478 Y140.012 E12.53339
G1 X94.078 Y137.91 E12.61739
G1 X92.625 Y135.855 E12.7011
G1 X91.088 Y133.808 E12.78624
G1 X89.517 Y131.833 E12.87017
G1 X88.28 Y130.357 E12.93423
G1 X88.05 Y130.087 E12.94602
G1 X87.656 Y129.598 E12.96691
G1 X87.383 Y129.237 E12.98196
G1 X86.86 Y128.479 E13.01259
G1 X86.502 Y127.864 E13.03626
G1 X86.189 Y127.282 E13.05824
G1 X85.885 Y126.668 E13.08103
G1 X85.692 Y126.236 E13.09677
G1 X85.553 Y125.906 E13.10868
G1 X85.389 Y125.492 E13.12349
G1 X85.25 Y125.119 E13.13673
G1 X85.143 Y124.817 E13.14738
G1 X84.949 Y124.244 E13.1675
G1 X84.872 Y124.009 E13.17573
G1 X84.608 Y123.162 E13.20524
G1 X84.482 Y122.738 E13.21995
G1 X84.312 Y122.133 E13.24085
G1 X84.252 Y121.904 E13.24872
G1 X84.19 Y121.655 E13.25726
G1 X84.108 Y121.308 E13.26912
G1 X84.007 Y120.829 E13.2854
G1 X83.963 Y120.595 E13.29332
G1 X83.826 Y119.617 E13.32616
G1 X83.793 Y119.262 E13.33802
G1 X83.747 Y118.343 E13.36863
G1 X83.816 Y117.074 E13.4109
G1 X83.875 Y116.613 E13.42635
G1 X83.905 Y116.413 E13.43308
G1 X84.081 Y115.509 E13.46371
G1 X84.488 Y114.196 E13.50943
G1 X84.581 Y113.953 E13.51809
G1 X84.947 Y113.108 E13.54872
G1 X85.385 Y112.299 E13.57931
G1 X85.892 Y111.53 E13.60995
G1 X86.463 Y110.808 E13.64057
G1 X87.095 Y110.139 E13.67117
G1 X87.458 Y109.802 E13.68765
G1 X88.364 Y109 E13.72789
G1 X90.3 Y107.241 E13.81489
G1 X92.12 Y105.491 E13.89887
G1 X93.895 Y103.683 E13.98314
G1 X95.6 Y101.847 E14.06648
G1 X97.268 Y99.943 E14.15067
G1 X98.903 Y97.967 E14.23597
G1 X100.45 Y95.987 E14.31954
G1 X101.936 Y93.971 E14.40284
G1 X103.392 Y91.873 E14.48778
G1 X104.755 Y89.787 E14.57066
G1 X106.201 Y87.423 E14.66283
G1 X106.433 Y87.029 E14.67804
G1 X106.935 Y86.257 E14.70866
G1 X107.269 Y85.815 E14.72709
G0 F6000 X107.583 Y86.063
G1 F1200 X108.174 Y85.38 E14.75713
G1 X108.824 Y84.753 E14.78717
G1 X109.526 Y84.185 E14.8172
G1 X110.276 Y83.682 E14.84724
G1 X111.067 Y83.247 E14.87726
G1 X111.894 Y82.883 E14.90732
G1 X112.846 Y82.567 E14.94068
G1 X113.237 Y82.459 E14.95417
G1 X115.262 Y81.923 E15.02384
G1 X117.709 Y81.201 E15.1087
G1 X118.937 Y80.811 E15.15155
G1 X119.665 Y80.573 E15.17703
G1 X120.214 Y80.411 E15.19606
G1 X120.391 Y80.364 E15.20215
G1 X120.756 Y80.274 E15.21466
G1 X121.096 Y80.197 E15.22625
G1 X121.821 Y80.06 E15.25079
G1 X122.019 Y80.03 E15.25745
G1 X122.66 Y79.954 E15.27892
G1 X122.889 Y79.934 E15.28657
G1 X123.543 Y79.898 E15.30835
G1 X124.81 Y79.869 E15.35051
G1 X127.411 Y79.773 E15.43707
G1 X129.626 Y79.626 E15.51091
G1 X130.175 Y79.599 E15.52919
G1 X130.175 Y79.606 E15.52942
G1 X130.463 Y79.587 E15.53902
G1 X131.366 Y79.609 E15.56906
G1 X132.264 Y79.71 E15.59912
G1 X133.518 Y79.991 E15.64186
G1 X133.855 Y80.089 E15.65354
G1 X134.158 Y80.182 E15.66408
G1 X134.315 Y80.233 E15.66957
G1 X134.606 Y80.332 E15.67979
G1 X135.069 Y80.498 E15.69615
G1 X135.553 Y80.686 E15.71342
G1 X136.095 Y80.912 E15.73295
G1 X136.685 Y81.18 E15.75451
G1 X137.09 Y81.38 E15.76953
G1 X137.882 Y81.816 E15.7996
G1 X138.43 Y82.175 E15.82139
G1 X138.825 Y82.452 E15.83743
G1 X139.136 Y82.679 E15.85024
G1 X139.595 Y83.027 E15.8694
G1 X141.727 Y84.599 E15.9575
