;FLAVOR:Marlin
;TIME:1067
;Filament used: 0.158536m
;Layer height: 0.12
;MINX:35.865
;MINY:102.423
;MINZ:0.12
;MAXX:180.821
;MAXY:132.174
;MAXZ:11.35
;Generated with Cura_SteamEngine 4.10.0
M140 S50
M105
M190 S50
M104 S200
M105
M109 S200
M82 ;absolute extrusion mode
; Ender 3 Custom Start G-code
G92 E0 ; Reset Extruder
G28 ; Home all axes
M420 S1  ; use saved bed leveling
G1 Z2.0 F3000 ; Move Z Axis up little to prevent scratching of Heat Bed
G1 X0.1 Y20 Z0.3 F5000.0 ; Move to start position
G1 X0.1 Y200.0 Z0.3 F1500.0 E15 ; Draw the first line
G1 X0.4 Y200.0 Z0.3 F5000.0 ; Move to side a little
G1 X0.4 Y20 Z0.3 F1500.0 E30 ; Draw the second line
G92 E0 ; Reset Extruder
G1 Z2.0 F3000 ; Move Z Axis up little to prevent scratching of Heat Bed
G1 X5 Y20 Z0.3 F5000.0 ; Move over to prevent blob squish
G92 E0
G92 E0
G1 F2700 E-5
;LAYER_COUNT:53
;LAYER:0
M107
G0 F6000 X42.765 Y107.442 Z0.12
;TYPE:SKIRT
G1 F2700 E0
G1 F1200 X43.645 Y107.117 E0.01872
G1 X44.675 Y106.84 E0.04001
G1 X44.721 Y106.83 E0.04095
G1 X45.508 Y106.689 E0.0569
G1 X46.519 Y106.546 E0.07728
G1 X47.52 Y106.418 E0.09742
G1 X49.994 Y106.028 E0.1474
G1 X52.486 Y105.564 E0.19798
G1 X54.938 Y105.035 E0.24804
G1 X57.4 Y104.429 E0.29864
G1 X59.282 Y103.929 E0.3375
G1 X59.828 Y103.799 E0.3487
G1 X60.036 Y103.755 E0.35294
G1 X60.688 Y103.638 E0.36616
G1 X60.842 Y103.615 E0.36927
G1 X61.503 Y103.536 E0.38255
G1 X61.753 Y103.514 E0.38756
G1 X62.542 Y103.473 E0.40333
G1 X62.794 Y103.469 E0.40836
G1 X63.523 Y103.482 E0.42291
G1 X63.741 Y103.493 E0.42726
G1 X64.887 Y103.611 E0.45025
G1 X65.328 Y103.68 E0.45916
G1 X66.502 Y103.93 E0.48312
G1 X66.805 Y104.012 E0.48938
G1 X67.776 Y104.324 E0.50973
G1 X68.036 Y104.421 E0.51527
G1 X68.995 Y104.831 E0.53609
G1 X69.304 Y104.981 E0.54294
G1 X70.2 Y105.469 E0.5633
G1 X70.474 Y105.635 E0.56969
G1 X71.388 Y106.254 E0.59172
G1 X71.679 Y106.473 E0.59899
G1 X72.417 Y107.079 E0.61805
G1 X72.545 Y107.194 E0.62148
G1 X73.172 Y107.805 E0.63895
G1 X73.432 Y108.079 E0.64649
G1 X74.061 Y108.803 E0.66563
G1 X74.205 Y108.984 E0.67024
G1 X74.85 Y109.884 E0.69234
G1 X74.895 Y109.954 E0.694
G1 X75.368 Y110.763 E0.7127
G1 X75.77 Y111.611 E0.73143
G1 X76.099 Y112.489 E0.75014
G1 X76.352 Y113.392 E0.76886
G1 X76.527 Y114.314 E0.78759
G1 X76.622 Y115.247 E0.8063
G1 X76.642 Y115.867 E0.81868
G1 X76.646 Y117.222 E0.84572
G1 X76.634 Y119.027 E0.88174
G1 X76.641 Y119.61 E0.89338
G1 X76.613 Y120.547 E0.91208
G1 X76.505 Y121.479 E0.93081
G1 X76.318 Y122.398 E0.94952
G1 X76.054 Y123.298 E0.96824
G1 X75.714 Y124.172 E0.98696
G1 X75.3 Y125.013 E1.00566
G1 X74.817 Y125.817 E1.02438
G1 X74.406 Y126.397 E1.03856
G1 X74.252 Y126.6 E1.04365
G1 X73.776 Y127.184 E1.05868
G1 X73.639 Y127.341 E1.06284
G1 X73.067 Y127.949 E1.0795
G1 X72.878 Y128.135 E1.08479
G1 X72.355 Y128.617 E1.09899
G1 X72.178 Y128.77 E1.10366
G1 X71.585 Y129.248 E1.11886
G1 X71.441 Y129.356 E1.12245
G1 X70.653 Y129.895 E1.1415
G1 X70.322 Y130.101 E1.14928
G1 X69.341 Y130.645 E1.17167
G1 X69.028 Y130.798 E1.17862
G1 X68.001 Y131.236 E1.2009
G1 X67.708 Y131.344 E1.20713
G1 X67.055 Y131.562 E1.22087
G1 X66.958 Y131.591 E1.22289
G1 X66.269 Y131.773 E1.23711
G1 X65.925 Y131.852 E1.24416
G1 X65.04 Y132.017 E1.26212
G1 X64.895 Y132.038 E1.26504
G1 X64.328 Y132.106 E1.27644
G1 X64.111 Y132.126 E1.28079
G1 X63.409 Y132.168 E1.29482
G1 X63.195 Y132.174 E1.2991
G1 X62.394 Y132.167 E1.31508
G1 X62.082 Y132.153 E1.32131
G1 X60.923 Y132.039 E1.34455
G1 X60.607 Y131.991 E1.35093
G1 X60.195 Y131.921 E1.35927
G1 X60.106 Y131.904 E1.36108
G1 X59.606 Y131.796 E1.37129
G1 X59.364 Y131.738 E1.37626
G1 X59.064 Y131.662 E1.38243
G1 X58.407 Y131.485 E1.39601
G1 X58.24 Y131.446 E1.39943
G1 X56.333 Y130.945 E1.43878
G1 X53.854 Y130.366 E1.48958
G1 X51.408 Y129.87 E1.53939
G1 X48.935 Y129.44 E1.58948
G1 X46.187 Y129.043 E1.64489
G1 X45.627 Y128.971 E1.65616
G1 X44.702 Y128.811 E1.67489
G1 X43.795 Y128.574 E1.6936
G1 X42.911 Y128.26 E1.71232
G1 X42.057 Y127.872 E1.73104
G1 X41.24 Y127.412 E1.74975
G1 X40.449 Y126.874 E1.76884
G1 X40.287 Y126.753 E1.77287
G1 X39.561 Y126.16 E1.79158
G1 X38.887 Y125.508 E1.81029
G1 X38.271 Y124.8 E1.82902
G1 X37.718 Y124.043 E1.84773
G1 X37.232 Y123.241 E1.86645
G1 X36.815 Y122.401 E1.88516
G1 X36.472 Y121.528 E1.90388
G1 X36.204 Y120.629 E1.9226
G1 X36.013 Y119.711 E1.94131
G1 X35.885 Y118.51 E1.96541
G1 X35.874 Y118.298 E1.96965
G1 X35.865 Y117.36 E1.98837
G1 X35.936 Y116.425 E2.00708
G1 X36.087 Y115.499 E2.02581
G1 X36.316 Y114.59 E2.04451
G1 X36.622 Y113.703 E2.06324
G1 X37.002 Y112.846 E2.08195
G1 X37.454 Y112.024 E2.10067
G1 X37.974 Y111.243 E2.11939
G1 X38.558 Y110.51 E2.13809
G1 X39.462 Y109.586 E2.16389
G1 X39.615 Y109.447 E2.16802
G1 X40.336 Y108.847 E2.18673
G1 X41.105 Y108.31 E2.20545
G1 X41.917 Y107.84 E2.22417
G1 X42.765 Y107.442 E2.24287
G0 F6000 X42.982 Y107.785
G1 F1200 X43.848 Y107.472 E2.26124
G1 X44.76 Y107.231 E2.28007
G1 X44.806 Y107.221 E2.28101
G1 X45.564 Y107.085 E2.29638
G1 X46.57 Y106.943 E2.31665
G1 X47.562 Y106.816 E2.33661
G1 X50.058 Y106.423 E2.38703
G1 X52.579 Y105.953 E2.43821
G1 X55.014 Y105.428 E2.48792
G1 X57.54 Y104.806 E2.53983
G1 X59.385 Y104.316 E2.57793
G1 X59.911 Y104.19 E2.58872
G1 X60.119 Y104.146 E2.59297
G1 X60.747 Y104.033 E2.6057
G1 X60.901 Y104.01 E2.60881
G1 X61.538 Y103.935 E2.62161
G1 X61.788 Y103.913 E2.62662
G1 X62.549 Y103.873 E2.64182
G1 X62.801 Y103.869 E2.64685
G1 X63.503 Y103.881 E2.66086
G1 X63.721 Y103.892 E2.66522
G1 X64.826 Y104.006 E2.68739
G1 X65.267 Y104.075 E2.6963
G1 X66.397 Y104.316 E2.71935
G1 X66.7 Y104.398 E2.72562
G1 X67.636 Y104.699 E2.74524
G1 X67.896 Y104.796 E2.75078
G1 X68.82 Y105.191 E2.77083
G1 X69.129 Y105.341 E2.77769
G1 X69.993 Y105.811 E2.79731
G1 X70.267 Y105.977 E2.80371
G1 X71.148 Y106.573 E2.82493
G1 X71.439 Y106.792 E2.8322
G1 X72.149 Y107.377 E2.85056
G1 X72.277 Y107.492 E2.85399
G1 X72.882 Y108.081 E2.87084
G1 X73.142 Y108.355 E2.87838
G1 X73.748 Y109.052 E2.89681
G1 X73.892 Y109.233 E2.90143
G1 X74.513 Y110.1 E2.92271
G1 X74.558 Y110.17 E2.92437
G1 X75.022 Y110.965 E2.94274
G1 X75.415 Y111.798 E2.96112
G1 X75.734 Y112.661 E2.97948
G1 X75.978 Y113.549 E2.99786
G1 X76.143 Y114.455 E3.01624
G1 X76.229 Y115.372 E3.03462
G1 X76.242 Y115.868 E3.04452
G1 X76.246 Y117.219 E3.07148
G1 X76.234 Y119.029 E3.1076
G1 X76.241 Y119.615 E3.1193
G1 X76.213 Y120.535 E3.13767
G1 X76.105 Y121.449 E3.15603
G1 X75.918 Y122.351 E3.17442
G1 X75.653 Y123.232 E3.19277
G1 X75.313 Y124.088 E3.21116
G1 X74.9 Y124.911 E3.22953
G1 X74.417 Y125.695 E3.24791
G1 X74.087 Y126.155 E3.25921
G1 X73.933 Y126.358 E3.26429
G1 X73.475 Y126.921 E3.27877
G1 X73.338 Y127.078 E3.28293
G1 X72.786 Y127.664 E3.299
G1 X72.597 Y127.85 E3.30429
G1 X72.094 Y128.314 E3.31795
G1 X71.917 Y128.467 E3.32261
G1 X71.345 Y128.928 E3.33728
G1 X71.201 Y129.036 E3.34087
G1 X70.442 Y129.555 E3.35922
G1 X70.111 Y129.761 E3.367
G1 X69.165 Y130.285 E3.38858
G1 X68.852 Y130.438 E3.39553
G1 X67.863 Y130.861 E3.417
G1 X67.57 Y130.969 E3.42323
G1 X66.94 Y131.179 E3.43648
G1 X66.843 Y131.208 E3.4385
G1 X66.18 Y131.383 E3.45218
G1 X65.836 Y131.462 E3.45923
G1 X64.982 Y131.622 E3.47657
G1 X64.837 Y131.643 E3.47949
G1 X64.291 Y131.707 E3.49046
G1 X64.074 Y131.727 E3.49481
G1 X63.398 Y131.768 E3.50833
G1 X63.184 Y131.774 E3.5126
G1 X62.412 Y131.767 E3.528
G1 X62.1 Y131.753 E3.53424
G1 X60.983 Y131.644 E3.55663
G1 X60.667 Y131.596 E3.56301
G1 X60.181 Y131.511 E3.57286
G1 X59.699 Y131.407 E3.5827
G1 X59.457 Y131.349 E3.58766
G1 X59.168 Y131.275 E3.59362
G1 X58.441 Y131.079 E3.60864
G1 X58.342 Y131.059 E3.61066
G1 X56.42 Y130.554 E3.65032
G1 X53.959 Y129.979 E3.70075
G1 X51.478 Y129.476 E3.75127
G1 X48.995 Y129.044 E3.80157
G1 X46.229 Y128.645 E3.85734
G1 X45.678 Y128.574 E3.86842
G1 X44.771 Y128.417 E3.88679
G1 X43.88 Y128.182 E3.90518
G1 X43.014 Y127.87 E3.92355
G1 X42.178 Y127.484 E3.94193
G1 X41.379 Y127.028 E3.96028
G1 X40.689 Y126.554 E3.97699
G1 X40.527 Y126.433 E3.98103
G1 X39.814 Y125.85 E3.99941
G1 X39.154 Y125.208 E4.01778
G1 X38.552 Y124.511 E4.03616
G1 X38.014 Y123.765 E4.05451
G1 X37.542 Y122.974 E4.0729
G1 X37.14 Y122.146 E4.09126
G1 X36.812 Y121.286 E4.10963
G1 X36.559 Y120.4 E4.12802
G1 X36.385 Y119.496 E4.14639
G1 X36.284 Y118.489 E4.16659
G1 X36.273 Y118.277 E4.17082
G1 X36.266 Y117.357 E4.18918
G1 X36.338 Y116.439 E4.20756
G1 X36.489 Y115.531 E4.22593
G1 X36.719 Y114.639 E4.24431
G1 X37.025 Y113.771 E4.26268
G1 X37.406 Y112.933 E4.28105
G1 X37.857 Y112.13 E4.29943
G1 X38.377 Y111.37 E4.31781
G1 X38.961 Y110.658 E4.33618
G1 X39.731 Y109.882 E4.358
G1 X39.884 Y109.743 E4.36212
G1 X40.592 Y109.154 E4.3805
G1 X41.348 Y108.629 E4.39887
G1 X42.147 Y108.171 E4.41725
G1 X42.982 Y107.785 E4.43561
G0 F6000 X43.198 Y108.129
G1 F1200 X44.05 Y107.829 E4.45363
G1 X44.845 Y107.622 E4.47003
G1 X44.891 Y107.612 E4.47097
G1 X45.62 Y107.481 E4.48575
G1 X46.621 Y107.339 E4.50592
G1 X47.638 Y107.209 E4.52638
G1 X50.163 Y106.811 E4.57739
G1 X52.625 Y106.353 E4.62737
G1 X55.096 Y105.819 E4.67782
G1 X57.666 Y105.186 E4.73064
G1 X59.487 Y104.703 E4.76824
G1 X59.994 Y104.582 E4.77864
G1 X60.202 Y104.538 E4.78288
G1 X60.806 Y104.429 E4.79513
G1 X60.96 Y104.406 E4.79824
G1 X61.573 Y104.333 E4.81056
G1 X61.823 Y104.311 E4.81556
G1 X62.555 Y104.273 E4.83019
G1 X62.807 Y104.269 E4.83522
G1 X63.483 Y104.281 E4.84871
G1 X63.701 Y104.292 E4.85307
G1 X64.764 Y104.402 E4.8744
G1 X65.205 Y104.471 E4.8833
G1 X66.293 Y104.702 E4.9055
G1 X66.596 Y104.784 E4.91176
G1 X67.496 Y105.073 E4.93063
G1 X67.756 Y105.17 E4.93617
G1 X68.645 Y105.551 E4.95547
G1 X68.954 Y105.701 E4.96232
G1 X69.785 Y106.153 E4.9812
G1 X70.059 Y106.319 E4.98759
G1 X70.907 Y106.893 E5.00803
G1 X71.198 Y107.112 E5.0153
G1 X71.882 Y107.675 E5.03297
G1 X72.01 Y107.79 E5.03641
G1 X72.592 Y108.356 E5.05261
G1 X72.852 Y108.63 E5.06015
G1 X73.435 Y109.301 E5.07789
G1 X73.579 Y109.482 E5.0825
G1 X74.177 Y110.316 E5.10298
G1 X74.222 Y110.386 E5.10464
G1 X74.676 Y111.167 E5.12267
G1 X75.06 Y111.984 E5.14069
G1 X75.369 Y112.833 E5.15872
G1 X75.603 Y113.705 E5.17673
G1 X75.758 Y114.595 E5.19476
G1 X75.842 Y115.869 E5.22024
G1 X75.846 Y117.216 E5.24712
G1 X75.834 Y119.031 E5.28334
G1 X75.841 Y119.62 E5.2951
G1 X75.813 Y120.522 E5.31311
G1 X75.704 Y121.419 E5.33114
G1 X75.517 Y122.302 E5.34915
G1 X75.253 Y123.166 E5.36718
G1 X74.913 Y124.003 E5.38521
G1 X74.5 Y124.806 E5.40323
G1 X73.768 Y125.914 E5.42973
G1 X73.614 Y126.117 E5.43481
G1 X73.173 Y126.658 E5.44874
G1 X73.036 Y126.815 E5.4529
G1 X72.506 Y127.379 E5.46835
G1 X72.317 Y127.565 E5.47364
G1 X71.832 Y128.012 E5.4868
G1 X71.655 Y128.165 E5.49147
G1 X71.105 Y128.608 E5.50556
G1 X70.961 Y128.716 E5.50916
G1 X70.231 Y129.216 E5.52681
G1 X69.9 Y129.422 E5.53459
G1 X68.989 Y129.926 E5.55537
G1 X68.676 Y130.079 E5.56232
G1 X67.725 Y130.486 E5.58297
G1 X67.432 Y130.594 E5.5892
G1 X66.826 Y130.796 E5.60194
G1 X66.729 Y130.825 E5.60397
G1 X66.09 Y130.993 E5.61715
G1 X65.746 Y131.072 E5.62419
G1 X64.925 Y131.226 E5.64086
G1 X64.78 Y131.247 E5.64379
G1 X64.254 Y131.309 E5.65436
G1 X64.037 Y131.329 E5.65871
G1 X63.387 Y131.368 E5.6717
G1 X63.173 Y131.374 E5.67597
G1 X62.43 Y131.368 E5.6908
G1 X62.118 Y131.354 E5.69703
G1 X61.043 Y131.248 E5.71859
G1 X60.727 Y131.2 E5.72497
G1 X60.345 Y131.135 E5.7327
G1 X60.256 Y131.118 E5.73451
G1 X59.793 Y131.018 E5.74396
G1 X59.551 Y130.96 E5.74893
G1 X59.272 Y130.889 E5.75467
G1 X58.56 Y130.697 E5.76939
G1 X58.444 Y130.672 E5.77176
G1 X56.542 Y130.172 E5.811
G1 X54.026 Y129.584 E5.86257
G1 X51.561 Y129.085 E5.91276
G1 X49.049 Y128.648 E5.96364
G1 X46.271 Y128.247 E6.01965
G1 X45.729 Y128.177 E6.03056
G1 X44.839 Y128.022 E6.04859
G1 X43.967 Y127.789 E6.0666
G1 X43.118 Y127.48 E6.08463
G1 X42.3 Y127.097 E6.10265
G1 X41.519 Y126.643 E6.12068
G1 X40.928 Y126.233 E6.13503
G1 X40.766 Y126.112 E6.13907
G1 X40.067 Y125.54 E6.15709
G1 X39.422 Y124.909 E6.1751
G1 X38.834 Y124.222 E6.19315
G1 X38.31 Y123.487 E6.21116
G1 X37.853 Y122.708 E6.22918
G1 X37.467 Y121.892 E6.2472
G1 X37.154 Y121.045 E6.26522
G1 X36.917 Y120.173 E6.28325
G1 X36.759 Y119.284 E6.30127
G1 X36.684 Y118.469 E6.3176
G1 X36.673 Y118.257 E6.32184
G1 X36.666 Y117.353 E6.33988
G1 X36.739 Y116.453 E6.3579
G1 X36.891 Y115.563 E6.37592
G1 X37.122 Y114.69 E6.39394
G1 X37.429 Y113.841 E6.41196
G1 X37.81 Y113.022 E6.42998
G1 X38.261 Y112.24 E6.448
G1 X38.781 Y111.501 E6.46603
G1 X39.363 Y110.811 E6.48404
G1 X40 Y110.178 E6.50196
G1 X40.153 Y110.039 E6.50609
G1 X40.848 Y109.462 E6.52412
G1 X41.591 Y108.949 E6.54213
G1 X42.376 Y108.503 E6.56015
G1 X43.198 Y108.129 E6.57817
G1 F2700 E1.57817
;MESH:16994c65-5469-487f-9b3a-4e4a3023595f.stl
G0 F6000 X58.783 Y116.842
G0 X59.375 Y117.756
G0 X61.262 Y119.761
G0 X61.856 Y120.135
G0 X62.531 Y120.331
G0 X63.235 Y120.335
G0 X64.736 Y119.879
;TYPE:WALL-INNER
G1 F2700 E6.57817
G1 F1200 X64.641 Y119.966 E6.58074
G1 X64.394 Y120.145 E6.58683
G1 X64.341 Y120.175 E6.58805
G1 X64.125 Y120.298 E6.59301
G1 X64.002 Y120.352 E6.59569
G1 X63.863 Y120.413 E6.59872
G1 X63.643 Y120.481 E6.60331
G1 X63.563 Y120.506 E6.60498
G1 X63.276 Y120.561 E6.61082
G1 X63.263 Y120.562 E6.61108
G1 X62.961 Y120.586 E6.61712
G1 X62.882 Y120.584 E6.6187
G1 X62.657 Y120.577 E6.62319
G1 X62.499 Y120.556 E6.62637
G1 X62.36 Y120.536 E6.62917
G1 X62.127 Y120.476 E6.63398
G1 X62.07 Y120.461 E6.63515
G1 X61.786 Y120.355 E6.6412
G1 X61.761 Y120.343 E6.64176
G1 X61.51 Y120.216 E6.64737
G1 X61.426 Y120.161 E6.64937
G1 X61.256 Y120.049 E6.65344
G1 X61.118 Y119.935 E6.65701
G1 X61.025 Y119.859 E6.6594
G1 X60.842 Y119.672 E6.66463
G1 X60.815 Y119.645 E6.66539
G1 X60.621 Y119.395 E6.6717
G1 X60.602 Y119.363 E6.67245
G1 X60.465 Y119.14 E6.67767
G1 X60.413 Y119.03 E6.6801
G1 X60.336 Y118.871 E6.68362
G1 X60.264 Y118.683 E6.68764
G1 X60.219 Y118.567 E6.69012
G1 X60.106 Y118.37 E6.69465
G1 X60.058 Y118.287 E6.69657
G1 X59.935 Y118.137 E6.70044
G1 X59.851 Y118.034 E6.70309
G1 X59.629 Y117.844 E6.70892
G1 X59.598 Y117.818 E6.70973
G1 X59.662 Y117.772
G1 X59.734 Y117.72 E6.71076
G1 X59.966 Y117.484 E6.71736
G1 X60.014 Y117.412 E6.71909
G1 X60.143 Y117.219 E6.72372
G1 X60.19 Y117.13 E6.72573
G1 X60.223 Y117.067 E6.72715
G1 X60.328 Y116.794 E6.73298
G1 X60.333 Y116.781 E6.73326
G1 X60.467 Y116.5 E6.73948
G1 X60.499 Y116.447 E6.74071
G1 X60.624 Y116.244 E6.74547
G1 X60.714 Y116.13 E6.74837
G1 X60.818 Y115.998 E6.75172
G1 X60.967 Y115.845 E6.75598
G1 X61.028 Y115.782 E6.75773
G1 X61.261 Y115.592 E6.76373
G1 X61.523 Y115.423 E6.76995
G1 X61.588 Y115.39 E6.77141
G1 X61.791 Y115.288 E6.77594
G1 X61.936 Y115.234 E6.77903
G1 X62.067 Y115.185 E6.78182
G1 X62.302 Y115.126 E6.78666
G1 X62.374 Y115.107 E6.78814
G1 X62.659 Y115.069 E6.79388
G1 X62.686 Y115.069 E6.79442
G1 X62.966 Y115.059 E6.80001
G1 X63.07 Y115.067 E6.80209
G1 X63.281 Y115.085 E6.80632
G1 X63.448 Y115.118 E6.80971
G1 X63.565 Y115.141 E6.81209
G1 X63.816 Y115.218 E6.81733
G1 X63.863 Y115.233 E6.81832
G1 X64.144 Y115.356 E6.82444
G1 X64.175 Y115.374 E6.82516
G1 X64.395 Y115.501 E6.83022
G1 X64.651 Y115.688 E6.83655
G1 X64.707 Y115.739 E6.83806
G1 X64.738 Y115.767 E6.8389
G1 X64.684 Y115.765 E6.83895
G1 X64.626 Y115.73 E6.83901
G1 X64.357 Y115.564 E6.84003
G1 X64.142 Y115.432 E6.84089
G1 X64.116 Y115.421
G1 X63.835 Y115.298 E6.84195
G1 X63.797 Y115.281 E6.84202
G1 X63.546 Y115.212 E6.8429
G1 X63.436 Y115.181 E6.84325
G1 X63.272 Y115.159 E6.84378
G1 X63.065 Y115.131 E6.84447
G1 X62.967 Y115.131 E6.84459
G1 X62.689 Y115.133 E6.84551
G1 X62.669 Y115.135
G1 X62.385 Y115.178 E6.84651
G1 X62.318 Y115.188 E6.84668
G1 X62.088 Y115.255 E6.84747
G1 X61.959 Y115.294 E6.84788
G1 X61.822 Y115.356 E6.84837
G1 X61.618 Y115.448 E6.84912
G1 X61.562 Y115.483
G1 X61.299 Y115.648 E6.8502
G1 X61.076 Y115.837 E6.85115
G1 X61.014 Y115.89 E6.85138
G1 X60.874 Y116.047 E6.85208
G1 X60.764 Y116.169 E6.85261
G1 X60.686 Y116.285 E6.85304
G1 X60.555 Y116.48 E6.85382
G1 X60.531 Y116.53
G1 X60.392 Y116.818 E6.85499
G1 X60.305 Y117.092 E6.85605
G1 X60.278 Y117.176 E6.85654
G1 X60.267 Y117.24 E6.85665
G1 X60.216 Y117.528 E6.85966
G1 X60.213 Y117.544
G1 X60.199 Y117.92 E6.86701
G1 X60.207 Y117.996 E6.86811
G1 X60.236 Y118.267 E6.87179
G1 X60.239 Y118.293
G1 X60.303 Y118.545 E6.87361
