;FLAVOR:Marlin
;TIME:458
;Filament used: 0.0737743m
;Layer height: 0.12
;MINX:97.416
;MINY:103.382
;MINZ:0.12
;MAXX:137.613
;MAXY:131.623
;MAXZ:6.36
;Generated with Cura_SteamEngine 4.10.0
M140 S50
M105
M190 S50
M104 S200
M105
M109 S200
M82 ;absolute extrusion mode
; Ender 3 Custom Start G-code
G92 E0 ; Reset Extruder
G28 ; Home all axes
M420 S1  ; use saved bed leveling
G1 Z2.0 F3000 ; Move Z Axis up little to prevent scratching of Heat Bed
G1 X0.1 Y20 Z0.3 F5000.0 ; Move to start position
G1 X0.1 Y200.0 Z0.3 F1500.0 E15 ; Draw the first line
G1 X0.4 Y200.0 Z0.3 F5000.0 ; Move to side a little
G1 X0.4 Y20 Z0.3 F1500.0 E30 ; Draw the second line
G92 E0 ; Reset Extruder
G1 Z2.0 F3000 ; Move Z Axis up little to prevent scratching of Heat Bed
G1 X5 Y20 Z0.3 F5000.0 ; Move over to prevent blob squish
G92 E0
G92 E0
G1 F2700 E-5
;LAYER_COUNT:53
;LAYER:0
M107
G0 F6000 X101.18 Y109.106 Z0.12
;TYPE:SKIRT
G1 F2700 E0
G1 F1200 X101.765 Y108.629 E0.01506
G1 X101.931 Y108.503 E0.01922
G1 X102.702 Y107.968 E0.03795
G1 X103.515 Y107.501 E0.05666
G1 X104.365 Y107.105 E0.07537
G1 X105.246 Y106.783 E0.09409
G1 X106.151 Y106.537 E0.11281
G1 X107.233 Y106.348 E0.13473
G1 X109.718 Y106.041 E0.1847
G1 X112.16 Y105.669 E0.23399
G1 X114.694 Y105.208 E0.28539
G1 X117.101 Y104.702 E0.33447
G1 X119.591 Y104.102 E0.38559
G1 X120.07 Y103.976 E0.39547
G1 X121.023 Y103.742 E0.41505
G1 X121.954 Y103.556 E0.434
G1 X122.121 Y103.53 E0.43737
G1 X123 Y103.429 E0.45503
G1 X123.351 Y103.403 E0.46205
G1 X124.618 Y103.382 E0.48734
G1 X124.981 Y103.397 E0.49459
G1 X126.205 Y103.517 E0.51913
G1 X126.516 Y103.565 E0.52541
G1 X127.354 Y103.728 E0.54245
G1 X127.537 Y103.771 E0.5462
G1 X128.465 Y104.032 E0.56544
G1 X128.832 Y104.153 E0.57315
G1 X129.836 Y104.539 E0.59462
G1 X130.026 Y104.623 E0.59876
G1 X130.733 Y104.967 E0.61445
G1 X130.897 Y105.054 E0.61816
G1 X131.513 Y105.407 E0.63233
G1 X131.758 Y105.558 E0.63807
G1 X132.725 Y106.227 E0.66154
G1 X132.996 Y106.437 E0.66838
G1 X133.741 Y107.07 E0.68789
G1 X133.922 Y107.238 E0.69281
G1 X134.576 Y107.898 E0.71136
G1 X134.747 Y108.086 E0.71643
G1 X135.348 Y108.807 E0.73516
G1 X135.886 Y109.575 E0.75387
G1 X136.356 Y110.387 E0.7726
G1 X136.755 Y111.235 E0.7913
G1 X137.08 Y112.115 E0.81002
G1 X137.329 Y113.019 E0.82873
G1 X137.501 Y113.941 E0.84745
G1 X137.593 Y114.875 E0.86618
G1 X137.61 Y115.441 E0.87748
G1 X137.613 Y116.262 E0.89386
G1 X137.598 Y118.43 E0.93713
G1 X137.608 Y119.403 E0.95655
G1 X137.578 Y120.34 E0.97525
G1 X137.467 Y121.271 E0.99396
G1 X137.278 Y122.19 E1.01269
G1 X137.011 Y123.089 E1.0314
G1 X136.669 Y123.962 E1.05011
G1 X136.253 Y124.803 E1.06884
G1 X135.767 Y125.605 E1.08755
G1 X135.01 Y126.613 E1.11271
G1 X134.939 Y126.697 E1.1149
G1 X134.446 Y127.242 E1.12957
G1 X134.3 Y127.393 E1.13376
G1 X133.743 Y127.93 E1.1492
G1 X133.566 Y128.089 E1.15395
G1 X132.693 Y128.796 E1.17637
G1 X132.376 Y129.027 E1.18419
G1 X131.381 Y129.673 E1.20787
G1 X131.181 Y129.788 E1.21247
G1 X130.763 Y130.017 E1.22198
G1 X129.948 Y130.408 E1.24002
G1 X129.655 Y130.534 E1.24639
G1 X128.482 Y130.961 E1.2713
G1 X128.097 Y131.077 E1.27932
G1 X126.93 Y131.361 E1.30329
G1 X126.655 Y131.412 E1.30887
G1 X125.819 Y131.534 E1.32573
G1 X125.604 Y131.557 E1.33005
G1 X124.586 Y131.618 E1.3504
G1 X124.225 Y131.623 E1.3576
G1 X122.972 Y131.569 E1.38263
G1 X122.644 Y131.536 E1.38921
G1 X121.777 Y131.414 E1.40668
G1 X121.579 Y131.378 E1.4107
G1 X120.904 Y131.233 E1.42448
G1 X119.91 Y130.987 E1.44491
G1 X119.091 Y130.772 E1.46181
G1 X116.631 Y130.197 E1.51223
G1 X114.142 Y129.686 E1.56293
G1 X111.655 Y129.254 E1.61331
G1 X109.193 Y128.894 E1.66296
G1 X107.583 Y128.703 E1.69532
G1 X107.102 Y128.638 E1.705
G1 X106.179 Y128.473 E1.72371
G1 X105.273 Y128.23 E1.74243
G1 X104.391 Y127.91 E1.76116
G1 X103.54 Y127.517 E1.77986
G1 X102.725 Y127.052 E1.79859
G1 X101.612 Y126.253 E1.82593
G1 X101.453 Y126.123 E1.83003
G1 X100.753 Y125.499 E1.84874
G1 X100.109 Y124.817 E1.86746
G1 X99.525 Y124.084 E1.88616
G1 X99.005 Y123.303 E1.90489
G1 X98.554 Y122.48 E1.92362
G1 X98.175 Y121.623 E1.94232
G1 X97.87 Y120.736 E1.96103
G1 X97.642 Y119.826 E1.97976
G1 X97.492 Y118.9 E1.99848
G1 X97.416 Y117.607 E2.02432
G1 X97.416 Y117.391 E2.02863
G1 X97.456 Y116.454 E2.04735
G1 X97.576 Y115.524 E2.06606
G1 X97.774 Y114.607 E2.08478
G1 X98.05 Y113.711 E2.10349
G1 X98.401 Y112.841 E2.12222
G1 X98.825 Y112.005 E2.14092
G1 X99.319 Y111.207 E2.15965
G1 X99.879 Y110.455 E2.17836
G1 X100.5 Y109.753 E2.19707
G1 X101.18 Y109.106 E2.2158
G0 F6000 X101.571 Y109.297
G1 F1200 X102.007 Y108.948 E2.22694
G1 X102.173 Y108.822 E2.2311
G1 X102.93 Y108.298 E2.24947
G1 X103.73 Y107.841 E2.26786
G1 X104.566 Y107.455 E2.28624
G1 X105.432 Y107.144 E2.3046
G1 X106.322 Y106.909 E2.32297
G1 X107.282 Y106.745 E2.3424
G1 X109.756 Y106.439 E2.39215
G1 X112.254 Y106.059 E2.44258
G1 X114.742 Y105.606 E2.49304
G1 X117.205 Y105.088 E2.54327
G1 X119.672 Y104.494 E2.59391
G1 X120.165 Y104.365 E2.60408
G1 X121.118 Y104.131 E2.62366
G1 X122.015 Y103.951 E2.64192
G1 X122.182 Y103.925 E2.64529
G1 X123.03 Y103.828 E2.66232
G1 X123.381 Y103.802 E2.66935
G1 X124.602 Y103.782 E2.69372
G1 X124.965 Y103.797 E2.70097
G1 X126.144 Y103.912 E2.72461
G1 X126.455 Y103.96 E2.73089
G1 X127.263 Y104.117 E2.74731
G1 X127.446 Y104.16 E2.75106
G1 X128.34 Y104.412 E2.7696
G1 X128.707 Y104.533 E2.77731
G1 X129.674 Y104.905 E2.79799
G1 X129.864 Y104.989 E2.80213
G1 X130.545 Y105.32 E2.81724
G1 X130.709 Y105.407 E2.82095
G1 X131.304 Y105.747 E2.83463
G1 X131.549 Y105.898 E2.84037
G1 X132.48 Y106.543 E2.86297
G1 X132.751 Y106.753 E2.86981
G1 X133.469 Y107.363 E2.88861
G1 X133.65 Y107.531 E2.89354
G1 X134.28 Y108.168 E2.91142
G1 X134.451 Y108.356 E2.91649
G1 X135.041 Y109.063 E2.93487
G1 X135.567 Y109.819 E2.95325
G1 X136.025 Y110.617 E2.97161
G1 X136.412 Y111.453 E2.98999
G1 X136.725 Y112.318 E3.00835
G1 X136.962 Y113.208 E3.02673
G1 X137.121 Y114.115 E3.04511
G1 X137.21 Y115.443 E3.07167
G1 X137.213 Y116.26 E3.08797
G1 X137.198 Y118.405 E3.13078
G1 X137.208 Y119.407 E3.15078
G1 X137.178 Y120.327 E3.16915
G1 X137.067 Y121.241 E3.18752
G1 X136.878 Y122.142 E3.20589
G1 X136.611 Y123.023 E3.22426
G1 X136.268 Y123.877 E3.24263
G1 X135.853 Y124.699 E3.261
G1 X135.368 Y125.482 E3.27938
G1 X134.705 Y126.355 E3.30126
G1 X134.634 Y126.439 E3.30346
G1 X134.158 Y126.964 E3.3176
G1 X134.012 Y127.115 E3.32179
G1 X133.476 Y127.633 E3.33666
G1 X133.299 Y127.792 E3.34141
G1 X132.458 Y128.473 E3.36301
G1 X132.141 Y128.704 E3.37084
G1 X131.182 Y129.326 E3.39365
G1 X130.982 Y129.441 E3.39825
G1 X130.575 Y129.664 E3.40751
G1 X129.79 Y130.041 E3.42489
G1 X129.497 Y130.167 E3.43126
G1 X128.367 Y130.578 E3.45525
G1 X127.982 Y130.694 E3.46327
G1 X126.857 Y130.967 E3.48638
G1 X126.582 Y131.018 E3.49196
G1 X125.777 Y131.136 E3.50819
G1 X125.562 Y131.159 E3.51251
G1 X124.581 Y131.218 E3.53212
G1 X124.22 Y131.223 E3.53933
G1 X123.012 Y131.171 E3.56346
G1 X122.684 Y131.138 E3.57003
G1 X121.849 Y131.02 E3.58686
G1 X121.651 Y130.984 E3.59088
G1 X121 Y130.845 E3.60416
G1 X119.85 Y130.559 E3.62781
G1 X119.179 Y130.382 E3.64166
G1 X116.697 Y129.802 E3.69253
G1 X114.219 Y129.293 E3.74301
G1 X111.752 Y128.865 E3.79298
G1 X109.221 Y128.495 E3.84402
G1 X107.636 Y128.307 E3.87588
G1 X107.155 Y128.242 E3.88556
G1 X106.249 Y128.079 E3.90393
G1 X105.361 Y127.838 E3.92229
G1 X104.496 Y127.521 E3.94068
G1 X103.663 Y127.13 E3.95904
G1 X102.866 Y126.668 E3.97743
G1 X101.865 Y125.943 E4.00209
G1 X101.706 Y125.813 E4.00619
G1 X101.02 Y125.2 E4.02455
G1 X100.389 Y124.53 E4.04292
G1 X99.818 Y123.807 E4.0613
G1 X99.313 Y123.038 E4.07966
G1 X98.876 Y122.227 E4.09805
G1 X98.511 Y121.382 E4.11641
G1 X98.221 Y120.508 E4.13479
G1 X98.007 Y119.613 E4.15315
G1 X97.873 Y118.702 E4.17153
G1 X97.816 Y117.607 E4.19341
G1 X97.816 Y117.391 E4.19772
G1 X97.856 Y116.471 E4.2161
G1 X97.976 Y115.558 E4.23448
G1 X98.174 Y114.659 E4.25285
G1 X98.45 Y113.781 E4.27121
G1 X98.801 Y112.93 E4.28958
G1 X99.224 Y112.112 E4.30796
G1 X99.717 Y111.335 E4.32632
G1 X100.275 Y110.603 E4.34469
G1 X100.895 Y109.922 E4.36307
G1 X101.571 Y109.297 E4.38144
G0 F6000 X101.289 Y110.094
G1 F1200 X102.249 Y109.266 E4.40674
G1 X102.415 Y109.14 E4.4109
G1 X103.158 Y108.627 E4.42892
G1 X103.943 Y108.181 E4.44694
G1 X104.765 Y107.806 E4.46497
G1 X105.617 Y107.506 E4.48299
G1 X106.491 Y107.282 E4.501
G1 X107.331 Y107.142 E4.51799
G1 X109.794 Y106.838 E4.56752
G1 X112.32 Y106.453 E4.61851
G1 X114.817 Y105.999 E4.66916
G1 X117.283 Y105.48 E4.71945
G1 X119.819 Y104.869 E4.7715
G1 X120.261 Y104.753 E4.78062
G1 X121.214 Y104.519 E4.80021
G1 X122.077 Y104.346 E4.81777
G1 X122.244 Y104.32 E4.82114
G1 X123.06 Y104.227 E4.83753
G1 X123.411 Y104.201 E4.84456
G1 X124.585 Y104.182 E4.86799
G1 X124.948 Y104.197 E4.87524
G1 X126.083 Y104.307 E4.89799
G1 X126.394 Y104.355 E4.90427
G1 X127.171 Y104.506 E4.92007
G1 X127.354 Y104.549 E4.92382
G1 X128.215 Y104.792 E4.94168
G1 X128.582 Y104.913 E4.94939
G1 X129.512 Y105.271 E4.96927
G1 X129.702 Y105.355 E4.97342
G1 X130.358 Y105.673 E4.98797
G1 X130.522 Y105.76 E4.99167
G1 X131.094 Y106.088 E5.00483
G1 X131.339 Y106.239 E5.01057
G1 X132.235 Y106.859 E5.03232
G1 X132.506 Y107.069 E5.03916
G1 X133.197 Y107.656 E5.05725
G1 X133.378 Y107.824 E5.06218
G1 X133.985 Y108.437 E5.0794
G1 X134.156 Y108.625 E5.08447
G1 X134.733 Y109.319 E5.10248
G1 X135.247 Y110.062 E5.12051
G1 X135.693 Y110.847 E5.13853
G1 X136.068 Y111.669 E5.15656
G1 X136.369 Y112.52 E5.17457
G1 X136.593 Y113.395 E5.1926
G1 X136.739 Y114.286 E5.21061
G1 X136.81 Y115.444 E5.23377
G1 X136.813 Y116.257 E5.24999
G1 X136.798 Y118.405 E5.29286
G1 X136.808 Y119.411 E5.31293
G1 X136.777 Y120.313 E5.33095
G1 X136.667 Y121.21 E5.34898
G1 X136.477 Y122.092 E5.36698
G1 X136.21 Y122.955 E5.38501
G1 X135.868 Y123.791 E5.40304
G1 X135.453 Y124.593 E5.42106
G1 X134.969 Y125.356 E5.43909
G1 X134.399 Y126.096 E5.45773
G1 X134.328 Y126.18 E5.45993
G1 X133.871 Y126.686 E5.47353
G1 X133.725 Y126.837 E5.47772
G1 X133.208 Y127.335 E5.49205
G1 X133.031 Y127.494 E5.4968
G1 X132.222 Y128.149 E5.51757
G1 X131.905 Y128.38 E5.5254
G1 X130.982 Y128.979 E5.54736
G1 X130.782 Y129.094 E5.55196
G1 X130.483 Y129.26 E5.55878
G1 X130.387 Y129.311 E5.56095
G1 X129.632 Y129.673 E5.57766
G1 X129.339 Y129.799 E5.58403
G1 X128.252 Y130.195 E5.60711
G1 X127.867 Y130.311 E5.61514
G1 X126.784 Y130.574 E5.63738
G1 X126.509 Y130.625 E5.64296
G1 X125.734 Y130.738 E5.65859
G1 X125.519 Y130.761 E5.66291
G1 X124.575 Y130.818 E5.68178
G1 X124.214 Y130.823 E5.68898
G1 X123.052 Y130.773 E5.71219
G1 X122.724 Y130.74 E5.71877
G1 X121.92 Y130.626 E5.73498
G1 X121.722 Y130.59 E5.73899
G1 X121.097 Y130.456 E5.75175
G1 X119.952 Y130.172 E5.77529
G1 X119.267 Y129.991 E5.78943
G1 X116.789 Y129.412 E5.84021
G1 X114.276 Y128.897 E5.89141
G1 X111.836 Y128.473 E5.94083
G1 X109.29 Y128.101 E5.99218
G1 X107.861 Y127.932 E6.02089
G1 X107.209 Y127.845 E6.03402
G1 X106.32 Y127.685 E6.05204
G1 X105.449 Y127.446 E6.07007
G1 X104.603 Y127.132 E6.08808
G1 X103.787 Y126.744 E6.10611
G1 X103.009 Y126.285 E6.12413
G1 X102.119 Y125.634 E6.14614
G1 X101.96 Y125.504 E6.15024
G1 X101.287 Y124.902 E6.16826
G1 X100.669 Y124.242 E6.1863
G1 X100.113 Y123.531 E6.20431
G1 X99.621 Y122.773 E6.22235
G1 X99.199 Y121.975 E6.24036
G1 X98.848 Y121.143 E6.25838
G1 X98.573 Y120.283 E6.2764
G1 X98.375 Y119.402 E6.29442
G1 X98.256 Y118.506 E6.31246
G1 X98.216 Y117.607 E6.33042
G1 X98.216 Y117.391 E6.33473
G1 X98.256 Y116.489 E6.35275
G1 X98.376 Y115.594 E6.37077
G1 X98.574 Y114.713 E6.38879
G1 X98.849 Y113.853 E6.4068
G1 X99.2 Y113.02 E6.42484
G1 X99.623 Y112.222 E6.44287
G1 X100.114 Y111.465 E6.46087
G1 X100.671 Y110.754 E6.4789
G1 X101.289 Y110.094 E6.49694
G1 F2700 E1.49694
;MESH:ea2a7e56-bc0e-4f71-96ab-8f3065b1ba83.stl
G0 F6000 X120.287 Y116.546
G0 X120.79 Y117.489
G0 X122.034 Y118.246
G0 X122.341 Y118.843
G0 X122.806 Y119.325
G0 X123.389 Y119.654
G0 X124.043 Y119.8
G0 X125.687 Y119.563
;TYPE:WALL-INNER
G1 F2700 E6.49694
G1 F1200 X125.67 Y119.576 E6.49737
G1 X125.625 Y119.609 E6.49848
G1 X125.435 Y119.72 E6.50287
G1 X125.38 Y119.753 E6.50415
G1 X125.123 Y119.868 E6.50977
G1 X125.111 Y119.871 E6.51002
G1 X124.84 Y119.959 E6.5157
G1 X124.763 Y119.976 E6.51728
G1 X124.71 Y119.988 E6.51836
G1 X124.429 Y120.026 E6.52402
G1 X124.394 Y120.027 E6.52472
G1 X124.134 Y120.035 E6.52991
G1 X124.026 Y120.026 E6.53207
G1 X123.85 Y120.009 E6.5356
G1 X123.665 Y119.972 E6.53937
G1 X123.565 Y119.951 E6.54141
G1 X123.308 Y119.867 E6.5468
G1 X123.029 Y119.741 E6.55291
G1 X122.973 Y119.707 E6.55422
G1 X122.786 Y119.593 E6.55859
G1 X122.669 Y119.504 E6.56152
G1 X122.561 Y119.421 E6.56424
G1 X122.395 Y119.26 E6.56886
G1 X122.353 Y119.219 E6.57003
G1 X122.172 Y119 E6.5757
G1 X122.155 Y118.973 E6.57633
G1 X122.016 Y118.758 E6.58144
G1 X121.967 Y118.66 E6.58363
G1 X121.888 Y118.505 E6.5871
G1 X121.816 Y118.327 E6.59093
G1 X121.77 Y118.216 E6.59333
G1 X121.661 Y118.03 E6.59763
G1 X121.609 Y117.941 E6.59969
G1 X121.497 Y117.809 E6.60314
G1 X121.4 Y117.694 E6.60615
G1 X121.192 Y117.523 E6.61152
G1 X121.161 Y117.497 E6.61233
G1 X121.227 Y117.451
G1 X121.284 Y117.41 E6.61309
G1 X121.514 Y117.18 E6.61958
G1 X121.57 Y117.1 E6.62153
G1 X121.696 Y116.922 E6.62588
G1 X121.739 Y116.839 E6.62775
G1 X121.775 Y116.771 E6.62928
G1 X121.88 Y116.515 E6.6348
G1 X121.891 Y116.488 E6.63539
G1 X122.023 Y116.226 E6.64124
G1 X122.049 Y116.186 E6.64219
G1 X122.173 Y116 E6.64665
G1 X122.265 Y115.888 E6.64955
G1 X122.357 Y115.776 E6.65244
G1 X122.516 Y115.622 E6.65686
G1 X122.563 Y115.577 E6.65815
G1 X122.801 Y115.395 E6.66413
G1 X122.812 Y115.388 E6.66439
G1 X123.03 Y115.259 E6.66945
G1 X123.13 Y115.214 E6.67164
G1 X123.314 Y115.131 E6.67567
G1 X123.473 Y115.079 E6.679
G1 X123.577 Y115.045 E6.68119
G1 X123.83 Y114.995 E6.68633
G1 X123.849 Y114.991 E6.68672
G1 X124.14 Y114.965 E6.69255
G1 X124.204 Y114.966 E6.69383
G1 X124.435 Y114.974 E6.69844
G1 X124.569 Y114.992 E6.70114
G1 X124.703 Y115.01 E6.70384
G1 X124.927 Y115.067 E6.70845
G1 X124.984 Y115.082 E6.70963
G1 X125.259 Y115.188 E6.71551
G1 X125.279 Y115.198 E6.71595
G1 X125.503 Y115.314 E6.72099
G1 X125.597 Y115.377 E6.72325
G1 X125.697 Y115.445 E6.72566
G1 X125.561 Y115.431 E6.72609
G1 X125.468 Y115.379 E6.72639
G1 X125.249 Y115.258 E6.72725
G1 X125.235 Y115.253
G1 X124.959 Y115.15 E6.72828
G1 X124.911 Y115.132 E6.72839
G1 X124.688 Y115.085 E6.72917
G1 X124.561 Y115.057 E6.72959
G1 X124.43 Y115.048 E6.73001
G1 X124.203 Y115.032 E6.73078
G1 X124.146 Y115.036
G1 X123.855 Y115.059 E6.73177
G1 X123.843 Y115.06
G1 X123.594 Y115.117 E6.73264
G1 X123.494 Y115.141 E6.73284
G1 X123.342 Y115.2 E6.73338
G1 X123.157 Y115.272 E6.73402
G1 X123.067 Y115.323 E6.73426
G1 X122.848 Y115.447 E6.73514
G1 X122.607 Y115.633 E6.7363
G1 X122.561 Y115.668 E6.73642
G1 X122.412 Y115.827 E6.73714
G1 X122.315 Y115.929 E6.73759
G1 X122.234 Y116.043 E6.73802
G1 X122.105 Y116.222 E6.73876
G1 X122.087 Y116.258
G1 X121.954 Y116.519 E6.73978
G1 X121.943 Y116.54 E6.73981
G1 X121.856 Y116.798 E6.74081
G1 X121.827 Y116.884 E6.74133
G1 X121.817 Y116.943
G1 X121.765 Y117.225 E6.7443
G1 X121.763 Y117.235
G1 X121.75 Y117.594 E6.75128
G1 X121.756 Y117.653 E6.75206
G1 X121.787 Y117.92 E6.75574
G1 X121.791 Y117.953
G1 X121.854 Y118.193 E6.75748
G1 X121.882 Y118.299 E6.75782
G1 X121.957 Y118.475 E6.75851
G1 X122.024 Y118.63 E6.75905
G1 X122.078 Y118.719 E6.7593
G1 X122.21 Y118.936 E6.76016
G1 X122.225 Y118.955
G1 X122.407 Y119.173 E6.76114
G1 X122.44 Y119.213 E6.76124
G1 X122.61 Y119.365 E6.76201
G1 X122.708 Y119.452 E6.76243
G1 X122.827 Y119.53 E6.76288
G1 X123.007 Y119.65 E6.76362
G1 X123.06 Y119.675
G1 X123.331 Y119.805 E6.76461
G1 X123.585 Y119.879 E6.76549
G1 X123.678 Y119.907 E6.76572
G1 X123.861 Y119.935 E6.76635
G1 X124.031 Y119.961 E6.76689
G1 X124.134 Y119.961 E6.76721
G1 X124.392 Y119.963 E6.76809
G1 X124.418 Y119.959
G1 X124.699 Y119.917 E6.76909
G1 X124.747 Y119.909
G1 X124.819 Y119.888
G1 X125.09 Y119.808 E6.77005
G1 X125.349 Y119.688 E6.77113
G1 X125.401 Y119.664 E6.77127
G1 X125.607 Y119.57 E6.77193
G1 X125.65 Y119.55 E6.77195
G1 X125.687 Y119.563 E6.77221
G0 F6000 X126.333 Y119.536
;TYPE:WALL-OUTER
