;FLAVOR:Marlin
;TIME:478
;Filament used: 0.0768858m
;Layer height: 0.12
;MINX:97.224
;MINY:103.277
;MINZ:0.12
;MAXX:137.788
;MAXY:131.727
;MAXZ:6.36
;Generated with Cura_SteamEngine 4.10.0
M140 S50
M105
M190 S50
M104 S200
M105
M109 S200
M82 ;absolute extrusion mode
; Ender 3 Custom Start G-code
G92 E0 ; Reset Extruder
G28 ; Home all axes
M420 S1  ; use saved bed leveling
G1 Z2.0 F3000 ; Move Z Axis up little to prevent scratching of Heat Bed
G1 X0.1 Y20 Z0.3 F5000.0 ; Move to start position
G1 X0.1 Y200.0 Z0.3 F1500.0 E15 ; Draw the first line
G1 X0.4 Y200.0 Z0.3 F5000.0 ; Move to side a little
G1 X0.4 Y20 Z0.3 F1500.0 E30 ; Draw the second line
G92 E0 ; Reset Extruder
G1 Z2.0 F3000 ; Move Z Axis up little to prevent scratching of Heat Bed
G1 X5 Y20 Z0.3 F5000.0 ; Move over to prevent blob squish
G92 E0
G92 E0
G1 F2700 E-5
;LAYER_COUNT:53
;LAYER:0
M107
G0 F6000 X100.591 Y109.48 Z0.12
;TYPE:SKIRT
G1 F2700 E0
G1 F1200 X101.289 Y108.853 E0.01872
G1 X102.037 Y108.287 E0.03744
G1 X102.83 Y107.787 E0.05615
G1 X103.663 Y107.356 E0.07487
G1 X104.542 Y106.994 E0.09384
G1 X104.804 Y106.899 E0.0994
G1 X105.699 Y106.617 E0.11813
G1 X106.614 Y106.412 E0.13684
G1 X107.203 Y106.323 E0.14873
G1 X109.022 Y106.098 E0.1853
G1 X111.552 Y105.712 E0.23638
G1 X113.971 Y105.272 E0.28544
G1 X116.453 Y104.75 E0.33606
G1 X119.329 Y104.051 E0.39512
G1 X120.599 Y103.721 E0.42131
G1 X120.964 Y103.633 E0.4288
G1 X121.134 Y103.595 E0.43228
G1 X121.943 Y103.446 E0.44869
G1 X122.244 Y103.402 E0.45476
G1 X122.957 Y103.321 E0.46908
G1 X123.524 Y103.288 E0.48042
G1 X123.873 Y103.277 E0.48739
G1 X124.757 Y103.285 E0.50503
G1 X124.941 Y103.294 E0.5087
G1 X125.86 Y103.378 E0.52712
G1 X126.137 Y103.415 E0.5327
G1 X126.866 Y103.537 E0.54745
G1 X127.093 Y103.583 E0.55207
G1 X128.165 Y103.857 E0.57415
G1 X128.536 Y103.972 E0.5819
G1 X129.719 Y104.415 E0.60711
G1 X130.059 Y104.565 E0.61453
G1 X130.938 Y105.001 E0.63411
G1 X131.081 Y105.08 E0.63737
G1 X131.802 Y105.514 E0.65416
G1 X132.111 Y105.717 E0.66154
G1 X132.99 Y106.359 E0.68326
G1 X133.189 Y106.52 E0.68837
G1 X133.745 Y107.002 E0.70305
G1 X133.894 Y107.14 E0.70711
G1 X134.238 Y107.473 E0.71666
G1 X134.827 Y108.11 E0.73397
G1 X135.089 Y108.417 E0.74203
G1 X135.583 Y109.04 E0.7579
G1 X135.647 Y109.127 E0.76005
G1 X136.17 Y109.905 E0.77876
G1 X136.625 Y110.725 E0.79747
G1 X137.008 Y111.581 E0.81619
G1 X137.317 Y112.467 E0.83491
G1 X137.549 Y113.376 E0.85363
G1 X137.704 Y114.301 E0.87235
G1 X137.786 Y115.568 E0.89769
G1 X137.788 Y115.974 E0.90579
G1 X137.777 Y118.598 E0.95816
G1 X137.785 Y119.22 E0.97057
G1 X137.757 Y120.157 E0.98928
G1 X137.649 Y121.089 E1.008
G1 X137.462 Y122.008 E1.02672
G1 X137.197 Y122.908 E1.04544
G1 X136.856 Y123.782 E1.06416
G1 X136.443 Y124.623 E1.08286
G1 X135.959 Y125.427 E1.10159
G1 X135.494 Y126.077 E1.11753
G1 X135.352 Y126.261 E1.12217
G1 X134.787 Y126.935 E1.13972
G1 X134.54 Y127.207 E1.14706
G1 X134.022 Y127.741 E1.1619
G1 X133.611 Y128.119 E1.17305
G1 X133.45 Y128.26 E1.17732
G1 X132.92 Y128.696 E1.19101
G1 X132.719 Y128.851 E1.19608
G1 X131.75 Y129.519 E1.21957
G1 X131.422 Y129.72 E1.22724
G1 X130.62 Y130.166 E1.24556
G1 X130.475 Y130.239 E1.2488
G1 X129.712 Y130.588 E1.26554
G1 X129.408 Y130.713 E1.2721
G1 X128.146 Y131.144 E1.29871
G1 X127.674 Y131.274 E1.30848
G1 X126.651 Y131.504 E1.32941
G1 X126.514 Y131.528 E1.33218
G1 X125.787 Y131.631 E1.34683
G1 X125.488 Y131.663 E1.35284
G1 X124.537 Y131.723 E1.37185
G1 X124.337 Y131.727 E1.37584
G1 X123.751 Y131.723 E1.38754
G1 X123.318 Y131.702 E1.39619
G1 X123.036 Y131.683 E1.40183
G1 X121.805 Y131.53 E1.42658
G1 X121.404 Y131.457 E1.43472
G1 X120.558 Y131.268 E1.45202
G1 X119.819 Y131.072 E1.46727
G1 X117.308 Y130.445 E1.51892
G1 X114.841 Y129.901 E1.56934
G1 X112.376 Y129.433 E1.61941
G1 X109.932 Y129.039 E1.66881
G1 X108.417 Y128.847 E1.69929
G1 X108.157 Y128.803 E1.70455
G1 X106.937 Y128.639 E1.72911
G1 X106.014 Y128.475 E1.74782
G1 X105.108 Y128.233 E1.76654
G1 X104.225 Y127.915 E1.78526
G1 X103.374 Y127.522 E1.80397
G1 X102.558 Y127.058 E1.8227
G1 X101.786 Y126.527 E1.8414
G1 X101.061 Y125.932 E1.86012
G1 X100.121 Y124.981 E1.8868
G1 X99.939 Y124.773 E1.89232
G1 X99.352 Y124.041 E1.91104
G1 X98.829 Y123.262 E1.92977
G1 X98.375 Y122.442 E1.94847
G1 X97.992 Y121.585 E1.9672
G1 X97.684 Y120.7 E1.9859
G1 X97.452 Y119.791 E2.00463
G1 X97.299 Y118.866 E2.02334
G1 X97.224 Y117.931 E2.04206
G1 X97.23 Y116.993 E2.06077
G1 X97.316 Y116.059 E2.07949
G1 X97.481 Y115.136 E2.0982
G1 X97.723 Y114.23 E2.11692
G1 X97.957 Y113.563 E2.13102
G1 X98.032 Y113.369 E2.13517
G1 X98.407 Y112.509 E2.1539
G1 X98.854 Y111.684 E2.17262
G1 X99.37 Y110.901 E2.19134
G1 X99.95 Y110.164 E2.21005
G1 X100.591 Y109.48 E2.22876
G0 F6000 X100.932 Y109.707
G1 F1200 X101.622 Y109.097 E2.24714
G1 X102.362 Y108.549 E2.26551
G1 X103.147 Y108.068 E2.28389
G1 X103.97 Y107.656 E2.30225
G1 X104.679 Y107.37 E2.31751
G1 X104.941 Y107.275 E2.32307
G1 X105.819 Y106.999 E2.34144
G1 X106.718 Y106.8 E2.35981
G1 X107.252 Y106.72 E2.37059
G1 X109.094 Y106.492 E2.40763
G1 X111.578 Y106.114 E2.45777
G1 X114.088 Y105.657 E2.50868
G1 X116.532 Y105.142 E2.55853
G1 X119.412 Y104.442 E2.61767
G1 X120.7 Y104.108 E2.64423
G1 X121.052 Y104.023 E2.65145
G1 X121.222 Y103.985 E2.65493
G1 X122.001 Y103.841 E2.67074
G1 X122.302 Y103.797 E2.67681
G1 X122.991 Y103.72 E2.69065
G1 X123.537 Y103.688 E2.70156
G1 X123.886 Y103.677 E2.70853
G1 X124.738 Y103.685 E2.72553
G1 X124.922 Y103.694 E2.72921
G1 X125.807 Y103.774 E2.74694
G1 X126.084 Y103.811 E2.75252
G1 X126.786 Y103.929 E2.76672
G1 X127.013 Y103.975 E2.77135
G1 X128.046 Y104.239 E2.79262
G1 X128.417 Y104.354 E2.80037
G1 X129.558 Y104.781 E2.82469
G1 X129.898 Y104.931 E2.8321
G1 X130.745 Y105.351 E2.85097
G1 X130.888 Y105.43 E2.85423
G1 X131.582 Y105.849 E2.87041
G1 X131.891 Y106.052 E2.87779
G1 X132.738 Y106.67 E2.89871
G1 X132.937 Y106.831 E2.90382
G1 X133.473 Y107.295 E2.91796
G1 X133.622 Y107.433 E2.92202
G1 X133.955 Y107.756 E2.93128
G1 X134.523 Y108.37 E2.94797
G1 X134.785 Y108.677 E2.95602
G1 X135.261 Y109.277 E2.97131
G1 X135.325 Y109.364 E2.97346
G1 X135.837 Y110.128 E2.99181
G1 X136.282 Y110.935 E3.01021
G1 X136.655 Y111.776 E3.02857
G1 X136.953 Y112.647 E3.04694
G1 X137.175 Y113.541 E3.06532
G1 X137.318 Y114.45 E3.08368
G1 X137.386 Y115.57 E3.10607
G1 X137.388 Y115.972 E3.1141
G1 X137.377 Y118.598 E3.1665
G1 X137.385 Y119.225 E3.17901
G1 X137.357 Y120.145 E3.19738
G1 X137.248 Y121.059 E3.21575
G1 X137.061 Y121.961 E3.23414
G1 X136.796 Y122.842 E3.25249
G1 X136.456 Y123.698 E3.27088
G1 X136.043 Y124.521 E3.28925
G1 X135.56 Y125.304 E3.30761
G1 X135.178 Y125.832 E3.32062
G1 X135.036 Y126.016 E3.32525
G1 X134.491 Y126.666 E3.34218
G1 X134.244 Y126.938 E3.34951
G1 X133.743 Y127.454 E3.36387
G1 X133.348 Y127.818 E3.37459
G1 X133.187 Y127.959 E3.37886
G1 X132.676 Y128.379 E3.39206
G1 X132.475 Y128.534 E3.39712
G1 X131.541 Y129.178 E3.41976
G1 X131.213 Y129.379 E3.42744
G1 X130.441 Y129.809 E3.44507
G1 X130.296 Y129.882 E3.44831
G1 X129.56 Y130.218 E3.46446
G1 X129.256 Y130.343 E3.47102
G1 X128.04 Y130.758 E3.49666
G1 X127.568 Y130.888 E3.50643
G1 X126.582 Y131.11 E3.5266
G1 X126.445 Y131.134 E3.52937
G1 X125.744 Y131.233 E3.5435
G1 X125.445 Y131.265 E3.5495
G1 X124.529 Y131.323 E3.56782
G1 X124.329 Y131.327 E3.57181
G1 X123.764 Y131.323 E3.58309
G1 X123.344 Y131.303 E3.59148
G1 X123.062 Y131.284 E3.59712
G1 X121.877 Y131.137 E3.62095
G1 X121.476 Y131.064 E3.62908
G1 X120.66 Y130.882 E3.64577
G1 X119.872 Y130.673 E3.66204
G1 X117.419 Y130.061 E3.71249
G1 X114.903 Y129.506 E3.7639
G1 X112.442 Y129.038 E3.8139
G1 X109.984 Y128.642 E3.86358
G1 X108.467 Y128.45 E3.8941
G1 X108.23 Y128.409 E3.8989
G1 X106.99 Y128.243 E3.92386
G1 X106.084 Y128.081 E3.94223
G1 X105.195 Y127.841 E3.96061
G1 X104.33 Y127.525 E3.97898
G1 X103.496 Y127.135 E3.99736
G1 X102.699 Y126.674 E4.01573
G1 X101.945 Y126.146 E4.0341
G1 X101.24 Y125.554 E4.05247
G1 X100.422 Y124.717 E4.07583
G1 X100.24 Y124.509 E4.08134
G1 X99.664 Y123.791 E4.09971
G1 X99.153 Y123.025 E4.11809
G1 X98.71 Y122.218 E4.13646
G1 X98.339 Y121.375 E4.15484
G1 X98.043 Y120.503 E4.17322
G1 X97.823 Y119.609 E4.19159
G1 X97.682 Y118.7 E4.20995
G1 X97.62 Y117.781 E4.22833
G1 X97.638 Y116.861 E4.24669
G1 X97.736 Y115.945 E4.26507
G1 X97.913 Y115.042 E4.28344
G1 X98.168 Y114.157 E4.30182
G1 X98.33 Y113.707 E4.31136
G1 X98.405 Y113.513 E4.31551
G1 X98.774 Y112.669 E4.33389
G1 X99.215 Y111.861 E4.35226
G1 X99.724 Y111.094 E4.37063
G1 X100.298 Y110.374 E4.38901
G1 X100.932 Y109.707 E4.40737
G0 F6000 X101.272 Y109.935
G1 F1200 X101.954 Y109.343 E4.4254
G1 X102.686 Y108.814 E4.44342
G1 X103.462 Y108.351 E4.46145
G1 X104.275 Y107.959 E4.47946
G1 X104.815 Y107.746 E4.49105
G1 X105.077 Y107.651 E4.49661
G1 X105.939 Y107.381 E4.51464
G1 X106.821 Y107.188 E4.53265
G1 X107.301 Y107.117 E4.54234
G1 X109.137 Y106.89 E4.57926
G1 X111.673 Y106.503 E4.63045
G1 X114.136 Y106.055 E4.68041
G1 X116.605 Y105.535 E4.73076
G1 X119.54 Y104.822 E4.79104
G1 X120.8 Y104.495 E4.81701
G1 X121.139 Y104.414 E4.82397
G1 X121.309 Y104.376 E4.82745
G1 X122.059 Y104.237 E4.84267
G1 X122.36 Y104.193 E4.84874
G1 X123.024 Y104.118 E4.86207
G1 X123.55 Y104.088 E4.87259
G1 X123.899 Y104.077 E4.87955
G1 X124.718 Y104.084 E4.8959
G1 X124.902 Y104.093 E4.89958
G1 X125.754 Y104.171 E4.91665
G1 X126.031 Y104.208 E4.92223
G1 X126.707 Y104.321 E4.9359
G1 X126.934 Y104.367 E4.94053
G1 X127.928 Y104.621 E4.961
G1 X128.299 Y104.736 E4.96875
G1 X129.396 Y105.147 E4.99213
G1 X129.736 Y105.297 E4.99954
G1 X130.551 Y105.701 E5.0177
G1 X130.694 Y105.78 E5.02096
G1 X131.363 Y106.183 E5.03654
G1 X131.672 Y106.386 E5.04392
G1 X132.487 Y106.981 E5.06406
G1 X132.686 Y107.142 E5.06917
G1 X133.201 Y107.589 E5.08278
G1 X133.35 Y107.727 E5.08683
G1 X133.672 Y108.039 E5.09578
G1 X134.219 Y108.63 E5.11185
G1 X134.481 Y108.937 E5.1199
G1 X134.938 Y109.514 E5.13459
G1 X135.002 Y109.601 E5.13675
G1 X135.505 Y110.351 E5.15477
G1 X135.939 Y111.143 E5.17279
G1 X136.301 Y111.97 E5.1908
G1 X136.589 Y112.826 E5.20883
G1 X136.8 Y113.705 E5.22687
G1 X136.932 Y114.598 E5.24488
G1 X136.986 Y115.573 E5.26437
G1 X136.988 Y115.971 E5.27231
G1 X136.977 Y118.598 E5.32474
G1 X136.985 Y119.23 E5.33735
G1 X136.956 Y120.132 E5.35536
G1 X136.848 Y121.029 E5.37339
G1 X136.66 Y121.912 E5.39141
G1 X136.396 Y122.776 E5.40944
G1 X136.055 Y123.612 E5.42745
G1 X135.643 Y124.416 E5.44548
G1 X135.16 Y125.179 E5.4635
G1 X134.861 Y125.588 E5.47361
G1 X134.719 Y125.772 E5.47825
G1 X134.195 Y126.397 E5.49453
G1 X133.948 Y126.669 E5.50186
G1 X133.465 Y127.167 E5.5157
G1 X133.084 Y127.517 E5.52603
G1 X132.923 Y127.658 E5.5303
G1 X132.432 Y128.062 E5.54299
G1 X132.231 Y128.217 E5.54805
G1 X131.332 Y128.837 E5.56985
G1 X131.004 Y129.038 E5.57752
G1 X130.261 Y129.452 E5.5945
G1 X130.116 Y129.525 E5.59774
G1 X129.408 Y129.848 E5.61327
G1 X129.104 Y129.973 E5.61983
G1 X127.933 Y130.373 E5.64452
G1 X127.461 Y130.503 E5.65429
G1 X126.513 Y130.716 E5.67368
G1 X126.376 Y130.74 E5.67646
G1 X125.701 Y130.835 E5.69006
G1 X125.402 Y130.867 E5.69606
G1 X124.521 Y130.923 E5.71368
G1 X124.321 Y130.927 E5.71767
G1 X123.717 Y130.921 E5.72972
G1 X123.371 Y130.904 E5.73664
G1 X123.089 Y130.885 E5.74228
G1 X121.948 Y130.743 E5.76522
G1 X121.547 Y130.67 E5.77336
G1 X120.763 Y130.495 E5.78939
G1 X120.008 Y130.295 E5.80497
G1 X117.497 Y129.668 E5.85662
G1 X114.992 Y129.115 E5.90782
G1 X112.509 Y128.644 E5.95825
G1 X110.042 Y128.246 E6.00812
G1 X108.517 Y128.053 E6.03879
G1 X108.296 Y128.015 E6.04327
G1 X107.043 Y127.847 E6.0685
G1 X106.154 Y127.687 E6.08652
G1 X105.283 Y127.449 E6.10454
G1 X104.436 Y127.136 E6.12256
G1 X103.62 Y126.748 E6.14059
G1 X102.842 Y126.29 E6.15861
G1 X102.107 Y125.765 E6.17664
G1 X101.422 Y125.177 E6.19465
G1 X100.723 Y124.454 E6.21472
G1 X100.541 Y124.246 E6.22024
G1 X99.977 Y123.54 E6.23827
G1 X99.477 Y122.788 E6.25629
G1 X99.046 Y121.994 E6.27432
G1 X98.687 Y121.166 E6.29233
G1 X98.403 Y120.308 E6.31036
G1 X98.196 Y119.429 E6.32839
G1 X98.067 Y118.536 E6.34639
G1 X98.018 Y117.634 E6.36442
G1 X98.048 Y116.731 E6.38245
G1 X98.159 Y115.835 E6.40047
G1 X98.348 Y114.952 E6.41849
G1 X98.703 Y113.851 E6.44157
G1 X98.778 Y113.657 E6.44572
G1 X99.141 Y112.83 E6.46375
G1 X99.575 Y112.038 E6.48177
G1 X100.078 Y111.288 E6.49979
G1 X100.645 Y110.585 E6.51781
G1 X101.272 Y109.935 E6.53584
G1 F2700 E1.53584
;MESH:da66fc47-e93d-4fa3-995c-33dc34494149.stl
G0 F6000 X120.113 Y116.543
G0 X120.612 Y117.492
G0 X121.81 Y118.099
G0 X122.074 Y118.733
G0 X122.505 Y119.265
G0 X123.068 Y119.654
G0 X123.719 Y119.87
G0 X124.402 Y119.894
G0 X125.881 Y119.479
;TYPE:WALL-INNER
G1 F2700 E6.53584
G1 F1200 X125.794 Y119.558 E6.53818
G1 X125.741 Y119.596 E6.53948
G1 X125.568 Y119.721 E6.54374
G1 X125.487 Y119.766 E6.54559
G1 X125.297 Y119.871 E6.54992
G1 X125.173 Y119.928 E6.55265
G1 X125.151 Y119.936 E6.55311
G1 X124.891 Y120.029 E6.55862
G1 X124.797 Y120.05 E6.56055
G1 X124.594 Y120.098 E6.56471
G1 X124.428 Y120.118 E6.56805
G1 X124.312 Y120.132 E6.57038
G1 X124.055 Y120.134 E6.57551
G1 X124.005 Y120.135 E6.5765
G1 X123.718 Y120.104 E6.58227
G1 X123.676 Y120.095 E6.58312
G1 X123.427 Y120.038 E6.58822
G1 X123.315 Y120 E6.59058
G1 X123.151 Y119.944 E6.59404
G1 X122.969 Y119.859 E6.59805
G1 X122.889 Y119.821 E6.59981
G1 X122.645 Y119.67 E6.60554
G1 X122.626 Y119.658 E6.60599
G1 X122.4 Y119.479 E6.61174
G1 X122.35 Y119.43 E6.61314
G1 X122.186 Y119.268 E6.61774
G1 X122.096 Y119.156 E6.62061
G1 X121.998 Y119.035 E6.62371
G1 X121.881 Y118.85 E6.62808
G1 X121.842 Y118.79 E6.62951
G1 X121.714 Y118.528 E6.63533
G1 X121.708 Y118.513 E6.63565
G1 X121.595 Y118.231 E6.64172
G1 X121.571 Y118.189 E6.64268
G1 X121.433 Y117.952 E6.64815
G1 X121.412 Y117.927 E6.64881
G1 X121.224 Y117.701 E6.65467
G1 X121.011 Y117.522 E6.66022
G1 X120.98 Y117.496 E6.66103
G1 X121.044 Y117.45
G1 X121.109 Y117.404 E6.66106
G1 X121.341 Y117.171 E6.66763
G1 X121.485 Y116.963 E6.67267
G1 X121.521 Y116.91 E6.67395
G1 X121.6 Y116.757 E6.67739
G1 X121.635 Y116.669 E6.67928
G1 X121.713 Y116.474 E6.68347
G1 X121.786 Y116.326 E6.68676
G1 X121.85 Y116.197 E6.68964
G1 X121.974 Y116.004 E6.69422
G1 X122.004 Y115.957 E6.69533
G1 X122.192 Y115.724 E6.7013
G1 X122.211 Y115.705 E6.70184
G1 X122.398 Y115.521 E6.70707
G1 X122.486 Y115.453 E6.70929
G1 X122.627 Y115.342 E6.71287
G1 X122.792 Y115.24 E6.71675
G1 X122.896 Y115.176 E6.71918
G1 X123.125 Y115.069 E6.72423
G1 X123.156 Y115.054 E6.72491
G1 X123.44 Y114.958 E6.7309
G1 X123.486 Y114.948 E6.73184
G1 X123.719 Y114.897 E6.7366
G1 X123.854 Y114.883 E6.7393
G1 X124.012 Y114.865 E6.74248
G1 X124.228 Y114.867 E6.74679
G1 X124.318 Y114.868 E6.74858
G1 X124.602 Y114.902 E6.75429
G1 X124.893 Y114.971 E6.76026
G1 X124.97 Y114.998 E6.76189
G1 X125.171 Y115.071 E6.76616
G1 X125.314 Y115.141 E6.76933
G1 X125.434 Y115.2 E6.772
G1 X125.619 Y115.318 E6.77638
G1 X125.685 Y115.36 E6.77794
G1 X125.827 Y115.475 E6.78159
G1 X125.88 Y115.518 E6.78295
G1 X125.798 Y115.511
G1 X125.65 Y115.416 E6.78337
G1 X125.584 Y115.374 E6.78365
G1 X125.397 Y115.265 E6.78438
G1 X125.286 Y115.2 E6.78478
G1 X125.143 Y115.141 E6.78528
G1 X124.948 Y115.06 E6.786
G1 X124.876 Y115.042
G1 X124.591 Y114.97 E6.78698
G1 X124.311 Y114.941 E6.78793
G1 X124.228 Y114.932 E6.78816
G1 X124.015 Y114.939 E6.78888
G1 X123.861 Y114.945 E6.78937
G1 X123.733 Y114.968 E6.78977
G1 X123.501 Y115.012 E6.79056
G1 X123.463 Y115.024
G1 X123.178 Y115.119 E6.7916
G1 X123.153 Y115.128
G1 X122.93 Y115.241 E6.79242
G1 X122.826 Y115.294 E6.79277
G1 X122.67 Y115.403 E6.79339
G1 X122.526 Y115.503 E6.79396
G1 X122.449 Y115.575 E6.79423
G1 X122.259 Y115.753 E6.79513
G1 X122.247 Y115.768
G1 X122.06 Y116.001 E6.79618
G1 X122.029 Y116.039 E6.7963
G1 X121.914 Y116.234 E6.79705
G1 X121.843 Y116.354 E6.79749
G1 X121.783 Y116.502 E6.79799
G1 X121.703 Y116.695 E6.79874
G1 X121.683 Y116.777
G1 X121.642 Y116.94 E6.79981
G1 X121.614 Y117.051 E6.80054
G1 X121.599 Y117.198 E6.80162
G1 X121.575 Y117.413 E6.80539
G1 X121.584 Y117.688 E6.81035
G1 X121.588 Y117.779 E6.8112
G1 X121.613 Y117.918 E6.81252
G1 X121.654 Y118.14 E6.81383
G1 X121.675 Y118.204
G1 X121.77 Y118.487 E6.8149
G1 X121.775 Y118.497
