;FLAVOR:Marlin
;TIME:2300
;Filament used: 0.81667m
;Layer height: 0.12
;MINX:97.017
;MINY:97.015
;MINZ:0.12
;MAXX:137.986
;MAXY:137.985
;MAXZ:12
;Generated with Cura_SteamEngine 4.8.0
M140 S50
M105
M190 S50
M104 S200
M105
M109 S200
M82 ;absolute extrusion mode
; Ender 3 Custom Start G-code
G92 E0 ; Reset Extruder
G28 ; Home all axes
M420 S1  ; use saved bed leveling
G1 Z2.0 F3000 ; Move Z Axis up little to prevent scratching of Heat Bed
G1 X0.1 Y20 Z0.3 F5000.0 ; Move to start position
G1 X0.1 Y200.0 Z0.3 F1500.0 E15 ; Draw the first line
G1 X0.4 Y200.0 Z0.3 F5000.0 ; Move to side a little
G1 X0.4 Y20 Z0.3 F1500.0 E30 ; Draw the second line
G92 E0 ; Reset Extruder
G1 Z2.0 F3000 ; Move Z Axis up little to prevent scratching of Heat Bed
G1 X5 Y20 Z0.3 F5000.0 ; Move over to prevent blob squish
G92 E0
G92 E0
G1 F2700 E-5
;LAYER_COUNT:100
;LAYER:0
M107
G0 F6000 X103.058 Y102.973 Z0.12
;TYPE:SKIRT
G1 F2700 E0
G1 F1200 X103.617 Y102.439 E0.01543
G1 X104.105 Y102.004 E0.02847
G1 X104.451 Y101.708 E0.03756
G1 X104.744 Y101.473 E0.04506
G1 X105.145 Y101.162 E0.05518
G1 X105.485 Y100.908 E0.06365
G1 X105.594 Y100.83 E0.06633
G1 X105.897 Y100.621 E0.07367
G1 X106.424 Y100.27 E0.08631
G1 X106.816 Y100.021 E0.09558
G1 X107.157 Y99.819 E0.10349
G1 X107.488 Y99.63 E0.11109
G1 X107.858 Y99.427 E0.11951
G1 X108.213 Y99.242 E0.1275
G1 X108.528 Y99.084 E0.13454
G1 X108.792 Y98.957 E0.14038
G1 X109.144 Y98.796 E0.14811
G1 X109.274 Y98.739 E0.15094
G1 X109.635 Y98.588 E0.15875
G1 X110.23 Y98.352 E0.17152
G1 X110.597 Y98.214 E0.17935
G1 X110.847 Y98.125 E0.18464
G1 X111.236 Y97.995 E0.19283
G1 X111.694 Y97.856 E0.20238
G1 X112.219 Y97.709 E0.21326
G1 X112.626 Y97.604 E0.22165
G1 X112.881 Y97.543 E0.22688
G1 X113.232 Y97.465 E0.23405
G1 X113.559 Y97.398 E0.24072
G1 X113.923 Y97.33 E0.2481
G1 X114.223 Y97.279 E0.25418
G1 X114.64 Y97.216 E0.26259
G1 X114.984 Y97.171 E0.26952
G1 X115.344 Y97.13 E0.27675
G1 X115.785 Y97.087 E0.28559
G1 X116.161 Y97.057 E0.29312
G1 X116.304 Y97.048 E0.29598
G1 X116.706 Y97.03 E0.30401
G1 X117.124 Y97.019 E0.31235
G1 X117.51 Y97.015 E0.32006
G1 X117.851 Y97.018 E0.32686
G1 X118.262 Y97.03 E0.33507
G1 X118.673 Y97.049 E0.34328
G1 X118.994 Y97.068 E0.34969
G1 X119.166 Y97.081 E0.35314
G1 X119.598 Y97.123 E0.3618
G1 X120.066 Y97.177 E0.3712
G1 X120.434 Y97.225 E0.37861
G1 X120.621 Y97.253 E0.38238
G1 X121.01 Y97.319 E0.39025
G1 X121.503 Y97.411 E0.40026
G1 X121.906 Y97.494 E0.40847
G1 X122.132 Y97.545 E0.4131
G1 X122.49 Y97.632 E0.42045
G1 X122.873 Y97.732 E0.42835
G1 X123.201 Y97.823 E0.43514
G1 X123.381 Y97.876 E0.43888
G1 X123.779 Y98.001 E0.44721
G1 X124.249 Y98.159 E0.4571
G1 X124.588 Y98.28 E0.46429
G1 X124.84 Y98.374 E0.46965
G1 X125.261 Y98.54 E0.47869
G1 X125.601 Y98.683 E0.48605
G1 X125.9 Y98.815 E0.49257
G1 X126.082 Y98.898 E0.49656
G1 X126.446 Y99.072 E0.50461
G1 X126.903 Y99.301 E0.51481
G1 X127.25 Y99.482 E0.52262
G1 X127.422 Y99.576 E0.52653
G1 X127.785 Y99.784 E0.53488
G1 X128.177 Y100.018 E0.54399
G1 X128.445 Y100.183 E0.55028
G1 X128.577 Y100.267 E0.5534
G1 X128.944 Y100.511 E0.56219
G1 X129.428 Y100.847 E0.57395
G1 X129.73 Y101.064 E0.58137
G1 X130.106 Y101.353 E0.59084
G1 X130.512 Y101.679 E0.60123
G1 X130.804 Y101.922 E0.60881
G1 X130.97 Y102.065 E0.61318
G1 X131.23 Y102.295 E0.62011
G1 X131.425 Y102.474 E0.62539
G1 X131.733 Y102.768 E0.63389
G1 X132.106 Y103.138 E0.64437
G1 X132.366 Y103.405 E0.65181
G1 X132.561 Y103.612 E0.65748
G1 X132.872 Y103.957 E0.66675
G1 X133.139 Y104.271 E0.67498
G1 X133.524 Y104.739 E0.68707
G1 X133.846 Y105.149 E0.69748
G1 X134.112 Y105.512 E0.70646
G1 X134.361 Y105.865 E0.71508
G1 X134.561 Y106.159 E0.72217
G1 X134.715 Y106.393 E0.72776
G1 X134.955 Y106.774 E0.73675
G1 X135.086 Y106.992 E0.74182
G1 X135.258 Y107.29 E0.74869
G1 X135.518 Y107.755 E0.75932
G1 X135.693 Y108.08 E0.76669
G1 X135.758 Y108.206 E0.76952
G1 X135.934 Y108.564 E0.77748
G1 X136.119 Y108.957 E0.78615
G1 X136.292 Y109.342 E0.79457
G1 X136.419 Y109.641 E0.80105
G1 X136.559 Y109.988 E0.80852
G1 X136.698 Y110.349 E0.81624
G1 X136.85 Y110.768 E0.82513
G1 X136.988 Y111.19 E0.834
G1 X137.179 Y111.813 E0.847
G1 X137.376 Y112.547 E0.86217
G1 X137.505 Y113.102 E0.87354
G1 X137.584 Y113.471 E0.88107
G1 X137.641 Y113.761 E0.88696
G1 X137.716 Y114.18 E0.89546
G1 X137.755 Y114.429 E0.90049
G1 X137.803 Y114.773 E0.90742
G1 X137.855 Y115.191 E0.91583
G1 X137.894 Y115.559 E0.92321
G1 X137.908 Y115.714 E0.92632
G1 X137.938 Y116.126 E0.93456
G1 X137.969 Y116.715 E0.94633
G1 X137.982 Y117.095 E0.95392
G1 X137.986 Y117.317 E0.95835
G1 X137.986 Y117.717 E0.96633
G1 X137.983 Y117.88 E0.96959
G1 X137.97 Y118.246 E0.97689
G1 X137.937 Y118.884 E0.98964
G1 X137.9 Y119.389 E0.99975
G1 X137.862 Y119.743 E1.00685
G1 X137.793 Y120.301 E1.01807
G1 X137.743 Y120.659 E1.02529
G1 X137.721 Y120.799 E1.02812
G1 X137.654 Y121.18 E1.03583
G1 X137.601 Y121.454 E1.0414
G1 X137.509 Y121.882 E1.05014
G1 X137.36 Y122.516 E1.06314
G1 X137.17 Y123.22 E1.07769
G1 X136.997 Y123.785 E1.08948
G1 X136.875 Y124.16 E1.09735
G1 X136.713 Y124.607 E1.10684
G1 X136.512 Y125.127 E1.11796
G1 X136.35 Y125.524 E1.12652
G1 X136.28 Y125.686 E1.13004
G1 X136.148 Y125.979 E1.13646
G1 X135.956 Y126.39 E1.14551
G1 X135.805 Y126.701 E1.15241
G1 X135.722 Y126.865 E1.15608
G1 X135.509 Y127.264 E1.1651
G1 X135.262 Y127.706 E1.17521
G1 X135.05 Y128.07 E1.18361
G1 X134.931 Y128.265 E1.18817
G1 X134.78 Y128.506 E1.19385
G1 X134.685 Y128.653 E1.19734
G1 X134.428 Y129.032 E1.20648
G1 X134.018 Y129.612 E1.22065
G1 X133.551 Y130.226 E1.23605
G1 X133.156 Y130.709 E1.2485
G1 X132.892 Y131.02 E1.25664
G1 X132.61 Y131.333 E1.26505
G1 X132.408 Y131.55 E1.27096
G1 X132.088 Y131.88 E1.28014
G1 X131.755 Y132.209 E1.28948
G1 X131.485 Y132.467 E1.29693
G1 X131.199 Y132.731 E1.3047
G1 X130.897 Y133 E1.31277
G1 X130.554 Y133.287 E1.32169
G1 X130.143 Y133.618 E1.33223
G1 X129.833 Y133.858 E1.34005
G1 X129.686 Y133.968 E1.34371
G1 X129.344 Y134.214 E1.35212
G1 X128.947 Y134.488 E1.36175
G1 X128.656 Y134.682 E1.36873
G1 X128.493 Y134.787 E1.37259
G1 X128.145 Y135.003 E1.38077
G1 X127.789 Y135.214 E1.38903
G1 X127.452 Y135.405 E1.39676
G1 X127.148 Y135.571 E1.40367
G1 X126.782 Y135.762 E1.41191
G1 X126.481 Y135.912 E1.41862
G1 X126.148 Y136.071 E1.42598
G1 X125.903 Y136.183 E1.43136
G1 X125.591 Y136.32 E1.43816
G1 X125.253 Y136.462 E1.44548
G1 X124.863 Y136.617 E1.45385
G1 X124.613 Y136.711 E1.45918
G1 X124.243 Y136.843 E1.46702
G1 X123.823 Y136.984 E1.47586
G1 X123.454 Y137.101 E1.48359
G1 X123.151 Y137.191 E1.48989
G1 X122.768 Y137.297 E1.49783
G1 X122.427 Y137.385 E1.50485
G1 X122.051 Y137.475 E1.51257
G1 X121.879 Y137.513 E1.51608
G1 X121.521 Y137.586 E1.52338
G1 X121.097 Y137.665 E1.53198
G1 X120.725 Y137.728 E1.53951
G1 X120.341 Y137.786 E1.54726
G1 X119.949 Y137.838 E1.55515
G1 X119.617 Y137.876 E1.56182
G1 X119.218 Y137.914 E1.56982
G1 X119.012 Y137.93 E1.57394
G1 X118.667 Y137.951 E1.58084
G1 X118.255 Y137.97 E1.58907
G1 X117.845 Y137.982 E1.59726
G1 X117.504 Y137.985 E1.60406
G1 X117.118 Y137.981 E1.61177
G1 X116.699 Y137.97 E1.62013
G1 X116.287 Y137.952 E1.62836
G1 X116.146 Y137.943 E1.63118
G1 X115.796 Y137.915 E1.63819
G1 X115.369 Y137.874 E1.64675
G1 X114.968 Y137.828 E1.6548
G1 X114.57 Y137.775 E1.66281
G1 X114.191 Y137.718 E1.67046
G1 X113.954 Y137.678 E1.67526
G1 X113.585 Y137.609 E1.68275
G1 X113.296 Y137.55 E1.68864
G1 X112.907 Y137.463 E1.69659
G1 X112.494 Y137.363 E1.70507
G1 X112.094 Y137.258 E1.71332
G1 X111.708 Y137.149 E1.72133
G1 X111.369 Y137.047 E1.72839
G1 X111.18 Y136.987 E1.73235
G1 X110.863 Y136.881 E1.73902
G1 X110.658 Y136.809 E1.74336
G1 X110.246 Y136.656 E1.75213
G1 X109.631 Y136.412 E1.76533
G1 X109.157 Y136.21 E1.77561
G1 X108.861 Y136.074 E1.78211
G1 X108.427 Y135.866 E1.79172
G1 X108.053 Y135.678 E1.80007
G1 X107.867 Y135.58 E1.80427
G1 X107.556 Y135.409 E1.81135
G1 X107.229 Y135.223 E1.81886
G1 X106.921 Y135.041 E1.826
G1 X106.686 Y134.897 E1.8315
G1 X106.312 Y134.658 E1.84035
G1 X105.876 Y134.366 E1.85083
G1 X105.481 Y134.089 E1.86045
G1 X105.162 Y133.851 E1.8684
G1 X104.744 Y133.527 E1.87895
G1 X104.433 Y133.277 E1.88691
G1 X104.107 Y132.998 E1.89548
G1 X103.615 Y132.56 E1.90862
G1 X103.041 Y132.011 E1.92447
G1 X102.626 Y131.584 E1.93636
G1 X102.298 Y131.232 E1.94596
G1 X102.025 Y130.921 E1.95422
G1 X101.669 Y130.499 E1.96523
G1 X101.422 Y130.195 E1.97305
G1 X101.342 Y130.093 E1.97564
G1 X101.113 Y129.79 E1.98322
G1 X100.802 Y129.364 E1.99374
G1 X100.572 Y129.038 E2.0017
G1 X100.474 Y128.893 E2.0052
G1 X100.297 Y128.621 E2.01167
G1 X100.124 Y128.348 E2.01812
G1 X99.898 Y127.976 E2.02681
G1 X99.665 Y127.574 E2.03608
G1 X99.481 Y127.244 E2.04362
G1 X99.342 Y126.984 E2.0495
G1 X99.16 Y126.629 E2.05747
G1 X99.051 Y126.406 E2.06242
G1 X98.899 Y126.08 E2.0696
G1 X98.745 Y125.737 E2.0771
G1 X98.597 Y125.391 E2.08461
G1 X98.481 Y125.107 E2.09073
G1 X98.322 Y124.695 E2.09955
G1 X98.155 Y124.234 E2.10933
G1 X98.025 Y123.855 E2.11733
G1 X97.97 Y123.684 E2.12091
G1 X97.87 Y123.355 E2.12777
G1 X97.778 Y123.035 E2.13442
G1 X97.677 Y122.657 E2.14223
G1 X97.581 Y122.272 E2.15014
G1 X97.505 Y121.949 E2.15677
G1 X97.443 Y121.664 E2.16259
G1 X97.358 Y121.23 E2.17141
G1 X97.3 Y120.9 E2.1781
G1 X97.243 Y120.542 E2.18533
G1 X97.197 Y120.218 E2.19186
G1 X97.147 Y119.806 E2.20015
G1 X97.11 Y119.449 E2.20731
G1 X97.077 Y119.072 E2.21486
G1 X97.049 Y118.666 E2.22298
G1 X97.03 Y118.292 E2.23045
G1 X97.024 Y118.12 E2.23389
G1 X97.017 Y117.737 E2.24153
G1 X97.017 Y117.248 E2.25129
G1 X97.024 Y116.853 E2.25918
G1 X97.03 Y116.686 E2.26251
G1 X97.05 Y116.307 E2.27008
G1 X97.079 Y115.896 E2.27831
G1 X97.115 Y115.498 E2.28628
G1 X97.154 Y115.134 E2.29359
G1 X97.201 Y114.755 E2.30121
G1 X97.249 Y114.418 E2.308
G1 X97.309 Y114.041 E2.31562
G1 X97.356 Y113.777 E2.32097
G1 X97.425 Y113.425 E2.32813
G1 X97.5 Y113.071 E2.33535
G1 X97.6 Y112.642 E2.34414
G1 X97.692 Y112.28 E2.3516
G1 X97.781 Y111.95 E2.35842
G1 X97.852 Y111.703 E2.36354
G1 X97.974 Y111.309 E2.37178
G1 X98.088 Y110.962 E2.37906
G1 X98.195 Y110.65 E2.38565
G1 X98.3 Y110.36 E2.3918
G1 X98.454 Y109.958 E2.40039
G1 X98.594 Y109.614 E2.4078
G1 X98.752 Y109.247 E2.41578
G1 X98.905 Y108.907 E2.42322
G1 X99.063 Y108.57 E2.43065
G1 X99.177 Y108.338 E2.4358
G1 X99.343 Y108.014 E2.44307
G1 X99.48 Y107.757 E2.44888
G1 X99.681 Y107.397 E2.45711
G1 X99.911 Y107.002 E2.46623
G1 X100.105 Y106.682 E2.4737
G1 X100.254 Y106.445 E2.47929
G1 X100.472 Y106.112 E2.48723
G1 X100.653 Y105.846 E2.49365
G1 X100.883 Y105.521 E2.50159
G1 X101.088 Y105.242 E2.5085
G1 X101.3 Y104.962 E2.51551
G1 X101.49 Y104.72 E2.52165
G1 X101.751 Y104.4 E2.52989
G1 X102.007 Y104.098 E2.53779
G1 X102.253 Y103.818 E2.54523
G1 X102.371 Y103.688 E2.54874
G1 X102.638 Y103.404 E2.55651
G1 X103.058 Y102.973 E2.56852
G0 F6000 X103.344 Y103.252
G1 F1200 X103.883 Y102.737 E2.5834
G1 X104.371 Y102.302 E2.59645
G1 X104.704 Y102.017 E2.60519
G1 X104.989 Y101.789 E2.61248
G1 X105.39 Y101.478 E2.6226
G1 X105.717 Y101.234 E2.63075
G1 X105.826 Y101.156 E2.63342
G1 X106.119 Y100.954 E2.64052
G1 X106.646 Y100.603 E2.65316
G1 X107.023 Y100.363 E2.66208
G1 X107.355 Y100.166 E2.66978
G1 X107.686 Y99.977 E2.67739
G1 X108.043 Y99.782 E2.68551
G1 X108.398 Y99.597 E2.69349
G1 X108.702 Y99.445 E2.70028
G1 X108.966 Y99.318 E2.70612
G1 X109.304 Y99.162 E2.71355
G1 X109.434 Y99.105 E2.71639
G1 X109.783 Y98.96 E2.72393
G1 X110.378 Y98.724 E2.7367
G1 X110.731 Y98.591 E2.74423
G1 X110.981 Y98.502 E2.74952
G1 X111.356 Y98.376 E2.75742
G1 X111.48 Y98.337 E2.76001
G1 X111.802 Y98.242 E2.76671
G1 X112.327 Y98.095 E2.77759
G1 X112.719 Y97.993 E2.78568
G1 X112.974 Y97.932 E2.79091
G1 X113.312 Y97.857 E2.79782
G1 X113.639 Y97.79 E2.80448
G1 X113.99 Y97.724 E2.81161
G1 X114.29 Y97.673 E2.81768
G1 X114.692 Y97.613 E2.82579
G1 X115.036 Y97.568 E2.83271
G1 X115.382 Y97.528 E2.83966
G1 X115.823 Y97.485 E2.84851
G1 X116.186 Y97.456 E2.85577
G1 X116.329 Y97.447 E2.85863
G1 X116.716 Y97.43 E2.86636
G1 X117.134 Y97.419 E2.87471
G1 X117.506 Y97.415 E2.88213
G1 X117.847 Y97.418 E2.88894
G1 X118.244 Y97.429 E2.89686
G1 X118.655 Y97.448 E2.90507
G1 X118.964 Y97.467 E2.91125
G1 X119.136 Y97.48 E2.91469
G1 X119.552 Y97.52 E2.92303
G1 X120.02 Y97.574 E2.93244
G1 X120.375 Y97.621 E2.93958
G1 X120.562 Y97.649 E2.94336
G1 X120.937 Y97.712 E2.95094
G1 X121.43 Y97.804 E2.96095
G1 X121.818 Y97.884 E2.96886
G1 X122.044 Y97.935 E2.97348
G1 X122.389 Y98.019 E2.98057
G1 X122.772 Y98.119 E2.98847
G1 X123.088 Y98.207 E2.99501
G1 X123.268 Y98.26 E2.99876
G1 X123.652 Y98.381 E3.00679
G1 X124.122 Y98.539 E3.01669
G1 X124.449 Y98.654 E3.0236
G1 X124.701 Y98.748 E3.02897
G1 X125.106 Y98.909 E3.03767
G1 X125.446 Y99.052 E3.04503
G1 X125.734 Y99.179 E3.05131
G1 X125.916 Y99.262 E3.0553
G1 X126.267 Y99.429 E3.06306
G1 X126.724 Y99.658 E3.07326
G1 X127.058 Y99.833 E3.08079
G1 X127.23 Y99.927 E3.0847
G1 X127.58 Y100.127 E3.09274
G1 X127.972 Y100.361 E3.10185
G1 X128.23 Y100.52 E3.1079
G1 X128.362 Y100.604 E3.11102
G1 X128.716 Y100.84 E3.11951
G1 X129.2 Y101.176 E3.13127
G1 X129.493 Y101.386 E3.13847
G1 X129.856 Y101.665 E3.1476
G1 X130.262 Y101.991 E3.15799
G1 X130.543 Y102.225 E3.16529
G1 X130.709 Y102.368 E3.16966
G1 X130.959 Y102.59 E3.17633
G1 X131.154 Y102.769 E3.18162
G1 X131.451 Y103.052 E3.1898
G1 X131.824 Y103.422 E3.20029
G1 X132.075 Y103.68 E3.20747
G1 X132.27 Y103.887 E3.21315
G1 X132.569 Y104.219 E3.22206
G1 X132.83 Y104.525 E3.23009
G1 X133.215 Y104.993 E3.24218
G1 X133.525 Y105.389 E3.25222
G1 X133.785 Y105.743 E3.26098
G1 X134.034 Y106.096 E3.2696
G1 X134.227 Y106.379 E3.27644
G1 X134.381 Y106.613 E3.28203
G1 X134.612 Y106.98 E3.29068
G1 X134.743 Y107.198 E3.29576
G1 X134.909 Y107.485 E3.30238
G1 X135.169 Y107.95 E3.31301
G1 X135.337 Y108.263 E3.3201
G1 X135.402 Y108.389 E3.32293
G1 X135.573 Y108.734 E3.33061
G1 X135.758 Y109.127 E3.33928
G1 X135.923 Y109.498 E3.34738
G1 X136.05 Y109.797 E3.35386
G1 X136.186 Y110.132 E3.36108
G1 X136.325 Y110.493 E3.3688
G1 X136.471 Y110.896 E3.37735
G1 X136.605 Y111.307 E3.38598
G1 X136.796 Y111.93 E3.39898
G1 X136.987 Y112.637 E3.4136
G1 X137.116 Y113.192 E3.42497
G1 X137.192 Y113.548 E3.43223
G1 X137.249 Y113.838 E3.43813
G1 X137.32 Y114.242 E3.44632
G1 X137.359 Y114.491 E3.45135
G1 X137.406 Y114.822 E3.45802
G1 X137.458 Y115.24 E3.46643
G1 X137.496 Y115.595 E3.47355
G1 X137.51 Y115.75 E3.47666
G1 X137.538 Y116.147 E3.4846
G1 X137.569 Y116.736 E3.49637
G1 X137.582 Y117.102 E3.50368
G1 X137.586 Y117.324 E3.50811
G1 X137.586 Y117.71 E3.51581
G1 X137.583 Y117.873 E3.51906
G1 X137.571 Y118.226 E3.52611
G1 X137.538 Y118.864 E3.53886
G1 X137.501 Y119.353 E3.54865
G1 X137.465 Y119.694 E3.55549
G1 X137.396 Y120.252 E3.56671
G1 X137.347 Y120.597 E3.57367
G1 X137.325 Y120.737 E3.57649
G1 X137.261 Y121.104 E3.58393
G1 X137.208 Y121.378 E3.5895
G1 X137.12 Y121.79 E3.5979
G1 X136.971 Y122.424 E3.6109
G1 X136.788 Y123.102 E3.62492
G1 X136.615 Y123.667 E3.63671
G1 X136.496 Y124.032 E3.64437
G1 X136.34 Y124.463 E3.65352
G1 X136.139 Y124.983 E3.66464
G1 X135.982 Y125.366 E3.6729
G1 X135.912 Y125.528 E3.67642
G1 X135.786 Y125.809 E3.68257
G1 X135.594 Y126.22 E3.69162
G1 X135.448 Y126.521 E3.6983
G1 X135.365 Y126.685 E3.70197
G1 X135.16 Y127.069 E3.71065
G1 X134.913 Y127.511 E3.72076
G1 X134.708 Y127.862 E3.72887
G1 X134.589 Y128.057 E3.73343
G1 X134.349 Y128.435 E3.74236
G1 X134.102 Y128.801 E3.75118
G1 X133.692 Y129.381 E3.76535
G1 X133.241 Y129.972 E3.78019
G1 X132.846 Y130.455 E3.79264
G1 X132.592 Y130.755 E3.80048
G1 X132.318 Y131.06 E3.80866
G1 X132.116 Y131.277 E3.81458
G1 X131.807 Y131.595 E3.82343
G1 X131.474 Y131.924 E3.83277
G1 X131.214 Y132.173 E3.83995
G1 X130.928 Y132.437 E3.84772
G1 X130.636 Y132.696 E3.85551
G1 X130.303 Y132.976 E3.86419
G1 X129.892 Y133.307 E3.87472
G1 X129.594 Y133.538 E3.88225
G1 X129.447 Y133.648 E3.88591
G1 X129.117 Y133.885 E3.89402
G1 X128.72 Y134.159 E3.90365
G1 X128.439 Y134.346 E3.91038
G1 X128.276 Y134.451 E3.91425
G1 X127.941 Y134.659 E3.92212
G1 X127.585 Y134.87 E3.93038
G1 X127.26 Y135.054 E3.93783
G1 X126.956 Y135.22 E3.94475
G1 X126.604 Y135.404 E3.95267
G1 X126.303 Y135.554 E3.95938
G1 X125.982 Y135.707 E3.96648
