;FLAVOR:Marlin
;TIME:2367
;Filament used: 0.842968m
;Layer height: 0.12
;MINX:100.202
;MINY:100.2
;MINZ:0.12
;MAXX:134.799
;MAXY:134.8
;MAXZ:12
;Generated with Cura_SteamEngine 4.8.0
M140 S50
M105
M190 S50
M104 S200
M105
M109 S200
M82 ;absolute extrusion mode
; Ender 3 Custom Start G-code
G92 E0 ; Reset Extruder
G28 ; Home all axes
M420 S1  ; use saved bed leveling
G1 Z2.0 F3000 ; Move Z Axis up little to prevent scratching of Heat Bed
G1 X0.1 Y20 Z0.3 F5000.0 ; Move to start position
G1 X0.1 Y200.0 Z0.3 F1500.0 E15 ; Draw the first line
G1 X0.4 Y200.0 Z0.3 F5000.0 ; Move to side a little
G1 X0.4 Y20 Z0.3 F1500.0 E30 ; Draw the second line
G92 E0 ; Reset Extruder
G1 Z2.0 F3000 ; Move Z Axis up little to prevent scratching of Heat Bed
G1 X5 Y20 Z0.3 F5000.0 ; Move over to prevent blob squish
G92 E0
G92 E0
G1 F2700 E-5
;LAYER_COUNT:100
;LAYER:0
M107
G0 F6000 X105.227 Y105.308 Z0.12
;TYPE:SKIRT
G1 F2700 E0
G1 F1200 X105.465 Y105.074 E0.00666
G1 X105.62 Y104.925 E0.01095
G1 X105.864 Y104.698 E0.0176
G1 X106.11 Y104.479 E0.02417
G1 X106.364 Y104.262 E0.03084
G1 X106.533 Y104.122 E0.03522
G1 X106.792 Y103.913 E0.04186
G1 X107.04 Y103.721 E0.04812
G1 X107.308 Y103.522 E0.05478
G1 X107.529 Y103.363 E0.06022
G1 X107.803 Y103.174 E0.06686
G1 X108.025 Y103.027 E0.07217
G1 X108.306 Y102.847 E0.07883
G1 X108.555 Y102.694 E0.08466
G1 X108.842 Y102.525 E0.09131
G1 X109.044 Y102.41 E0.09595
G1 X109.337 Y102.249 E0.10262
G1 X109.595 Y102.113 E0.10844
G1 X109.894 Y101.963 E0.11512
G1 X110.15 Y101.841 E0.12078
G1 X110.452 Y101.703 E0.1274
G1 X110.684 Y101.601 E0.13246
G1 X110.99 Y101.473 E0.13908
G1 X111.256 Y101.368 E0.14479
G1 X111.57 Y101.25 E0.15148
G1 X111.84 Y101.154 E0.1572
G1 X112.157 Y101.048 E0.16387
G1 X112.383 Y100.976 E0.1686
G1 X112.702 Y100.88 E0.17525
G1 X113.009 Y100.794 E0.18161
G1 X113.332 Y100.711 E0.18827
G1 X113.564 Y100.656 E0.19303
G1 X113.889 Y100.583 E0.19967
G1 X114.168 Y100.525 E0.20536
G1 X114.495 Y100.464 E0.212
G1 X114.763 Y100.419 E0.21742
G1 X115.095 Y100.369 E0.22412
G1 X115.37 Y100.333 E0.22966
G1 X115.702 Y100.295 E0.23632
G1 X115.98 Y100.268 E0.2419
G1 X116.312 Y100.242 E0.24854
G1 X116.571 Y100.226 E0.25372
G1 X116.905 Y100.211 E0.26039
G1 X117.185 Y100.203 E0.26598
G1 X117.517 Y100.2 E0.27261
G1 X117.798 Y100.203 E0.27822
G1 X118.131 Y100.212 E0.28487
G1 X118.412 Y100.225 E0.29048
G1 X118.744 Y100.246 E0.29712
G1 X118.998 Y100.266 E0.3022
G1 X119.331 Y100.298 E0.30888
G1 X119.613 Y100.33 E0.31454
G1 X119.944 Y100.374 E0.32121
G1 X120.202 Y100.413 E0.32641
G1 X120.531 Y100.468 E0.33307
G1 X120.815 Y100.521 E0.33884
G1 X121.141 Y100.588 E0.34548
G1 X121.407 Y100.647 E0.35091
G1 X121.729 Y100.725 E0.35753
G1 X121.999 Y100.796 E0.3631
G1 X122.32 Y100.886 E0.36975
G1 X122.554 Y100.955 E0.37462
G1 X122.872 Y101.055 E0.38127
G1 X123.152 Y101.149 E0.38717
G1 X123.466 Y101.261 E0.39382
G1 X123.723 Y101.358 E0.3993
G1 X124.033 Y101.481 E0.40596
G1 X124.293 Y101.59 E0.41158
G1 X124.598 Y101.724 E0.41823
G1 X124.818 Y101.824 E0.42305
G1 X125.12 Y101.968 E0.42973
G1 X125.391 Y102.104 E0.43578
G1 X125.686 Y102.259 E0.44243
G1 X125.915 Y102.385 E0.44765
G1 X126.205 Y102.55 E0.45431
G1 X126.461 Y102.701 E0.46024
G1 X126.743 Y102.876 E0.46686
G1 X126.941 Y103.003 E0.47155
G1 X127.22 Y103.188 E0.47823
G1 X127.476 Y103.366 E0.48446
G1 X127.746 Y103.561 E0.4911
G1 X127.945 Y103.709 E0.49605
G1 X128.208 Y103.912 E0.50268
G1 X128.433 Y104.093 E0.50844
G1 X128.69 Y104.307 E0.51512
G1 X128.89 Y104.479 E0.52038
G1 X129.139 Y104.701 E0.52704
G1 X129.333 Y104.88 E0.53231
G1 X129.574 Y105.11 E0.53896
G1 X129.786 Y105.32 E0.54491
G1 X130.018 Y105.559 E0.55156
G1 X130.199 Y105.752 E0.55684
G1 X130.423 Y105.999 E0.56349
G1 X130.587 Y106.186 E0.56846
G1 X130.803 Y106.44 E0.57511
G1 X130.993 Y106.672 E0.58109
G1 X131.199 Y106.934 E0.58775
G1 X131.36 Y107.146 E0.59306
G1 X131.557 Y107.415 E0.59971
G1 X131.721 Y107.649 E0.60541
G1 X131.908 Y107.925 E0.61207
G1 X132.054 Y108.147 E0.61737
G1 X132.232 Y108.43 E0.62404
G1 X132.371 Y108.66 E0.6294
G1 X132.538 Y108.947 E0.63603
G1 X132.673 Y109.19 E0.64158
G1 X132.833 Y109.489 E0.64835
G1 X132.951 Y109.718 E0.65349
G1 X133.098 Y110.016 E0.66012
G1 X133.227 Y110.29 E0.66616
G1 X133.363 Y110.595 E0.67283
G1 X133.466 Y110.839 E0.67811
G1 X133.591 Y111.147 E0.68474
G1 X133.696 Y111.418 E0.69054
G1 X133.81 Y111.732 E0.69721
G1 X133.885 Y111.948 E0.70177
G1 X133.99 Y112.266 E0.70846
G1 X134.088 Y112.588 E0.71517
G1 X134.178 Y112.906 E0.72177
G1 X134.239 Y113.133 E0.72646
G1 X134.32 Y113.456 E0.73311
G1 X134.38 Y113.715 E0.73841
G1 X134.45 Y114.041 E0.74506
G1 X134.506 Y114.329 E0.75092
G1 X134.564 Y114.659 E0.75761
G1 X134.604 Y114.909 E0.76266
G1 X134.651 Y115.239 E0.76931
G1 X134.685 Y115.516 E0.77488
G1 X134.72 Y115.846 E0.7815
G1 X134.744 Y116.11 E0.78679
G1 X134.768 Y116.444 E0.79347
G1 X134.784 Y116.742 E0.79943
G1 X134.795 Y117.071 E0.806
G1 X134.799 Y117.332 E0.81121
G1 X134.799 Y117.667 E0.81789
G1 X134.795 Y117.925 E0.82304
G1 X134.784 Y118.258 E0.82969
G1 X134.768 Y118.561 E0.83575
G1 X134.744 Y118.894 E0.84241
G1 X134.721 Y119.148 E0.8475
G1 X134.686 Y119.481 E0.85418
G1 X134.651 Y119.766 E0.85991
G1 X134.604 Y120.096 E0.86656
G1 X134.564 Y120.35 E0.8717
G1 X134.506 Y120.679 E0.87836
G1 X134.455 Y120.94 E0.88367
G1 X134.386 Y121.266 E0.89032
G1 X134.314 Y121.576 E0.89667
G1 X134.232 Y121.898 E0.9033
G1 X134.171 Y122.122 E0.90793
G1 X134.079 Y122.443 E0.9146
G1 X133.988 Y122.739 E0.92078
G1 X133.884 Y123.054 E0.9274
G1 X133.809 Y123.271 E0.93198
G1 X133.695 Y123.585 E0.93865
G1 X133.589 Y123.86 E0.94453
G1 X133.463 Y124.17 E0.9512
G1 X133.353 Y124.427 E0.95678
G1 X133.217 Y124.73 E0.96341
G1 X133.1 Y124.978 E0.96888
G1 X132.951 Y125.281 E0.97562
G1 X132.832 Y125.513 E0.98083
G1 X132.675 Y125.807 E0.98748
G1 X132.527 Y126.073 E0.99355
G1 X132.359 Y126.36 E1.00019
G1 X132.236 Y126.562 E1.00491
G1 X132.058 Y126.846 E1.0116
G1 X131.91 Y127.074 E1.01702
G1 X131.724 Y127.349 E1.02365
G1 X131.534 Y127.618 E1.03022
G1 X131.335 Y127.887 E1.0369
G1 X131.198 Y128.066 E1.04139
G1 X130.993 Y128.327 E1.04802
G1 X130.799 Y128.564 E1.05413
G1 X130.582 Y128.819 E1.06081
G1 X130.421 Y129.003 E1.06569
G1 X130.198 Y129.249 E1.07232
G1 X130.015 Y129.443 E1.07764
G1 X129.782 Y129.683 E1.08431
G1 X129.571 Y129.893 E1.09025
G1 X129.331 Y130.122 E1.09687
G1 X129.125 Y130.311 E1.10245
G1 X128.875 Y130.533 E1.10913
G1 X128.685 Y130.697 E1.11413
G1 X128.429 Y130.91 E1.12078
G1 X128.209 Y131.086 E1.1264
G1 X127.945 Y131.29 E1.13306
G1 X127.727 Y131.452 E1.13848
G1 X127.457 Y131.646 E1.14512
G1 X127.233 Y131.802 E1.15056
G1 X126.954 Y131.988 E1.15725
G1 X126.719 Y132.139 E1.16283
G1 X126.435 Y132.314 E1.16949
G1 X126.21 Y132.447 E1.1747
G1 X125.921 Y132.612 E1.18134
G1 X125.664 Y132.753 E1.18719
G1 X125.369 Y132.907 E1.19383
G1 X125.125 Y133.028 E1.19927
G1 X124.824 Y133.172 E1.20593
G1 X124.576 Y133.286 E1.21137
G1 X124.271 Y133.419 E1.21801
G1 X124.042 Y133.514 E1.22296
G1 X123.731 Y133.638 E1.22964
G1 X123.462 Y133.74 E1.23538
G1 X123.148 Y133.852 E1.24204
G1 X122.875 Y133.944 E1.24779
G1 X122.558 Y134.044 E1.25442
G1 X122.289 Y134.123 E1.26002
G1 X121.967 Y134.212 E1.26668
G1 X121.715 Y134.277 E1.27188
G1 X121.391 Y134.355 E1.27853
G1 X121.145 Y134.41 E1.28356
G1 X120.821 Y134.477 E1.29016
G1 X120.535 Y134.531 E1.29597
G1 X120.208 Y134.586 E1.30258
G1 X119.93 Y134.628 E1.3082
G1 X119.595 Y134.672 E1.31494
G1 X119.327 Y134.702 E1.32032
G1 X118.995 Y134.734 E1.32698
G1 X118.736 Y134.755 E1.33216
G1 X118.402 Y134.776 E1.33884
G1 X118.124 Y134.788 E1.34439
G1 X117.792 Y134.797 E1.35102
G1 X117.511 Y134.8 E1.35663
G1 X117.179 Y134.797 E1.36325
G1 X116.899 Y134.789 E1.36884
G1 X116.565 Y134.774 E1.37552
G1 X116.308 Y134.758 E1.38065
G1 X115.975 Y134.732 E1.38732
G1 X115.692 Y134.705 E1.39299
G1 X115.361 Y134.667 E1.39964
G1 X115.076 Y134.629 E1.40538
G1 X114.748 Y134.579 E1.412
G1 X114.501 Y134.537 E1.417
G1 X114.172 Y134.476 E1.42368
G1 X113.929 Y134.427 E1.42863
G1 X113.604 Y134.356 E1.43526
G1 X113.274 Y134.276 E1.44204
G1 X112.949 Y134.19 E1.44875
G1 X112.696 Y134.119 E1.45399
G1 X112.377 Y134.023 E1.46064
G1 X112.137 Y133.947 E1.46567
G1 X111.822 Y133.841 E1.4723
G1 X111.587 Y133.757 E1.47728
G1 X111.273 Y133.64 E1.48397
G1 X110.966 Y133.518 E1.49056
G1 X110.66 Y133.389 E1.49718
G1 X110.429 Y133.288 E1.50222
G1 X110.127 Y133.149 E1.50885
G1 X109.89 Y133.035 E1.5141
G1 X109.591 Y132.885 E1.52077
G1 X109.36 Y132.764 E1.52598
G1 X109.066 Y132.604 E1.53266
G1 X108.81 Y132.458 E1.53854
G1 X108.524 Y132.288 E1.54518
G1 X108.312 Y132.158 E1.55014
G1 X108.03 Y131.978 E1.55682
G1 X107.76 Y131.797 E1.5633
G1 X107.488 Y131.607 E1.56993
G1 X107.283 Y131.459 E1.57497
G1 X107.017 Y131.26 E1.5816
G1 X106.814 Y131.103 E1.58672
G1 X106.553 Y130.894 E1.5934
G1 X106.336 Y130.714 E1.59902
G1 X106.083 Y130.496 E1.60569
G1 X105.886 Y130.32 E1.61096
G1 X105.641 Y130.094 E1.61761
G1 X105.438 Y129.9 E1.62321
G1 X105.201 Y129.665 E1.62987
G1 X105.016 Y129.475 E1.63517
G1 X104.788 Y129.233 E1.6418
G1 X104.589 Y129.014 E1.64771
G1 X104.369 Y128.762 E1.65438
G1 X104.196 Y128.556 E1.65975
G1 X103.986 Y128.298 E1.66639
G1 X103.812 Y128.076 E1.67202
G1 X103.611 Y127.81 E1.67867
G1 X103.462 Y127.606 E1.68371
G1 X103.27 Y127.334 E1.69036
G1 X103.123 Y127.12 E1.69554
G1 X102.939 Y126.84 E1.70222
G1 X102.786 Y126.597 E1.70795
G1 X102.614 Y126.313 E1.71458
G1 X102.471 Y126.066 E1.72028
G1 X102.309 Y125.775 E1.72692
G1 X102.181 Y125.535 E1.73235
G1 X102.029 Y125.238 E1.73901
G1 X101.913 Y125.003 E1.74424
G1 X101.771 Y124.701 E1.7509
G1 X101.659 Y124.452 E1.75635
G1 X101.528 Y124.146 E1.76299
G1 X101.427 Y123.896 E1.76837
G1 X101.306 Y123.584 E1.77505
G1 X101.195 Y123.28 E1.78151
G1 X101.088 Y122.966 E1.78813
G1 X101.015 Y122.741 E1.79285
G1 X100.917 Y122.422 E1.79951
G1 X100.841 Y122.16 E1.80495
G1 X100.754 Y121.837 E1.81163
G1 X100.683 Y121.55 E1.81753
G1 X100.609 Y121.227 E1.82414
G1 X100.561 Y121.001 E1.82875
G1 X100.496 Y120.673 E1.83542
G1 X100.445 Y120.387 E1.84122
G1 X100.392 Y120.055 E1.84793
G1 X100.354 Y119.79 E1.85327
G1 X100.313 Y119.461 E1.85989
G1 X100.282 Y119.173 E1.86567
G1 X100.253 Y118.84 E1.87234
G1 X100.234 Y118.561 E1.87792
G1 X100.217 Y118.228 E1.88457
G1 X100.208 Y117.971 E1.88971
G1 X100.202 Y117.638 E1.89635
G1 X100.202 Y117.356 E1.90198
G1 X100.208 Y117.023 E1.90863
G1 X100.217 Y116.765 E1.91378
G1 X100.234 Y116.433 E1.92041
G1 X100.253 Y116.157 E1.92593
G1 X100.282 Y115.823 E1.93262
G1 X100.313 Y115.531 E1.93848
G1 X100.354 Y115.203 E1.94508
G1 X100.392 Y114.937 E1.95044
G1 X100.445 Y114.606 E1.95713
G1 X100.487 Y114.368 E1.96196
G1 X100.55 Y114.04 E1.96862
G1 X100.62 Y113.713 E1.97529
G1 X100.697 Y113.388 E1.98196
G1 X100.76 Y113.14 E1.98707
G1 X100.847 Y112.82 E1.99368
G1 X100.916 Y112.582 E1.99863
G1 X101.014 Y112.262 E2.00531
G1 X101.101 Y111.995 E2.01091
G1 X101.21 Y111.68 E2.01756
G1 X101.304 Y111.423 E2.02302
G1 X101.424 Y111.112 E2.02968
G1 X101.535 Y110.839 E2.03556
G1 X101.667 Y110.532 E2.04223
G1 X101.765 Y110.313 E2.04701
G1 X101.906 Y110.011 E2.05367
G1 X102.031 Y109.757 E2.05931
G1 X102.182 Y109.462 E2.06593
G1 X102.314 Y109.214 E2.07153
G1 X102.477 Y108.922 E2.07821
G1 X102.627 Y108.666 E2.08413
G1 X102.8 Y108.382 E2.09077
G1 X102.932 Y108.173 E2.0957
G1 X103.115 Y107.893 E2.10237
G1 X103.272 Y107.662 E2.10795
G1 X103.464 Y107.39 E2.11459
G1 X103.621 Y107.174 E2.11992
G1 X103.822 Y106.909 E2.12656
G1 X103.978 Y106.711 E2.13159
G1 X104.188 Y106.452 E2.13824
G1 X104.393 Y106.21 E2.14457
G1 X104.614 Y105.959 E2.15125
G1 X104.768 Y105.788 E2.15584
G1 X104.995 Y105.545 E2.16247
G1 X105.227 Y105.308 E2.16909
G0 F6000 X105.507 Y105.593
G1 F1200 X105.745 Y105.359 E2.17575
G1 X105.893 Y105.218 E2.17983
G1 X106.137 Y104.991 E2.18648
G1 X106.37 Y104.783 E2.19272
G1 X106.624 Y104.566 E2.19938
G1 X106.784 Y104.433 E2.20354
G1 X107.043 Y104.224 E2.21018
G1 X107.278 Y104.042 E2.21611
G1 X107.546 Y103.843 E2.22277
G1 X107.756 Y103.693 E2.22792
G1 X108.03 Y103.504 E2.23456
G1 X108.24 Y103.364 E2.2396
G1 X108.521 Y103.184 E2.24626
G1 X108.758 Y103.038 E2.25181
G1 X109.045 Y102.869 E2.25846
G1 X109.236 Y102.761 E2.26284
G1 X109.529 Y102.6 E2.26951
G1 X109.775 Y102.471 E2.27505
G1 X110.074 Y102.321 E2.28173
G1 X110.316 Y102.204 E2.28709
G1 X110.618 Y102.066 E2.29372
G1 X110.838 Y101.97 E2.29851
G1 X111.144 Y101.842 E2.30513
G1 X111.397 Y101.742 E2.31056
G1 X111.711 Y101.624 E2.31725
G1 X111.967 Y101.533 E2.32267
G1 X112.284 Y101.427 E2.32934
G1 X112.499 Y101.359 E2.33384
G1 X112.818 Y101.263 E2.34049
G1 X113.108 Y101.182 E2.3465
G1 X113.431 Y101.099 E2.35316
G1 X113.651 Y101.046 E2.35767
G1 X113.976 Y100.973 E2.36432
G1 X114.241 Y100.918 E2.36972
G1 X114.568 Y100.857 E2.37636
G1 X114.823 Y100.815 E2.38152
G1 X115.155 Y100.765 E2.38822
G1 X115.416 Y100.73 E2.39347
G1 X115.748 Y100.692 E2.40014
G1 X116.011 Y100.667 E2.40541
G1 X116.343 Y100.641 E2.41206
G1 X116.589 Y100.625 E2.41698
G1 X116.923 Y100.61 E2.42365
G1 X117.188 Y100.603 E2.42894
G1 X117.52 Y100.6 E2.43557
G1 X117.787 Y100.603 E2.44089
G1 X118.12 Y100.612 E2.44754
G1 X118.387 Y100.624 E2.45288
G1 X118.719 Y100.645 E2.45951
G1 X118.96 Y100.664 E2.46434
G1 X119.293 Y100.696 E2.47101
G1 X119.56 Y100.727 E2.47638
G1 X119.891 Y100.771 E2.48304
G1 X120.136 Y100.807 E2.48798
G1 X120.465 Y100.862 E2.49464
G1 X120.735 Y100.913 E2.50012
G1 X121.061 Y100.98 E2.50677
G1 X121.313 Y101.036 E2.51192
G1 X121.635 Y101.114 E2.51853
G1 X121.891 Y101.181 E2.52381
G1 X122.212 Y101.271 E2.53046
G1 X122.434 Y101.337 E2.53509
G1 X122.752 Y101.437 E2.54174
G1 X123.018 Y101.526 E2.54734
G1 X123.332 Y101.638 E2.55399
G1 X123.575 Y101.73 E2.55917
G1 X123.885 Y101.853 E2.56583
G1 X124.133 Y101.956 E2.57119
G1 X124.438 Y102.09 E2.57784
G1 X124.646 Y102.185 E2.5824
G1 X124.948 Y102.329 E2.58908
G1 X125.205 Y102.458 E2.59481
G1 X125.5 Y102.613 E2.60146
G1 X125.717 Y102.732 E2.6064
G1 X126.007 Y102.897 E2.61306
G1 X126.25 Y103.041 E2.6187
G1 X126.532 Y103.216 E2.62532
G1 X126.719 Y103.337 E2.62977
G1 X126.998 Y103.522 E2.63645
G1 X127.242 Y103.69 E2.64236
G1 X127.512 Y103.885 E2.64901
G1 X127.701 Y104.026 E2.65371
G1 X127.964 Y104.229 E2.66034
G1 X128.177 Y104.4 E2.66579
G1 X128.434 Y104.614 E2.67247
G1 X128.624 Y104.778 E2.67748
G1 X128.873 Y105 E2.68413
G1 X129.057 Y105.17 E2.68913
G1 X129.298 Y105.4 E2.69578
G1 X129.499 Y105.599 E2.70142
G1 X129.731 Y105.838 E2.70807
G1 X129.903 Y106.021 E2.71308
G1 X130.127 Y106.268 E2.71974
G1 X130.282 Y106.445 E2.72443
G1 X130.498 Y106.699 E2.73109
G1 X130.678 Y106.919 E2.73676
G1 X130.884 Y107.181 E2.74341
G1 X131.037 Y107.383 E2.74847
G1 X131.234 Y107.652 E2.75512
G1 X131.39 Y107.873 E2.76052
G1 X131.577 Y108.149 E2.76717
G1 X131.715 Y108.36 E2.7722
G1 X131.893 Y108.643 E2.77888
G1 X132.025 Y108.861 E2.78396
G1 X132.192 Y109.148 E2.79059
G1 X132.321 Y109.379 E2.79587
G1 X132.481 Y109.678 E2.80263
G1 X132.592 Y109.895 E2.8075
G1 X132.739 Y110.193 E2.81413
G1 X132.862 Y110.453 E2.81987
G1 X132.998 Y110.758 E2.82653
G1 X133.096 Y110.989 E2.83154
G1 X133.221 Y111.297 E2.83818
G1 X133.32 Y111.555 E2.84369
G1 X133.434 Y111.869 E2.85036
G1 X133.505 Y112.074 E2.85469
G1 X133.61 Y112.392 E2.86137
G1 X133.703 Y112.697 E2.86773
G1 X133.793 Y113.015 E2.87433
G1 X133.851 Y113.23 E2.87877
G1 X133.932 Y113.553 E2.88542
G1 X133.989 Y113.799 E2.89046
G1 X134.059 Y114.125 E2.89711
G1 X134.112 Y114.398 E2.90266
G1 X134.17 Y114.728 E2.90935
G1 X134.208 Y114.966 E2.91416
G1 X134.255 Y115.296 E2.92081
G1 X134.288 Y115.559 E2.9261
G1 X134.323 Y115.889 E2.93272
G1 X134.345 Y116.139 E2.93773
G1 X134.369 Y116.473 E2.94441
G1 X134.384 Y116.756 E2.95007
G1 X134.395 Y117.085 E2.95664
G1 X134.399 Y117.332 E2.96157
G1 X134.399 Y117.667 E2.96825
G1 X134.395 Y117.911 E2.97312
G1 X134.384 Y118.244 E2.97977
G1 X134.369 Y118.532 E2.98552
G1 X134.345 Y118.865 E2.99219
G1 X134.323 Y119.107 E2.99704
G1 X134.288 Y119.44 E3.00372
G1 X134.255 Y119.709 E3.00913
G1 X134.208 Y120.039 E3.01578
G1 X134.17 Y120.281 E3.02067
G1 X134.112 Y120.61 E3.02733
G1 X134.064 Y120.857 E3.03236
G1 X133.995 Y121.183 E3.03901
G1 X133.926 Y121.477 E3.04503
G1 X133.844 Y121.799 E3.05166
