;FLAVOR:Marlin
;TIME:12009
;Filament used: 7.87752m
;Layer height: 0.2
;MINX:63
;MINY:66
;MINZ:0.2
;MAXX:172
;MAXY:169
;MAXZ:57
;Generated with Cura_SteamEngine 4.8.0
M140 S50
M105
M190 S50
M104 S200
M105
M109 S200
M82 ;absolute extrusion mode
; Ender 3 Custom Start G-code
G92 E0 ; Reset Extruder
G28 ; Home all axes
M420 S1  ; use saved bed leveling
G1 Z2.0 F3000 ; Move Z Axis up little to prevent scratching of Heat Bed
G1 X0.1 Y20 Z0.3 F5000.0 ; Move to start position
G1 X0.1 Y200.0 Z0.3 F1500.0 E15 ; Draw the first line
G1 X0.4 Y200.0 Z0.3 F5000.0 ; Move to side a little
G1 X0.4 Y20 Z0.3 F1500.0 E30 ; Draw the second line
G92 E0 ; Reset Extruder
G1 Z2.0 F3000 ; Move Z Axis up little to prevent scratching of Heat Bed
G1 X5 Y20 Z0.3 F5000.0 ; Move over to prevent blob squish
G92 E0
G92 E0
G1 F2700 E-5
;LAYER_COUNT:285
;LAYER:0
M107
G0 F6000 X111.497 Y71.437 Z0.2
;TYPE:SKIRT
G1 F2700 E0
G1 F1200 X111.868 Y70.884 E0.02215
G1 X112.424 Y70.128 E0.05336
G1 X113.041 Y69.422 E0.08455
G1 X113.717 Y68.771 E0.11576
G1 X114.445 Y68.181 E0.14693
G1 X115.221 Y67.654 E0.17813
G1 X116.039 Y67.196 E0.20931
G1 X116.894 Y66.808 E0.24054
G1 X117.778 Y66.495 E0.27173
G1 X118.685 Y66.259 E0.3029
G1 X119.61 Y66.101 E0.33411
G1 X120.836 Y66.013 E0.37499
G1 X121.791 Y66 E0.40676
G1 X160.293 Y66 E1.68734
G1 X161.149 Y66.011 E1.71581
G1 X162.085 Y66.065 E1.747
G1 X163.013 Y66.197 E1.77817
G1 X163.927 Y66.409 E1.80938
G1 X164.819 Y66.698 E1.84057
G1 X165.684 Y67.061 E1.87177
G1 X166.514 Y67.497 E1.90295
G1 X167.305 Y68.002 E1.93416
G1 X168.049 Y68.573 E1.96536
G1 X168.742 Y69.205 E1.99655
G1 X169.379 Y69.893 E2.02774
G1 X169.954 Y70.634 E2.05893
G1 X170.465 Y71.42 E2.09011
G1 X170.907 Y72.248 E2.12133
G1 X171.276 Y73.11 E2.15252
G1 X171.571 Y74 E2.1837
G1 X171.789 Y74.912 E2.21489
G1 X171.929 Y75.84 E2.2461
G1 X171.987 Y76.701 E2.27481
G1 X171.996 Y77.021 E2.28545
G1 X172 Y77.33 E2.29573
G1 X171.999 Y116.45 E3.59687
G1 X171.989 Y117.152 E3.62022
G1 X171.936 Y118.088 E3.6514
G1 X171.803 Y119.016 E3.68258
G1 X171.591 Y119.93 E3.71379
G1 X171.303 Y120.823 E3.745
G1 X170.939 Y121.687 E3.77618
G1 X170.503 Y122.518 E3.80739
G1 X169.998 Y123.308 E3.83858
G1 X169.428 Y124.052 E3.86975
G1 X169.055 Y124.476 E3.88853
G1 X168.914 Y124.628 E3.89543
G1 X168.712 Y124.84 E3.90517
G1 X168.531 Y125.025 E3.91378
G1 X157.167 Y136.389 E4.4483
G1 X155.348 Y138.261 E4.53512
G1 X153.641 Y140.119 E4.61904
G1 X151.971 Y142.046 E4.70385
G1 X150.397 Y143.964 E4.78637
G1 X148.837 Y145.982 E4.87121
G1 X147.38 Y147.983 E4.95354
G1 X145.936 Y150.087 E5.03841
G1 X144.577 Y152.191 E5.12172
G1 X143.289 Y154.315 E5.20434
G1 X142.026 Y156.537 E5.28935
G1 X140.86 Y158.733 E5.37204
G1 X139.395 Y161.716 E5.48258
G1 X138.948 Y162.668 E5.51756
G1 X138.513 Y163.499 E5.54875
G1 X138.009 Y164.29 E5.57995
G1 X137.44 Y165.035 E5.61113
G1 X136.809 Y165.729 E5.64233
G1 X136.121 Y166.367 E5.67353
G1 X135.382 Y166.944 E5.70472
G1 X134.596 Y167.456 E5.73592
G1 X133.769 Y167.898 E5.76711
G1 X132.908 Y168.269 E5.79829
G1 X132.018 Y168.566 E5.82949
G1 X131.106 Y168.785 E5.86069
G1 X130.179 Y168.926 E5.89188
G1 X129.333 Y168.985 E5.92008
G1 X129.011 Y168.995 E5.9308
G1 X128.67 Y169 E5.94214
G1 X74.565 Y168.999 E7.74168
G1 X73.867 Y168.99 E7.7649
G1 X72.931 Y168.938 E7.79608
G1 X72.002 Y168.806 E7.82729
G1 X71.088 Y168.596 E7.85848
G1 X70.195 Y168.309 E7.88968
G1 X69.33 Y167.946 E7.92088
G1 X68.499 Y167.512 E7.95206
G1 X67.708 Y167.008 E7.98325
G1 X66.963 Y166.438 E8.01445
G1 X66.269 Y165.807 E8.04565
G1 X65.632 Y165.12 E8.07681
G1 X65.055 Y164.38 E8.10802
G1 X64.543 Y163.594 E8.13922
G1 X64.1 Y162.767 E8.17042
G1 X63.729 Y161.906 E8.20161
G1 X63.433 Y161.016 E8.2328
G1 X63.214 Y160.104 E8.264
G1 X63.073 Y159.177 E8.29518
G1 X63.013 Y158.288 E8.32482
G1 X63.004 Y157.955 E8.3359
G1 X63 Y157.658 E8.34578
G1 X63.001 Y147.55 E8.68197
G1 X63.011 Y146.848 E8.70532
G1 X63.064 Y145.912 E8.7365
G1 X63.197 Y144.984 E8.76769
G1 X63.409 Y144.07 E8.79889
G1 X63.697 Y143.177 E8.8301
G1 X64.061 Y142.313 E8.86128
G1 X64.497 Y141.482 E8.8925
G1 X65.002 Y140.692 E8.92368
G1 X65.749 Y139.742 E8.96388
G1 X66.157 Y139.278 E8.98443
G1 X67.857 Y137.288 E9.07148
G1 X69.45 Y135.315 E9.15582
G1 X70.969 Y133.319 E9.23924
G1 X72.442 Y131.265 E9.32331
G1 X73.997 Y128.958 E9.41585
G1 X111.497 Y71.437 E11.69966
G0 F6000 X111.829 Y71.659
G1 F1200 X112.2 Y71.106 E11.72181
G1 X112.746 Y70.365 E11.75242
G1 X113.354 Y69.674 E11.78304
G1 X114.02 Y69.038 E11.81367
G1 X114.738 Y68.462 E11.84428
G1 X115.503 Y67.95 E11.8749
G1 X116.311 Y67.507 E11.90555
G1 X117.153 Y67.136 E11.93615
G1 X118.024 Y66.839 E11.96676
G1 X118.918 Y66.619 E11.99738
G1 X119.828 Y66.477 E12.02801
G1 X120.842 Y66.413 E12.0618
G1 X121.791 Y66.4 E12.09337
G1 X160.293 Y66.4 E13.37395
G1 X161.143 Y66.411 E13.40223
G1 X162.062 Y66.464 E13.43284
G1 X162.973 Y66.597 E13.46346
G1 X163.869 Y66.808 E13.49408
G1 X164.743 Y67.096 E13.52469
G1 X165.59 Y67.459 E13.55534
G1 X166.401 Y67.894 E13.58595
G1 X167.171 Y68.398 E13.61655
G1 X167.895 Y68.967 E13.64718
G1 X168.567 Y69.597 E13.67782
G1 X169.182 Y70.282 E13.70844
G1 X169.735 Y71.018 E13.73906
G1 X170.222 Y71.799 E13.76967
G1 X170.639 Y72.62 E13.8003
G1 X170.984 Y73.474 E13.83093
G1 X171.253 Y74.354 E13.86154
G1 X171.445 Y75.255 E13.89218
G1 X171.558 Y76.168 E13.92277
G1 X171.587 Y76.712 E13.94089
G1 X171.596 Y77.032 E13.95154
G1 X171.6 Y77.33 E13.96145
G1 X171.599 Y116.444 E15.26239
G1 X171.589 Y117.146 E15.28574
G1 X171.536 Y118.065 E15.31636
G1 X171.403 Y118.976 E15.34698
G1 X171.192 Y119.872 E15.3776
G1 X170.904 Y120.747 E15.40823
G1 X170.541 Y121.593 E15.43885
G1 X170.106 Y122.404 E15.46946
G1 X169.602 Y123.175 E15.5001
G1 X168.761 Y124.204 E15.5443
G1 X168.62 Y124.356 E15.5512
G1 X168.426 Y124.56 E15.56056
G1 X168.245 Y124.745 E15.56917
G1 X156.88 Y136.11 E16.10374
G1 X155.049 Y137.994 E16.19112
G1 X153.343 Y139.852 E16.27502
G1 X151.678 Y141.772 E16.35954
G1 X150.07 Y143.732 E16.44387
G1 X148.542 Y145.708 E16.52695
G1 X147.043 Y147.768 E16.61168
G1 X145.603 Y149.865 E16.69629
G1 X144.242 Y151.972 E16.77972
G1 X142.933 Y154.132 E16.86372
G1 X141.668 Y156.358 E16.94888
G1 X140.517 Y158.523 E17.03043
G1 X139.035 Y161.542 E17.14229
G1 X138.586 Y162.498 E17.17742
G1 X138.158 Y163.313 E17.20804
G1 X137.662 Y164.088 E17.23864
G1 X137.1 Y164.818 E17.26928
G1 X136.477 Y165.496 E17.29991
G1 X135.798 Y166.117 E17.33051
G1 X135.067 Y166.677 E17.36114
G1 X134.29 Y167.171 E17.39176
G1 X133.473 Y167.596 E17.42239
G1 X132.623 Y167.949 E17.453
G1 X131.745 Y168.226 E17.48363
G1 X130.847 Y168.427 E17.51423
G1 X129.934 Y168.548 E17.54486
G1 X129.321 Y168.585 E17.56529
G1 X128.999 Y168.595 E17.576
G1 X128.67 Y168.6 E17.58695
G1 X74.57 Y168.599 E19.38632
G1 X73.872 Y168.59 E19.40954
G1 X72.953 Y168.538 E19.44015
G1 X72.042 Y168.407 E19.47077
G1 X71.146 Y168.197 E19.50137
G1 X70.271 Y167.91 E19.532
G1 X69.424 Y167.548 E19.56264
G1 X68.612 Y167.114 E19.59326
G1 X67.841 Y166.612 E19.62386
G1 X67.116 Y166.044 E19.65449
G1 X66.443 Y165.415 E19.68513
G1 X65.828 Y164.731 E19.71573
G1 X65.274 Y163.996 E19.74634
G1 X64.786 Y163.215 E19.77697
G1 X64.367 Y162.395 E19.8076
G1 X64.021 Y161.542 E19.83821
G1 X63.751 Y160.662 E19.86883
G1 X63.558 Y159.761 E19.89948
G1 X63.444 Y158.848 E19.93008
G1 X63.413 Y158.277 E19.9491
G1 X63.404 Y157.944 E19.96018
G1 X63.4 Y157.658 E19.96969
G1 X63.401 Y147.556 E20.30568
G1 X63.411 Y146.854 E20.32904
G1 X63.464 Y145.935 E20.35965
G1 X63.597 Y145.024 E20.39027
G1 X63.808 Y144.128 E20.42089
G1 X64.096 Y143.253 E20.45153
G1 X64.459 Y142.407 E20.48215
G1 X64.894 Y141.596 E20.51276
G1 X65.398 Y140.825 E20.54339
G1 X66.049 Y140.006 E20.57819
G1 X66.477 Y139.519 E20.59975
G1 X68.189 Y137.516 E20.68739
G1 X69.751 Y135.58 E20.77013
G1 X71.293 Y133.555 E20.85479
G1 X72.755 Y131.516 E20.93823
G1 X74.331 Y129.178 E21.03201
G1 X111.829 Y71.659 E23.31574
G0 F6000 X112.162 Y71.882
G1 F1200 X112.533 Y71.329 E23.33789
G1 X113.068 Y70.602 E23.36791
G1 X113.667 Y69.926 E23.39795
G1 X114.322 Y69.305 E23.42797
G1 X115.03 Y68.744 E23.45801
G1 X115.785 Y68.248 E23.48806
G1 X116.58 Y67.821 E23.51807
G1 X117.411 Y67.465 E23.54814
G1 X118.269 Y67.185 E23.57816
G1 X119.149 Y66.982 E23.6082
G1 X120.044 Y66.857 E23.63825
G1 X120.848 Y66.813 E23.66504
G1 X121.791 Y66.8 E23.6964
G1 X160.293 Y66.8 E24.97698
G1 X161.137 Y66.811 E25.00506
G1 X162.039 Y66.864 E25.03511
G1 X162.932 Y66.996 E25.06513
G1 X163.81 Y67.207 E25.09517
G1 X164.666 Y67.495 E25.12521
G1 X165.493 Y67.857 E25.15523
G1 X166.285 Y68.292 E25.18529
G1 X167.036 Y68.794 E25.21533
G1 X167.739 Y69.361 E25.24537
G1 X168.389 Y69.988 E25.27541
G1 X168.981 Y70.67 E25.30545
G1 X169.511 Y71.401 E25.33548
G1 X169.973 Y72.177 E25.36552
G1 X170.366 Y72.99 E25.39555
G1 X170.684 Y73.835 E25.42558
G1 X170.927 Y74.705 E25.45562
G1 X171.092 Y75.593 E25.48566
G1 X171.187 Y76.723 E25.52338
G1 X171.196 Y77.043 E25.53403
G1 X171.2 Y77.33 E25.54357
G1 X171.199 Y116.438 E26.84431
G1 X171.189 Y117.14 E26.86766
G1 X171.136 Y118.042 E26.89771
G1 X171.004 Y118.935 E26.92774
G1 X170.793 Y119.813 E26.95777
G1 X170.505 Y120.669 E26.98781
G1 X170.143 Y121.497 E27.01787
G1 X169.709 Y122.289 E27.04791
G1 X169.206 Y123.039 E27.07794
G1 X168.468 Y123.932 E27.11647
G1 X168.327 Y124.084 E27.12337
G1 X168.14 Y124.28 E27.13238
G1 X167.959 Y124.465 E27.14099
G1 X156.629 Y135.795 E27.67391
G1 X154.751 Y137.727 E27.76353
G1 X153.03 Y139.602 E27.84818
G1 X151.38 Y141.504 E27.93193
G1 X149.777 Y143.459 E28.01601
G1 X148.189 Y145.513 E28.10237
G1 X146.722 Y147.527 E28.18524
G1 X145.281 Y149.627 E28.26995
G1 X143.907 Y151.754 E28.35417
G1 X142.577 Y153.949 E28.43953
G1 X141.333 Y156.137 E28.52324
G1 X140.137 Y158.387 E28.60799
G1 X138.702 Y161.31 E28.7163
G1 X138.224 Y162.328 E28.7537
G1 X137.804 Y163.127 E28.78373
G1 X137.315 Y163.886 E28.81376
G1 X136.761 Y164.6 E28.84381
G1 X136.146 Y165.261 E28.87384
G1 X135.475 Y165.865 E28.90387
G1 X134.753 Y166.408 E28.93392
G1 X133.985 Y166.884 E28.96397
G1 X133.179 Y167.291 E28.994
G1 X132.34 Y167.625 E29.02404
G1 X131.475 Y167.883 E29.05406
G1 X130.59 Y168.064 E29.0841
G1 X129.309 Y168.185 E29.1269
G1 X128.987 Y168.195 E29.13761
G1 X128.67 Y168.2 E29.14816
G1 X74.575 Y168.199 E30.94737
G1 X73.877 Y168.19 E30.97058
G1 X72.976 Y168.139 E31.0006
G1 X72.082 Y168.007 E31.03066
G1 X71.204 Y167.798 E31.06067
G1 X70.347 Y167.511 E31.09073
G1 X69.52 Y167.15 E31.12075
G1 X68.727 Y166.717 E31.1508
G1 X67.976 Y166.216 E31.18082
G1 X67.272 Y165.65 E31.21087
G1 X66.621 Y165.024 E31.24091
G1 X66.028 Y164.343 E31.27094
G1 X65.498 Y163.612 E31.30097
G1 X65.034 Y162.837 E31.33102
G1 X64.64 Y162.024 E31.36106
G1 X64.32 Y161.18 E31.39109
G1 X64.076 Y160.31 E31.42114
G1 X63.91 Y159.422 E31.45119
G1 X63.813 Y158.267 E31.48974
G1 X63.804 Y157.934 E31.50082
G1 X63.8 Y157.658 E31.51
G1 X63.801 Y147.562 E31.84579
G1 X63.811 Y146.86 E31.86914
G1 X63.864 Y145.958 E31.89919
G1 X63.996 Y145.065 E31.92922
G1 X64.207 Y144.187 E31.95925
G1 X64.495 Y143.331 E31.98929
G1 X64.857 Y142.503 E32.01935
G1 X65.291 Y141.711 E32.04939
G1 X65.794 Y140.961 E32.07942
G1 X66.349 Y140.27 E32.1089
G1 X66.798 Y139.759 E32.13152
G1 X68.488 Y137.781 E32.21805
G1 X70.078 Y135.811 E32.30226
G1 X71.608 Y133.802 E32.38625
G1 X73.084 Y131.743 E32.47051
G1 X74.675 Y129.384 E32.56515
G1 X112.162 Y71.882 E34.8482
G1 F2700 E29.8482
;MESH:wyze-mount-v4.stl
G0 F6000 X148.979 Y86.997
G0 X147.557 Y87.349
G0 X148.611 Y88.618
G0 X149.078 Y89.03
G0 X150.596 Y89.83
;TYPE:WALL-INNER
G1 F2700 E34.8482
G1 F1200 X151.404 Y89.83 E34.87507
G1 X152.189 Y89.636 E34.90196
G1 X152.905 Y89.261 E34.92885
G1 X153.511 Y88.725 E34.95576
G1 X153.97 Y88.059 E34.98266
G1 X154.257 Y87.302 E35.00958
G1 X154.354 Y86.5 E35.03645
G1 X154.257 Y85.698 E35.06332
G1 X153.97 Y84.941 E35.09025
G1 X153.511 Y84.275 E35.11715
G1 X152.905 Y83.739 E35.14406
G1 X152.189 Y83.364 E35.17094
G1 X151.404 Y83.17 E35.19784
G1 X150.596 Y83.17 E35.22471
G1 X149.811 Y83.364 E35.25161
G1 X149.095 Y83.739 E35.27849
G1 X148.489 Y84.275 E35.3054
G1 X148.03 Y84.941 E35.3323
G1 X147.743 Y85.698 E35.35923
G1 X147.646 Y86.5 E35.3861
G1 X147.743 Y87.302 E35.41296
G1 X148.03 Y88.059 E35.43989
G1 X148.489 Y88.725 E35.46679
G1 X149.095 Y89.261 E35.4937
G1 X149.811 Y89.636 E35.52059
G1 X150.596 Y89.83 E35.54748
G0 F6000 X150.645 Y89.43
;TYPE:WALL-OUTER
G1 F1200 X151.355 Y89.43 E35.57109
G1 X152.046 Y89.259 E35.59477
G1 X152.676 Y88.929 E35.61843
G1 X153.209 Y88.458 E35.64208
G1 X153.613 Y87.872 E35.66576
G1 X153.866 Y87.206 E35.68945
G1 X153.951 Y86.5 E35.7131
G1 X153.866 Y85.794 E35.73675
G1 X153.613 Y85.128 E35.76045
G1 X153.209 Y84.542 E35.78412
G1 X152.676 Y84.071 E35.80778
G1 X152.046 Y83.741 E35.83144
G1 X151.355 Y83.57 E35.85511
G1 X150.645 Y83.57 E35.87873
G1 X149.954 Y83.741 E35.9024
G1 X149.324 Y84.071 E35.92606
G1 X148.791 Y84.542 E35.94971
G1 X148.387 Y85.128 E35.97339
G1 X148.134 Y85.794 E35.99708
G1 X148.049 Y86.5 E36.02073
G1 X148.134 Y87.206 E36.04439
G1 X148.387 Y87.872 E36.06808
G1 X148.791 Y88.458 E36.09176
G1 X149.324 Y88.929 E36.11541
G1 X149.954 Y89.259 E36.13907
G1 X150.645 Y89.43 E36.16274
G0 F6000 X150.592 Y89.866
G1 F2700 E31.16274
G0 F6000 X148.986 Y89.419
G0 X149.819 Y88.214
G0 X132.843 Y106.532
G0 X134.14 Y105.852
G0 X134.192 Y107.5
G0 X134.1 Y108.263
G0 X133.826 Y108.984
G0 X133.389 Y109.618
G0 X132.812 Y110.127
G0 X132.262 Y110.415
G0 X130.596 Y110.83
;TYPE:WALL-INNER
G1 F2700 E36.16274
G1 F1200 X131.404 Y110.83 E36.18962
G1 X132.189 Y110.636 E36.21651
G1 X132.905 Y110.261 E36.24339
G1 X133.511 Y109.725 E36.2703
G1 X133.97 Y109.059 E36.29721
G1 X134.257 Y108.302 E36.32413
G1 X134.354 Y107.5 E36.351
G1 X134.257 Y106.698 E36.37787
G1 X133.97 Y105.941 E36.4048
G1 X133.511 Y105.275 E36.4317
G1 X132.905 Y104.739 E36.45861
G1 X132.189 Y104.364 E36.48549
G1 X131.404 Y104.17 E36.51239
G1 X130.596 Y104.17 E36.53926
G1 X129.811 Y104.364 E36.56615
G1 X129.095 Y104.739 E36.59304
G1 X128.489 Y105.275 E36.61995
G1 X128.03 Y105.941 E36.64685
G1 X127.743 Y106.698 E36.67377
G1 X127.646 Y107.5 E36.70064
G1 X127.743 Y108.302 E36.72751
G1 X128.03 Y109.059 E36.75444
G1 X128.489 Y109.725 E36.78134
G1 X129.095 Y110.261 E36.80825
G1 X129.811 Y110.636 E36.83513
G1 X130.596 Y110.83 E36.86203
G0 F6000 X130.645 Y110.43
;TYPE:WALL-OUTER
G1 F1200 X131.355 Y110.43 E36.88564
G1 X132.046 Y110.259 E36.90932
G1 X132.676 Y109.929 E36.93297
G1 X133.209 Y109.458 E36.95663
G1 X133.613 Y108.872 E36.9803
G1 X133.866 Y108.206 E37.004
G1 X133.951 Y107.5 E37.02765
G1 X133.866 Y106.794 E37.0513
G1 X133.613 Y106.128 E37.075
G1 X133.209 Y105.542 E37.09867
G1 X132.676 Y105.071 E37.12233
G1 X132.046 Y104.741 E37.14598
G1 X131.355 Y104.57 E37.16966
G1 X130.645 Y104.57 E37.19327
G1 X129.954 Y104.741 E37.21695
G1 X129.324 Y105.071 E37.2406
G1 X128.791 Y105.542 E37.26426
G1 X128.387 Y106.128 E37.28794
G1 X128.134 Y106.794 E37.31163
G1 X128.049 Y107.5 E37.33528
G1 X128.134 Y108.206 E37.35893
G1 X128.387 Y108.872 E37.38263
G1 X128.791 Y109.458 E37.4063
G1 X129.324 Y109.929 E37.42996
G1 X129.954 Y110.259 E37.45362
G1 X130.645 Y110.43 E37.47729
G0 F6000 X130.592 Y110.866
G1 F2700 E32.47729
G0 F6000 X130.75 Y109.566
G0 X149.245 Y129.695
G0 X148.203 Y128.653
G0 X129.001 Y148.384
G0 X128.572 Y148.392
G0 X128.4 Y157.4
;TYPE:WALL-INNER
G1 F2700 E37.47729
G1 F1200 X74.6 Y157.4 E39.26669
G1 X74.6 Y147.6 E39.59264
G1 X75.692 Y147.6 E39.62896
G1 X121.325 Y77.6 E42.40819
G1 X160.4 Y77.6 E43.70783
G1 X160.4 Y116.752 E45.01003
G1 X128.932 Y148.22 E46.49019
G1 X128.4 Y148.22 E46.50789
G1 X128.4 Y157.4 E46.81321
G0 F6000 X128.8 Y157.8
;TYPE:WALL-OUTER
G1 F1200 X74.2 Y157.8 E48.62922
G1 X74.2 Y147.2 E48.98177
G1 X75.475 Y147.2 E49.02418
G1 X121.109 Y77.2 E51.80344
G1 X160.8 Y77.2 E53.12356
G1 X160.8 Y116.918 E54.44459
G1 X129.098 Y148.62 E55.93575
G1 X128.8 Y148.62 E55.94567
G1 X128.8 Y157.8 E56.25099
G0 F6000 X128.53 Y157.53
G0 X128.29 Y157.01
G0 X128.01 Y157.01
;TYPE:SKIN
G1 F1200 X74.99 Y157.01 E58.01445
G1 X74.99 Y147.99 E58.31445
G1 X75.903 Y147.99 E58.34482
G1 X121.537 Y77.99 E61.12407
G1 X160.01 Y77.99 E62.40369
G1 X160.01 Y116.592 E63.6876
G1 X128.772 Y147.83 E65.15694
G1 X128.01 Y147.83 E65.18228
