;FLAVOR:Marlin
;TIME:14192
;Filament used: 10.5025m
;Layer height: 0.2
;MINX:58.336
;MINY:61.335
;MINZ:0.24
;MAXX:176.665
;MAXY:173.665
;MAXZ:58.09
;Generated with Cura_SteamEngine 4.8.0
M140 S50
M105
M190 S50
M104 S200
M105
M109 S200
M82 ;absolute extrusion mode
; Ender 3 Custom Start G-code
G92 E0 ; Reset Extruder
G28 ; Home all axes
M420 S1  ; use saved bed leveling
G1 Z2.0 F3000 ; Move Z Axis up little to prevent scratching of Heat Bed
G1 X0.1 Y20 Z0.3 F5000.0 ; Move to start position
G1 X0.1 Y200.0 Z0.3 F1500.0 E15 ; Draw the first line
G1 X0.4 Y200.0 Z0.3 F5000.0 ; Move to side a little
G1 X0.4 Y20 Z0.3 F1500.0 E30 ; Draw the second line
G92 E0 ; Reset Extruder
G1 Z2.0 F3000 ; Move Z Axis up little to prevent scratching of Heat Bed
G1 X5 Y20 Z0.3 F5000.0 ; Move over to prevent blob squish
G92 E0
G92 E0
G1 F2700 E-5
;LAYER_COUNT:285
;LAYER:-6
M107
G0 F9000 X108.746 Y69.062 Z0.24
;TYPE:SUPPORT-INTERFACE
G1 F2700 E0
G1 F1125 X109.331 Y68.231 E0.08112
G1 X109.44 Y68.086 E0.0956
G1 X110.007 Y67.397 E0.16683
G1 X110.121 Y67.268 E0.18057
G1 X110.744 Y66.613 E0.25273
G1 X110.843 Y66.516 E0.26379
G1 X111.509 Y65.911 E0.33562
G1 X111.663 Y65.781 E0.35171
G1 X112.351 Y65.242 E0.42147
G1 X112.504 Y65.13 E0.43661
G1 X113.238 Y64.638 E0.50714
G1 X113.389 Y64.545 E0.5213
G1 X114.154 Y64.108 E0.59163
G1 X114.307 Y64.027 E0.60544
G1 X115.127 Y63.636 E0.67796
G1 X115.267 Y63.576 E0.69012
G1 X116.121 Y63.243 E0.76329
G1 X116.265 Y63.192 E0.77548
G1 X117.129 Y62.926 E0.84765
G1 X117.289 Y62.883 E0.86087
G1 X118.148 Y62.685 E0.93124
G1 X118.344 Y62.647 E0.94717
G1 X119.234 Y62.509 E1.01907
G1 X119.36 Y62.495 E1.02919
G1 X120.294 Y62.419 E1.10399
G1 X120.437 Y62.412 E1.11542
G1 X121.052 Y62.4 E1.16452
G1 X161.003 Y62.401 E4.35358
G1 X162.004 Y62.437 E4.43354
G1 X162.127 Y62.446 E4.44338
G1 X163.044 Y62.548 E4.51703
G1 X163.219 Y62.573 E4.53114
G1 X164.108 Y62.737 E4.6033
G1 X164.231 Y62.765 E4.61337
G1 X165.125 Y62.999 E4.68714
G1 X165.288 Y63.048 E4.70073
G1 X166.13 Y63.334 E4.77171
G1 X166.296 Y63.398 E4.78591
G1 X167.099 Y63.739 E4.85555
G1 X167.288 Y63.827 E4.87219
G1 X168.082 Y64.235 E4.94345
G1 X168.199 Y64.302 E4.95421
G1 X168.978 Y64.776 E5.027
G1 X169.129 Y64.876 E5.04146
G1 X169.843 Y65.387 E5.11155
G1 X169.991 Y65.5 E5.12641
G1 X170.682 Y66.076 E5.19822
G1 X170.795 Y66.177 E5.21032
G1 X171.444 Y66.802 E5.28224
G1 X171.564 Y66.927 E5.29607
G1 X172.167 Y67.598 E5.36809
G1 X172.263 Y67.714 E5.38011
G1 X172.813 Y68.426 E5.45192
G1 X172.926 Y68.585 E5.46749
G1 X173.416 Y69.323 E5.53821
G1 X173.492 Y69.449 E5.54995
G1 X173.938 Y70.243 E5.62265
G1 X174.016 Y70.393 E5.63614
G1 X174.399 Y71.208 E5.70803
G1 X174.459 Y71.351 E5.7204
G1 X174.788 Y72.21 E5.79383
G1 X174.84 Y72.36 E5.8065
G1 X175.095 Y73.21 E5.87734
G1 X175.142 Y73.383 E5.89165
G1 X175.34 Y74.269 E5.96412
G1 X175.365 Y74.408 E5.97539
G1 X175.498 Y75.307 E6.04794
G1 X175.516 Y75.469 E6.06095
G1 X175.583 Y76.371 E6.13315
G1 X175.592 Y76.555 E6.14785
G1 X175.6 Y77.056 E6.18785
G1 X175.6 Y116.986 E9.37524
G1 X175.564 Y117.992 E9.45559
G1 X175.554 Y118.127 E9.4664
G1 X175.452 Y119.044 E9.54005
G1 X175.427 Y119.219 E9.55416
G1 X175.265 Y120.097 E9.62543
G1 X175.235 Y120.231 E9.63639
G1 X175.004 Y121.116 E9.7094
G1 X174.952 Y121.288 E9.72374
G1 X174.666 Y122.13 E9.79473
G1 X174.602 Y122.296 E9.80893
G1 X174.261 Y123.099 E9.87857
G1 X174.18 Y123.274 E9.89396
G1 X173.765 Y124.082 E9.96647
G1 X173.698 Y124.199 E9.97723
G1 X173.224 Y124.978 E10.05002
G1 X173.124 Y125.129 E10.06448
G1 X172.613 Y125.843 E10.13456
G1 X172.5 Y125.991 E10.14943
G1 X171.923 Y126.683 E10.22135
G1 X171.827 Y126.791 E10.23288
G1 X171.345 Y127.303 E10.28902
G1 X145.172 Y153.476 E13.24365
G1 X144.73 Y153.98 E13.29716
G1 X144.347 Y154.544 E13.35158
G1 X144.038 Y155.154 E13.40617
G1 X143.809 Y155.796 E13.46058
G1 X143.661 Y156.467 E13.51542
G1 X143.6 Y157.271 E13.57979
G1 X143.6 Y157.986 E13.63686
G1 X143.564 Y158.992 E13.71722
G1 X143.554 Y159.127 E13.72802
G1 X143.452 Y160.044 E13.80167
G1 X143.427 Y160.219 E13.81578
G1 X143.265 Y161.097 E13.88705
G1 X143.235 Y161.231 E13.89801
G1 X143.004 Y162.116 E13.97103
G1 X142.952 Y162.288 E13.98537
G1 X142.676 Y163.1 E14.05383
G1 X142.596 Y163.309 E14.07169
G1 X142.261 Y164.099 E14.14019
G1 X142.18 Y164.274 E14.15558
G1 X141.765 Y165.082 E14.22809
G1 X141.698 Y165.199 E14.23885
G1 X141.224 Y165.978 E14.31164
G1 X141.124 Y166.129 E14.3261
G1 X140.613 Y166.843 E14.39619
G1 X140.5 Y166.991 E14.41105
G1 X139.924 Y167.682 E14.48286
G1 X139.823 Y167.795 E14.49496
G1 X139.198 Y168.444 E14.56688
G1 X139.073 Y168.564 E14.58071
G1 X138.403 Y169.166 E14.65261
G1 X138.286 Y169.263 E14.66474
G1 X137.574 Y169.813 E14.73656
G1 X137.415 Y169.926 E14.75213
G1 X136.677 Y170.416 E14.82284
G1 X136.551 Y170.492 E14.83459
G1 X135.757 Y170.938 E14.90729
G1 X135.606 Y171.016 E14.92085
G1 X134.792 Y171.399 E14.99266
G1 X134.649 Y171.459 E15.00504
G1 X133.79 Y171.788 E15.07847
G1 X133.64 Y171.84 E15.09114
G1 X132.79 Y172.095 E15.16198
G1 X132.617 Y172.142 E15.17629
G1 X131.722 Y172.342 E15.24949
G1 X131.592 Y172.365 E15.26003
G1 X130.687 Y172.499 E15.33306
G1 X130.519 Y172.517 E15.34655
G1 X129.629 Y172.583 E15.41779
G1 X129.445 Y172.592 E15.43249
G1 X128.94 Y172.6 E15.47281
G1 X73.997 Y172.599 E19.8586
G1 X72.996 Y172.563 E19.93855
G1 X72.873 Y172.554 E19.9484
G1 X71.956 Y172.452 E20.02205
G1 X71.781 Y172.427 E20.03616
G1 X70.892 Y172.263 E20.10832
G1 X70.769 Y172.235 E20.11839
G1 X69.875 Y172.001 E20.19215
G1 X69.712 Y171.952 E20.20574
G1 X68.87 Y171.666 E20.27673
G1 X68.704 Y171.602 E20.29093
G1 X67.901 Y171.261 E20.36057
G1 X67.712 Y171.173 E20.37721
G1 X66.918 Y170.765 E20.44847
G1 X66.801 Y170.698 E20.45923
G1 X66.022 Y170.224 E20.53202
G1 X65.871 Y170.124 E20.54648
G1 X65.157 Y169.613 E20.61656
G1 X65.009 Y169.5 E20.63143
G1 X64.318 Y168.924 E20.70324
G1 X64.205 Y168.823 E20.71533
G1 X63.556 Y168.198 E20.78726
G1 X63.436 Y168.073 E20.80109
G1 X62.833 Y167.402 E20.8731
G1 X62.736 Y167.284 E20.88529
G1 X62.178 Y166.562 E20.95813
G1 X62.074 Y166.415 E20.97251
G1 X61.581 Y165.672 E21.04369
G1 X61.508 Y165.551 E21.05497
G1 X61.056 Y164.746 E21.12866
G1 X60.984 Y164.607 E21.14116
G1 X60.587 Y163.761 E21.21575
G1 X60.541 Y163.649 E21.22542
G1 X60.212 Y162.79 E21.29885
G1 X60.155 Y162.625 E21.31278
G1 X59.905 Y161.79 E21.38236
G1 X59.858 Y161.617 E21.39667
G1 X59.657 Y160.716 E21.47036
G1 X59.635 Y160.592 E21.48041
G1 X59.5 Y159.678 E21.55416
G1 X59.483 Y159.518 E21.567
G1 X59.417 Y158.626 E21.6384
G1 X59.408 Y158.445 E21.65287
G1 X59.4 Y157.944 E21.69286
G1 X59.4 Y147.014 E22.56534
G1 X59.436 Y146.008 E22.6457
G1 X59.446 Y145.873 E22.65651
G1 X59.548 Y144.956 E22.73016
G1 X59.573 Y144.781 E22.74427
G1 X59.735 Y143.903 E22.81554
G1 X59.765 Y143.769 E22.8265
G1 X59.996 Y142.884 E22.89951
G1 X60.048 Y142.712 E22.91385
G1 X60.334 Y141.87 E22.98484
G1 X60.398 Y141.704 E22.99904
G1 X60.739 Y140.901 E23.06868
G1 X60.82 Y140.726 E23.08407
G1 X61.235 Y139.918 E23.15658
G1 X61.302 Y139.801 E23.16734
G1 X61.776 Y139.022 E23.24013
G1 X61.876 Y138.871 E23.25459
G1 X62.387 Y138.157 E23.32467
G1 X62.5 Y138.009 E23.33954
G1 X63.076 Y137.318 E23.41135
G1 X63.177 Y137.205 E23.42344
G1 X63.802 Y136.556 E23.49537
G1 X63.927 Y136.436 E23.5092
G1 X64.587 Y135.843 E23.58002
G1 X64.746 Y135.711 E23.59652
G1 X65.136 Y135.41 E23.63585
G1 X65.64 Y134.969 E23.6893
G1 X66.089 Y134.461 E23.74342
G1 X66.349 Y134.098 E23.77907
G1 X108.746 Y69.062 E29.97622
G0 F9000 X108.8 Y68.985
G1 F1125 X108.8 Y172.599 E38.24714
G0 F9000 X107.2 Y172.599
G1 F1125 X107.2 Y71.433 E46.32265
G0 F9000 X105.6 Y73.887
G1 F1125 X105.6 Y172.599 E54.20227
G0 F9000 X104 Y172.599
G1 F1125 X104 Y76.342 E61.88592
G0 F9000 X102.4 Y78.796
G1 F1125 X102.4 Y172.599 E69.37368
G0 F9000 X100.8 Y172.599
G1 F1125 X100.8 Y81.25 E76.66555
G0 F9000 X99.2 Y83.705
G1 F1125 X99.2 Y172.599 E83.76145
G0 F9000 X97.6 Y172.599
G1 F1125 X97.6 Y86.159 E90.66147
G0 F9000 X96 Y88.614
G1 F1125 X96 Y172.599 E97.36551
G0 F9000 X94.4 Y172.599
G1 F1125 X94.4 Y91.068 E103.87367
G0 F9000 X92.8 Y93.522
G1 F1125 X92.8 Y172.599 E110.18594
G0 F9000 X91.2 Y172.599
G1 F1125 X91.2 Y95.977 E116.30224
G0 F9000 X89.6 Y98.431
G1 F1125 X89.6 Y172.599 E122.22265
G0 F9000 X88 Y172.599
G1 F1125 X88 Y100.885 E127.94717
G0 F9000 X86.4 Y103.34
G1 F1125 X86.4 Y172.599 E133.47572
G0 F9000 X84.8 Y172.599
G1 F1125 X84.8 Y105.794 E138.80839
G0 F9000 X83.2 Y108.248
G1 F1125 X83.2 Y172.599 E143.94516
G0 F9000 X81.6 Y172.599
G1 F1125 X81.6 Y110.703 E148.88597
G0 F9000 X80 Y113.157
G1 F1125 X80 Y172.599 E153.63089
G0 F9000 X78.4 Y172.599
G1 F1125 X78.4 Y115.612 E158.17984
G0 F9000 X76.8 Y118.066
G1 F1125 X76.8 Y172.599 E162.5329
G0 F9000 X75.2 Y172.599
G1 F1125 X75.2 Y120.52 E166.69007
G0 F9000 X73.6 Y122.975
G1 F1125 X73.6 Y172.584 E170.65007
G0 F9000 X72 Y172.456
G1 F1125 X72 Y125.429 E174.40397
G0 F9000 X70.4 Y127.883
G1 F1125 X70.4 Y172.138 E177.9366
G0 F9000 X68.8 Y171.639
G1 F1125 X68.8 Y130.338 E181.23342
G0 F9000 X67.2 Y132.792
G1 F1125 X67.2 Y170.909 E184.27608
G0 F9000 X65.6 Y169.93
G1 F1125 X65.6 Y135.004 E187.06403
G0 F9000 X64 Y136.37
G1 F1125 X64 Y168.625 E189.63876
G0 F9000 X62.4 Y166.849
G1 F1125 X62.4 Y138.139 E191.93052
G0 F9000 X60.8 Y140.769
G1 F1125 X60.8 Y164.214 E193.802
G1 F2700 E188.802
G0 F9000 X60.034 Y165.086
G0 X60.681 Y166.24
G0 X61.901 Y167.944
G0 X62.797 Y168.945
G0 X64.352 Y170.338
G0 X65.457 Y171.126
G0 X67.251 Y172.132
G0 X68.515 Y172.669
G0 X70.512 Y173.268
G0 X71.828 Y173.509
G0 X73.597 Y173.634
G0 X110.4 Y173.665
G0 X110.4 Y172.599
G1 F2700 E193.802
G1 F1125 X110.4 Y66.974 E202.23344
G0 F9000 X112 Y65.516
G1 F1125 X112 Y172.599 E210.78127
G0 F9000 X113.6 Y172.599
G1 F1125 X113.6 Y64.424 E219.41627
G0 F9000 X115.2 Y63.604
G1 F1125 X115.2 Y172.599 E228.11672
G0 F9000 X116.8 Y172.599
G1 F1125 X116.8 Y63.027 E236.86323
G0 F9000 X118.4 Y62.638
G1 F1125 X118.4 Y172.599 E245.64079
G0 F9000 X120 Y172.599
G1 F1125 X120 Y62.442 E254.434
G0 F9000 X121.6 Y62.401
G1 F1125 X121.6 Y172.599 E263.23048
G0 F9000 X123.2 Y172.599
G1 F1125 X123.2 Y62.401 E272.02696
G0 F9000 X124.8 Y62.401
G1 F1125 X124.8 Y172.599 E280.82344
G0 F9000 X126.4 Y172.599
G1 F1125 X126.4 Y62.401 E289.61992
G0 F9000 X128 Y62.401
G1 F1125 X128 Y172.599 E298.41641
G0 F9000 X129.6 Y172.585
G1 F1125 X129.6 Y62.401 E307.21177
G0 F9000 X131.2 Y62.401
G1 F1125 X131.2 Y172.424 E315.99428
G0 F9000 X132.8 Y172.092
G1 F1125 X132.8 Y62.401 E324.75029
G0 F9000 X134.4 Y62.401
G1 F1125 X134.4 Y171.555 E333.46343
G0 F9000 X136 Y170.802
G1 F1125 X136 Y62.401 E342.11647
G0 F9000 X137.6 Y62.401
G1 F1125 X137.6 Y169.793 E350.68897
G0 F9000 X139.2 Y168.442
G1 F1125 X139.2 Y62.401 E359.15362
G0 F9000 X140.8 Y62.401
G1 F1125 X140.8 Y166.582 E367.46979
G0 F9000 X142.4 Y163.772
G1 F1125 X142.4 Y62.401 E375.56167
G0 F9000 X144 Y62.401
G1 F1125 X144 Y155.261 E382.97415
G0 F9000 X145.6 Y153.048
G1 F1125 X145.6 Y62.401 E390.20999
G0 F9000 X147.2 Y62.401
G1 F1125 X147.2 Y151.448 E397.3181
G0 F9000 X148.8 Y149.848
G1 F1125 X148.8 Y62.401 E404.2985
G0 F9000 X150.4 Y62.401
G1 F1125 X150.4 Y148.248 E411.15118
G0 F9000 X152 Y146.648
G1 F1125 X152 Y62.401 E417.87614
G0 F9000 X153.6 Y62.401
G1 F1125 X153.6 Y145.048 E424.47338
G0 F9000 X155.2 Y143.448
G1 F1125 X155.2 Y62.401 E430.9429
G0 F9000 X156.8 Y62.401
G1 F1125 X156.8 Y141.848 E437.28471
G0 F9000 X158.4 Y140.248
G1 F1125 X158.4 Y62.401 E443.49879
G0 F9000 X160 Y62.401
G1 F1125 X160 Y138.648 E449.58516
G0 F9000 X161.6 Y137.048
G1 F1125 X161.6 Y62.423 E455.54205
G0 F9000 X163.2 Y62.571
G1 F1125 X163.2 Y135.448 E461.3594
G0 F9000 X164.8 Y133.848
G1 F1125 X164.8 Y62.914 E467.02166
G0 F9000 X166.4 Y63.443
G1 F1125 X166.4 Y132.248 E472.51398
G0 F9000 X168 Y130.648
G1 F1125 X168 Y64.193 E477.8187
G0 F9000 X169.6 Y65.214
G1 F1125 X169.6 Y129.048 E482.91421
G0 F9000 X171.2 Y127.448
G1 F1125 X171.2 Y66.568 E487.77391
G0 F9000 X172.8 Y68.41
G1 F1125 X172.8 Y125.582 E492.33763
G0 F9000 X174.4 Y122.772
G1 F1125 X174.4 Y71.211 E496.45345
G0 F300 X174.4 Y71.211 Z0.54
G0 F9000 X174.357 Y71.12
;TIME_ELAPSED:346.505407
;LAYER:-5
;TYPE:SUPPORT
G1 F1125 X166.887 Y63.65 E497.50755
G1 X166.295 Y63.398 E497.57175
G1 X166.129 Y63.334 E497.5895
G1 X165.286 Y63.047 E497.67835
G1 X165.124 Y62.999 E497.69521
G1 X164.716 Y62.892 E497.7373
G1 X175.117 Y73.293 E499.20499
G1 X175.141 Y73.382 E499.21419
G1 X175.339 Y74.269 E499.30488
G1 X175.364 Y74.408 E499.31897
G1 X175.459 Y75.05 E499.38372
G1 X162.946 Y62.537 E501.14944
G1 X162.126 Y62.446 E501.23177
G1 X162.003 Y62.436 E501.24408
G1 X161.41 Y62.415 E501.30329
G1 X175.591 Y76.596 E503.30438
G1 X175.599 Y77.055 E503.35018
G1 X175.599 Y78.018 E503.44627
G1 X159.981 Y62.4 E505.65014
G1 X158.567 Y62.4 E505.79123
G1 X175.599 Y79.432 E508.19463
G1 X175.599 Y80.847 E508.33582
G1 X157.153 Y62.4 E510.93882
G1 X155.738 Y62.4 E511.08001
G1 X175.599 Y82.261 E513.88261
G1 X175.599 Y83.675 E514.0237
G1 X154.324 Y62.4 E517.02583
G1 X152.91 Y62.4 E517.16692
G1 X175.599 Y85.089 E520.36858
G1 X175.599 Y86.503 E520.50967
G1 X151.496 Y62.4 E523.91087
G1 X150.082 Y62.4 E524.05196
G1 X175.599 Y87.918 E527.65275
G1 X175.599 Y89.332 E527.79384
G1 X148.667 Y62.4 E531.59424
G1 X147.253 Y62.4 E531.73533
G1 X175.599 Y90.746 E535.73525
G1 X175.599 Y92.16 E535.87634
G1 X145.839 Y62.4 E540.0758
G1 X144.425 Y62.4 E540.21689
G1 X175.599 Y93.574 E544.61588
G1 X175.599 Y94.989 E544.75707
G1 X143.01 Y62.4 E549.35573
G1 X141.596 Y62.4 E549.49682
G1 X175.599 Y96.403 E554.29501
G1 X175.599 Y97.817 E554.4361
G1 X140.182 Y62.4 E559.43382
G1 X138.768 Y62.4 E559.57491
G1 X175.599 Y99.231 E564.77216
G1 X175.599 Y100.646 E564.91335
G1 X137.354 Y62.4 E570.3102
G1 X135.939 Y62.4 E570.45139
G1 X175.599 Y102.06 E576.04785
G1 X175.599 Y103.474 E576.18894
G1 X134.525 Y62.4 E581.98492
G1 X133.111 Y62.4 E582.12601
G1 X175.599 Y104.888 E588.12153
G1 X175.599 Y106.302 E588.26262
G1 X131.697 Y62.4 E594.45766
G1 X130.283 Y62.4 E594.59875
G1 X175.599 Y107.717 E600.9934
G1 X175.599 Y109.131 E601.13449
G1 X128.868 Y62.4 E607.72874
G1 X127.454 Y62.4 E607.86983
G1 X175.599 Y110.545 E614.66361
G1 X175.599 Y111.959 E614.8047
G1 X126.04 Y62.4 E621.79801
G1 X124.626 Y62.4 E621.9391
G1 X175.599 Y113.373 E629.13194
G1 X175.599 Y114.788 E629.27313
G1 X123.211 Y62.4 E636.66564
G1 X121.797 Y62.4 E636.80673
G1 X175.599 Y116.202 E644.39877
G1 X175.599 Y116.985 E644.4769
G1 X175.578 Y117.595 E644.5378
G1 X120.396 Y62.414 E652.32451
G1 X120.293 Y62.419 E652.3348
G1 X119.358 Y62.494 E652.42839
G1 X119.233 Y62.508 E652.44094
G1 X119.098 Y62.53 E652.45459
G1 X175.467 Y118.899 E660.40886
G1 X175.451 Y119.044 E660.42342
G1 X175.426 Y119.218 E660.44096
G1 X175.264 Y120.097 E660.53015
G1 X175.262 Y120.107 E660.53116
G1 X117.897 Y62.742 E668.62598
G1 X117.287 Y62.883 E668.68845
G1 X117.128 Y62.926 E668.70489
G1 X116.775 Y63.035 E668.74175
G1 X174.969 Y121.229 E676.95356
G1 X174.951 Y121.287 E676.95961
G1 X174.665 Y122.13 E677.04844
G1 X174.607 Y122.281 E677.06458
G1 X115.723 Y63.397 E685.37375
G1 X115.266 Y63.575 E685.42268
G1 X115.126 Y63.636 E685.43792
G1 X114.735 Y63.823 E685.48117
G1 X174.181 Y123.269 E693.86964
G1 X174.178 Y123.274 E693.87022
G1 X173.764 Y124.081 E693.96072
G1 X173.697 Y124.198 E693.97418
G0 F9000 X173.697 Y124.199
G1 F1125 X113.805 Y64.307 E702.42558
G1 X113.388 Y64.545 E702.47349
G1 X113.237 Y64.638 E702.49119
G1 X112.929 Y64.845 E702.52822
G1 X173.159 Y125.075 E711.02732
G1 X173.123 Y125.128 E711.03371
G1 X172.612 Y125.843 E711.1214
G1 X172.569 Y125.9 E711.12853
G1 X112.104 Y65.435 E719.66079
G1 X111.662 Y65.78 E719.71674
G1 X111.507 Y65.91 E719.73692
G1 X111.329 Y66.074 E719.76107
G1 X171.93 Y126.675 E728.31253
G1 X171.922 Y126.683 E728.31366
G1 X171.826 Y126.79 E728.328
G1 X171.344 Y127.303 E728.39824
G1 X171.244 Y127.403 E728.41235
G1 X110.601 Y66.76 E736.96973
G1 X110.119 Y67.267 E737.03953
G1 X110.006 Y67.397 E737.05672
G1 X109.923 Y67.496 E737.06961
G1 X170.537 Y128.11 E745.6229
G1 X169.83 Y128.817 E745.72267
G1 X109.293 Y68.281 E754.26502
G1 X108.745 Y69.062 E754.36022
G1 X108.711 Y69.113 E754.36634
G1 X169.122 Y129.524 E762.89098
G1 X168.415 Y130.232 E762.99082
G1 X108.153 Y69.969 E771.49451
