;FLAVOR:Marlin
;TIME:6403
;Filament used: 4.248m
;Layer height: 0.2
;MINX:40.983
;MINY:70.928
;MINZ:0.2
;MAXX:179.016
;MAXY:151.003
;MAXZ:10
;Generated with Cura_SteamEngine 4.2.1
M140 S50
M105
M190 S50
M104 S200
M105
M109 S200
M82 ;absolute extrusion mode
M201 X500.00 Y500.00 Z100.00 E5000.00 ;Setup machine max acceleration
M203 X500.00 Y500.00 Z10.00 E50.00 ;Setup machine max feedrate
M204 P500.00 R1000.00 T500.00 ;Setup Print/Retract/Travel acceleration
M205 X8.00 Y8.00 Z0.40 E5.00 ;Setup Jerk
M220 S100 ;Reset Feedrate
M221 S100 ;Reset Flowrate

G28 ;Home

G92 E0 ;Reset Extruder
G1 Z2.0 F3000 ;Move Z Axis up
G1 X10.1 Y20 Z0.28 F5000.0 ;Move to start position
G1 X10.1 Y200.0 Z0.28 F1500.0 E15 ;Draw the first line
G1 X10.4 Y200.0 Z0.28 F5000.0 ;Move to side a little
G1 X10.4 Y20 Z0.28 F1500.0 E30 ;Draw the second line
G92 E0 ;Reset Extruder
G1 Z2.0 F3000 ;Move Z Axis up

M141 S28
G92 E0
G92 E0
G1 F2700 E-5
;LAYER_COUNT:50
;LAYER:0
M107
G0 F6000 X48.671 Y73.985 Z0.2
;TYPE:SKIRT
G1 F2700 E0
G1 F1200 X48.998 Y73.77 E0.01432
G1 X49.453 Y73.481 E0.03404
G1 X50.284 Y73 E0.06917
G1 X50.809 Y72.742 E0.09057
G1 X51.219 Y72.553 E0.10709
G1 X51.564 Y72.4 E0.12089
G1 X52.076 Y72.184 E0.14123
G1 X52.976 Y71.848 E0.17637
G1 X53.545 Y71.678 E0.1981
G1 X53.94 Y71.571 E0.21307
G1 X54.269 Y71.487 E0.22549
G1 X54.816 Y71.356 E0.24607
G1 X55.759 Y71.172 E0.28122
G1 X56.313 Y71.101 E0.30166
G1 X56.737 Y71.057 E0.31726
G1 X57.134 Y71.022 E0.33184
G1 X57.743 Y70.98 E0.35417
G1 X58.393 Y70.954 E0.37797
G1 X59.035 Y70.946 E0.40146
G1 X59.179 Y70.945 E0.40673
G1 X93.519 Y70.945 E1.6631
G1 X95.327 Y70.929 E1.72925
G1 X95.499 Y70.929 E1.73554
G1 X96.32 Y70.934 E1.76558
G1 X97.28 Y70.98 E1.80074
G1 X98.022 Y71.071 E1.82809
G1 X98.511 Y71.147 E1.8462
G1 X98.684 Y71.175 E1.85261
G1 X100.381 Y71.465 E1.9156
G1 X102.843 Y71.813 E2.00657
G1 X105.332 Y72.094 E2.09821
G1 X107.808 Y72.302 E2.18911
G1 X110.31 Y72.442 E2.2808
G1 X112.83 Y72.511 E2.37303
G1 X115.322 Y72.509 E2.4642
G1 X117.824 Y72.436 E2.55578
G1 X120.309 Y72.293 E2.64684
G1 X122.821 Y72.077 E2.73909
G1 X125.285 Y71.795 E2.82982
G1 X127.771 Y71.439 E2.92171
G1 X128.365 Y71.335 E2.94377
G1 X128.544 Y71.305 E2.95041
G1 X129.909 Y71.088 E3.00098
G1 X130.863 Y70.977 E3.03611
G1 X131.462 Y70.948 E3.05806
G1 X132.219 Y70.931 E3.08576
G1 X132.521 Y70.928 E3.09681
G1 X133.329 Y70.931 E3.12637
G1 X160.845 Y70.945 E4.13307
G1 X161.002 Y70.946 E4.13882
G1 X161.638 Y70.955 E4.16209
G1 X162.253 Y70.98 E4.18461
G1 X162.771 Y71.015 E4.2036
G1 X163.132 Y71.045 E4.21686
G1 X163.606 Y71.092 E4.23428
G1 X164.997 Y71.317 E4.28584
G1 X165.402 Y71.408 E4.30102
G1 X165.845 Y71.517 E4.31771
G1 X166.415 Y71.669 E4.3393
G1 X167.333 Y71.955 E4.37447
G1 X167.888 Y72.17 E4.39625
G1 X168.288 Y72.337 E4.41211
G1 X168.62 Y72.482 E4.42536
G1 X169.13 Y72.714 E4.44586
G1 X169.987 Y73.148 E4.48101
G1 X170.45 Y73.421 E4.50067
G1 X170.789 Y73.632 E4.51528
G1 X171.142 Y73.861 E4.53068
G1 X171.627 Y74.188 E4.55208
G1 X172.401 Y74.757 E4.58722
G1 X172.838 Y75.127 E4.60817
G1 X173.168 Y75.42 E4.62432
G1 X173.445 Y75.674 E4.63807
G1 X173.849 Y76.057 E4.65844
G1 X174.518 Y76.747 E4.6936
G1 X174.88 Y77.172 E4.71402
G1 X175.139 Y77.492 E4.72908
G1 X175.374 Y77.792 E4.74303
G1 X175.715 Y78.243 E4.76371
G1 X176.262 Y79.033 E4.79887
G1 X176.55 Y79.513 E4.81935
G1 X176.775 Y79.91 E4.83604
G1 X176.966 Y80.262 E4.85069
G1 X177.218 Y80.745 E4.87063
G1 X177.627 Y81.614 E4.90577
G1 X177.821 Y82.109 E4.92522
G1 X177.956 Y82.477 E4.93956
G1 X178.091 Y82.865 E4.95459
G1 X178.277 Y83.434 E4.97649
G1 X178.537 Y84.359 E5.01164
G1 X178.653 Y84.905 E5.03206
G1 X178.727 Y85.302 E5.04684
G1 X178.789 Y85.673 E5.0606
G1 X178.876 Y86.242 E5.08166
G1 X178.982 Y87.197 E5.11682
G1 X179.007 Y87.792 E5.1386
G1 X179.015 Y88.268 E5.15602
G1 X179.016 Y88.621 E5.16894
G1 X179.009 Y89.129 E5.18752
G1 X178.956 Y90.088 E5.22266
G1 X178.89 Y90.632 E5.24271
G1 X178.827 Y91.065 E5.25872
G1 X178.764 Y91.449 E5.27296
G1 X178.668 Y91.982 E5.29277
G1 X178.459 Y92.919 E5.32789
G1 X178.308 Y93.433 E5.34749
G1 X178.17 Y93.867 E5.36416
G1 X178.028 Y94.285 E5.38031
G1 X177.839 Y94.809 E5.40069
G1 X177.476 Y95.699 E5.43585
G1 X177.239 Y96.186 E5.45567
G1 X177.046 Y96.56 E5.47107
G1 X176.859 Y96.908 E5.48552
G1 X176.589 Y97.39 E5.50573
G1 X176.085 Y98.208 E5.54089
G1 X175.778 Y98.641 E5.56031
G1 X175.51 Y99.001 E5.57673
G1 X175.254 Y99.332 E5.59203
G1 X174.921 Y99.747 E5.6115
G1 X173.962 Y100.801 E5.66364
G1 X173.644 Y101.11 E5.67986
G1 X173.311 Y101.421 E5.69653
G1 X172.92 Y101.772 E5.71575
G1 X172.179 Y102.384 E5.75091
G1 X171.756 Y102.69 E5.77001
G1 X171.239 Y103.046 E5.79298
G1 X171.017 Y103.194 E5.80274
G1 X169.166 Y104.407 E5.88371
G1 X167.08 Y105.856 E5.97663
G1 X165.067 Y107.339 E6.06811
G1 X163.102 Y108.875 E6.15936
G1 X161.165 Y110.481 E6.25142
G1 X159.305 Y112.113 E6.34195
G1 X157.449 Y113.836 E6.4346
G1 X155.692 Y115.563 E6.52474
G1 X153.935 Y117.389 E6.61745
G1 X152.255 Y119.239 E6.70888
G1 X150.641 Y121.121 E6.79958
G1 X149.041 Y123.095 E6.89255
G1 X147.549 Y125.048 E6.98247
G1 X146.062 Y127.11 E7.07548
G1 X144.675 Y129.156 E7.16591
G1 X143.317 Y131.285 E7.2583
G1 X142.023 Y133.447 E7.35048
G1 X141.169 Y134.954 E7.41386
G1 X140.89 Y135.459 E7.43497
G1 X140.518 Y136.085 E7.46161
G1 X139.896 Y137.06 E7.50392
G1 X139.72 Y137.327 E7.51562
G1 X139.392 Y137.811 E7.53701
G1 X138.992 Y138.365 E7.56201
G1 X138.42 Y139.11 E7.59637
G1 X138.219 Y139.365 E7.60825
G1 X137.691 Y140.014 E7.63886
G1 X137.205 Y140.573 E7.66596
G1 X136.451 Y141.387 E7.70656
G1 X136.218 Y141.631 E7.7189
G1 X135.777 Y142.08 E7.74193
G1 X135.308 Y142.532 E7.76576
G1 X134.646 Y143.134 E7.79849
G1 X134.394 Y143.356 E7.81078
G1 X133.748 Y143.91 E7.84192
G1 X133.158 Y144.383 E7.86958
G1 X132.235 Y145.075 E7.91179
G1 X131.961 Y145.275 E7.9242
G1 X131.463 Y145.626 E7.94649
G1 X130.895 Y146.001 E7.97139
G1 X129.961 Y146.58 E8.0116
G1 X129.685 Y146.746 E8.02338
G1 X129.142 Y147.062 E8.04637
G1 X128.545 Y147.387 E8.07123
G1 X127.738 Y147.795 E8.10432
G1 X127.434 Y147.943 E8.11669
G1 X126.652 Y148.31 E8.14829
G1 X125.979 Y148.6 E8.1751
G1 X124.923 Y149.016 E8.21663
G1 X124.615 Y149.132 E8.22867
G1 X124.081 Y149.325 E8.24944
G1 X123.434 Y149.538 E8.27437
G1 X122.498 Y149.815 E8.31008
G1 X122.186 Y149.902 E8.32193
G1 X121.388 Y150.114 E8.35214
G1 X120.707 Y150.273 E8.37772
G1 X119.909 Y150.434 E8.40751
G1 X119.714 Y150.472 E8.41477
G1 X119.404 Y150.529 E8.42631
G1 X119.256 Y150.555 E8.4318
G1 X118.687 Y150.652 E8.45292
G1 X117.998 Y150.748 E8.47837
G1 X117.034 Y150.853 E8.51385
G1 X116.715 Y150.883 E8.52557
G1 X115.912 Y150.948 E8.55505
G1 X115.169 Y150.984 E8.58226
G1 X114.066 Y151.002 E8.62262
G1 X113.754 Y151.003 E8.63404
G1 X113.101 Y150.996 E8.65793
G1 X112.36 Y150.965 E8.68506
G1 X111.229 Y150.88 E8.72656
G1 X110.934 Y150.854 E8.7374
G1 X110.35 Y150.795 E8.75887
G1 X109.633 Y150.699 E8.78534
G1 X108.523 Y150.516 E8.8265
G1 X108.205 Y150.459 E8.83832
G1 X107.57 Y150.336 E8.86198
G1 X106.867 Y150.177 E8.88835
G1 X105.807 Y149.902 E8.92841
G1 X105.508 Y149.82 E8.93976
G1 X104.894 Y149.643 E8.96314
G1 X104.243 Y149.435 E8.98814
G1 X103.375 Y149.128 E9.02182
G1 X103.066 Y149.013 E9.03389
G1 X102.271 Y148.706 E9.06507
G1 X101.616 Y148.43 E9.09107
G1 X100.816 Y148.063 E9.12327
G1 X100.528 Y147.926 E9.13494
G1 X99.775 Y147.555 E9.16565
G1 X99.141 Y147.217 E9.19194
G1 X98.294 Y146.732 E9.22765
G1 X98.008 Y146.563 E9.2398
G1 X97.313 Y146.138 E9.26961
G1 X96.687 Y145.727 E9.297
G1 X95.797 Y145.1 E9.33684
G1 X95.563 Y144.931 E9.3474
G1 X95.058 Y144.556 E9.37041
G1 X94.474 Y144.092 E9.3977
G1 X93.592 Y143.344 E9.44001
G1 X93.367 Y143.149 E9.4509
G1 X92.926 Y142.755 E9.47254
G1 X92.393 Y142.246 E9.4995
G1 X91.614 Y141.455 E9.54012
G1 X91.398 Y141.231 E9.5515
G1 X90.966 Y140.768 E9.57467
G1 X90.519 Y140.259 E9.59946
G1 X89.914 Y139.529 E9.63414
G1 X89.707 Y139.272 E9.64622
G1 X89.202 Y138.626 E9.67622
G1 X88.759 Y138.019 E9.70371
G1 X88.125 Y137.089 E9.74489
G1 X87.958 Y136.837 E9.75595
G1 X87.843 Y136.658 E9.76373
G1 X86.36 Y134.422 E9.8619
G1 X84.93 Y132.393 E9.95271
G1 X83.436 Y130.396 E10.04396
G1 X81.872 Y128.424 E10.13605
G1 X80.276 Y126.525 E10.2268
G1 X78.582 Y124.62 E10.32007
G1 X76.899 Y122.833 E10.40988
G1 X75.113 Y121.042 E10.50242
G1 X73.313 Y119.334 E10.5932
G1 X71.452 Y117.668 E10.68458
G1 X69.533 Y116.044 E10.77656
G1 X67.575 Y114.48 E10.86824
G1 X65.578 Y112.976 E10.95971
G1 X63.542 Y111.53 E11.05107
G1 X61.464 Y110.141 E11.14252
G1 X59.33 Y108.801 E11.23471
G1 X57.204 Y107.549 E11.32498
G1 X54.981 Y106.321 E11.41789
G1 X52.778 Y105.186 E11.50856
G1 X51.94 Y104.786 E11.54253
G1 X51.832 Y104.734 E11.54692
G1 X50.587 Y104.124 E11.59764
G1 X49.562 Y103.556 E11.64052
G1 X49.188 Y103.323 E11.65664
G1 X48.842 Y103.099 E11.67172
G1 X48.37 Y102.781 E11.69254
G1 X47.596 Y102.211 E11.72771
G1 X47.122 Y101.809 E11.75045
G1 X46.789 Y101.511 E11.7668
G1 X46.55 Y101.291 E11.77868
G1 X46.153 Y100.915 E11.79869
G1 X45.483 Y100.226 E11.83385
G1 X45.142 Y99.826 E11.85308
G1 X44.891 Y99.518 E11.86761
G1 X44.624 Y99.177 E11.88346
G1 X44.274 Y98.713 E11.90472
G1 X43.728 Y97.923 E11.93986
G1 X43.43 Y97.424 E11.96112
G1 X43.197 Y97.01 E11.9785
G1 X43.025 Y96.692 E11.99173
G1 X42.79 Y96.242 E12.0103
G1 X42.381 Y95.373 E12.04544
G1 X42.195 Y94.903 E12.06394
G1 X42.043 Y94.492 E12.07997
G1 X41.897 Y94.07 E12.09631
G1 X41.724 Y93.54 E12.1167
G1 X41.464 Y92.615 E12.15186
G1 X41.348 Y92.065 E12.17242
G1 X41.263 Y91.607 E12.18946
G1 X41.201 Y91.239 E12.20312
G1 X41.125 Y90.74 E12.22158
G1 X41.02 Y89.785 E12.25674
G1 X40.996 Y89.273 E12.27549
G1 X40.985 Y88.805 E12.29261
G1 X40.983 Y88.363 E12.30879
G1 X40.991 Y87.822 E12.32858
G1 X41.045 Y86.863 E12.36372
G1 X41.114 Y86.303 E12.38437
G1 X41.179 Y85.864 E12.4006
G1 X41.238 Y85.508 E12.41381
G1 X41.334 Y84.975 E12.43362
G1 X41.543 Y84.038 E12.46874
G1 X41.701 Y83.502 E12.48919
G1 X41.831 Y83.096 E12.50478
G1 X41.963 Y82.707 E12.51981
G1 X42.157 Y82.168 E12.54077
G1 X42.52 Y81.278 E12.57594
G1 X42.784 Y80.738 E12.59793
G1 X42.988 Y80.347 E12.61406
G1 X43.147 Y80.053 E12.62629
G1 X43.407 Y79.588 E12.64578
G1 X43.91 Y78.77 E12.68092
G1 X44.25 Y78.292 E12.70238
G1 X44.536 Y77.911 E12.71981
G1 X44.767 Y77.614 E12.73357
G1 X45.093 Y77.208 E12.75262
G1 X45.725 Y76.484 E12.78778
G1 X46.083 Y76.124 E12.80636
G1 X46.386 Y75.832 E12.82175
G1 X46.696 Y75.544 E12.83724
G1 X47.117 Y75.167 E12.85791
G1 X47.858 Y74.557 E12.89303
G1 X48.301 Y74.238 E12.913
G1 X48.671 Y73.985 E12.9294
G0 F6000 X48.92 Y74.348
G1 F1200 X49.234 Y74.141 E12.94316
G1 X49.689 Y73.852 E12.96288
G1 X50.505 Y73.381 E12.99735
G1 X50.993 Y73.141 E13.01724
G1 X51.403 Y72.952 E13.03376
G1 X51.735 Y72.806 E13.04703
G1 X52.247 Y72.59 E13.06736
G1 X53.13 Y72.261 E13.10184
G1 X53.66 Y72.103 E13.12207
G1 X54.055 Y71.996 E13.13704
G1 X54.372 Y71.915 E13.14901
G1 X54.919 Y71.784 E13.16959
G1 X55.843 Y71.604 E13.20403
G1 X56.358 Y71.538 E13.22303
G1 X56.782 Y71.494 E13.23863
G1 X57.164 Y71.461 E13.25265
G1 X57.773 Y71.419 E13.27499
G1 X58.399 Y71.394 E13.29791
G1 X59.041 Y71.386 E13.3214
G1 X59.179 Y71.385 E13.32645
G1 X93.523 Y71.385 E14.58296
G1 X95.331 Y71.369 E14.64911
G1 X95.497 Y71.369 E14.65519
G1 X96.318 Y71.374 E14.68522
G1 X97.259 Y71.42 E14.71969
G1 X97.955 Y71.506 E14.74535
G1 X98.444 Y71.582 E14.76346
G1 X98.61 Y71.609 E14.76961
G1 X100.283 Y71.895 E14.83171
G1 X102.804 Y72.252 E14.92486
G1 X105.276 Y72.53 E15.01587
G1 X107.784 Y72.741 E15.10795
G1 X110.31 Y72.883 E15.20051
G1 X112.818 Y72.951 E15.29231
G1 X115.336 Y72.949 E15.38443
G1 X117.826 Y72.876 E15.47557
G1 X120.373 Y72.73 E15.56891
G1 X122.838 Y72.518 E15.65942
G1 X125.36 Y72.229 E15.7523
G1 X127.848 Y71.873 E15.84425
G1 X128.441 Y71.769 E15.86628
G1 X128.613 Y71.74 E15.87266
G1 X129.978 Y71.523 E15.92323
G1 X130.914 Y71.414 E15.9577
G1 X131.472 Y71.388 E15.97814
G1 X132.229 Y71.371 E16.00584
G1 X132.519 Y71.368 E16.01645
G1 X133.327 Y71.371 E16.04602
G1 X160.845 Y71.385 E17.05279
G1 X160.996 Y71.386 E17.05832
G1 X161.632 Y71.395 E17.08159
G1 X162.223 Y71.419 E17.10323
G1 X162.741 Y71.454 E17.12222
G1 X163.088 Y71.483 E17.13496
G1 X163.562 Y71.53 E17.15239
G1 X164.9 Y71.746 E17.20198
G1 X165.305 Y71.837 E17.21716
G1 X165.732 Y71.942 E17.23325
G1 X166.302 Y72.094 E17.25483
G1 X167.201 Y72.375 E17.2893
G1 X167.719 Y72.576 E17.30962
G1 X168.119 Y72.743 E17.32548
G1 X168.438 Y72.882 E17.33821
G1 X168.948 Y73.114 E17.35871
G1 X169.788 Y73.54 E17.39317
G1 X170.217 Y73.794 E17.41141
G1 X170.556 Y74.005 E17.42602
G1 X170.896 Y74.225 E17.44084
G1 X171.381 Y74.552 E17.46224
G1 X172.139 Y75.112 E17.49672
G1 X172.546 Y75.456 E17.51621
G1 X172.876 Y75.749 E17.53236
G1 X173.143 Y75.994 E17.54562
G1 X173.547 Y76.377 E17.56598
G1 X174.202 Y77.053 E17.60042
G1 X174.538 Y77.449 E17.61942
G1 X174.797 Y77.769 E17.63448
G1 X175.023 Y78.057 E17.64788
G1 X175.364 Y78.508 E17.66856
G1 X175.9 Y79.283 E17.70304
G1 X176.167 Y79.73 E17.72209
G1 X176.392 Y80.127 E17.73878
G1 X176.576 Y80.466 E17.75289
G1 X176.828 Y80.949 E17.77283
G1 X177.228 Y81.802 E17.8073
G1 X177.408 Y82.26 E17.8253
G1 X177.543 Y82.628 E17.83964
G1 X177.673 Y83.002 E17.85413
G1 X177.859 Y83.571 E17.87603
G1 X178.113 Y84.478 E17.91049
G1 X178.22 Y84.986 E17.92948
G1 X178.294 Y85.383 E17.94426
G1 X178.354 Y85.739 E17.95747
G1 X178.441 Y86.308 E17.97852
G1 X178.544 Y87.245 E18.01301
G1 X178.567 Y87.799 E18.0333
G1 X178.575 Y88.275 E18.05072
G1 X178.576 Y88.615 E18.06316
G1 X178.569 Y89.123 E18.08174
G1 X178.516 Y90.064 E18.11623
G1 X178.454 Y90.568 E18.1348
G1 X178.391 Y91.001 E18.15081
G1 X178.331 Y91.371 E18.16453
G1 X178.235 Y91.904 E18.18434
G1 X178.029 Y92.823 E18.2188
G1 X177.889 Y93.3 E18.23698
G1 X177.751 Y93.734 E18.25365
G1 X177.615 Y94.136 E18.26917
G1 X177.426 Y94.66 E18.28955
G1 X177.069 Y95.532 E18.32403
G1 X176.848 Y95.984 E18.34243
G1 X176.655 Y96.358 E18.35783
G1 X176.475 Y96.693 E18.37175
G1 X176.205 Y97.175 E18.39196
G1 X175.71 Y97.976 E18.42641
G1 X175.425 Y98.378 E18.44444
G1 X175.157 Y98.738 E18.46086
G1 X174.91 Y99.057 E18.47562
G1 X174.577 Y99.472 E18.49508
G1 X173.655 Y100.486 E18.54523
G1 X173.337 Y100.795 E18.56145
G1 X173.017 Y101.094 E18.57747
G1 X172.626 Y101.445 E18.59669
G1 X171.899 Y102.044 E18.63116
G1 X171.506 Y102.327 E18.64888
G1 X170.989 Y102.683 E18.67184
G1 X170.776 Y102.826 E18.68123
G1 X168.926 Y104.038 E18.76214
G1 X166.82 Y105.501 E18.85596
G1 X164.788 Y106.998 E18.9483
G1 X162.847 Y108.516 E19.03845
G1 X160.886 Y110.141 E19.13163
G1 X158.99 Y111.805 E19.22392
G1 X157.171 Y113.495 E19.31477
G1 X155.36 Y115.274 E19.40764
G1 X153.603 Y117.1 E19.50035
G1 X151.94 Y118.931 E19.59085
G1 X150.279 Y120.867 E19.68418
G1 X148.723 Y122.787 E19.77459
G1 X147.186 Y124.8 E19.86725
G1 X145.702 Y126.858 E19.96008
G1 X144.3 Y128.924 E20.05143
G1 X142.948 Y131.044 E20.14342
G1 X141.646 Y133.219 E20.23617
G1 X140.784 Y134.741 E20.30016
G1 X140.505 Y135.246 E20.32127
G1 X140.147 Y135.848 E20.34689
G1 X139.525 Y136.823 E20.38921
G1 X139.356 Y137.08 E20.40046
G1 X139.028 Y137.564 E20.42185
G1 X138.643 Y138.097 E20.44591
G1 X138.071 Y138.842 E20.48027
G1 X137.877 Y139.087 E20.4917
G1 X137.349 Y139.736 E20.52231
G1 X136.882 Y140.274 E20.54838
G1 X136.128 Y141.088 E20.58897
G1 X135.904 Y141.323 E20.60085
G1 X135.463 Y141.772 E20.62388
G1 X135.012 Y142.206 E20.64678
G1 X134.35 Y142.808 E20.67951
G1 X134.108 Y143.022 E20.69133
G1 X133.462 Y143.576 E20.72247
G1 X132.894 Y144.031 E20.74909
G1 X131.971 Y144.723 E20.7913
G1 X131.708 Y144.915 E20.80321
G1 X131.21 Y145.266 E20.8255
G1 X130.663 Y145.627 E20.84948
G1 X129.729 Y146.206 E20.88969
G1 X129.464 Y146.366 E20.90101
G1 X128.921 Y146.682 E20.924
G1 X128.346 Y146.994 E20.94793
G1 X127.539 Y147.402 E20.98102
G1 X127.247 Y147.544 E20.99289
G1 X126.465 Y147.911 E21.0245
G1 X125.817 Y148.191 E21.05033
G1 X124.761 Y148.607 E21.09185
G1 X124.466 Y148.718 E21.10338
G1 X123.932 Y148.911 E21.12416
G1 X123.309 Y149.116 E21.14815
G1 X122.373 Y149.393 E21.18386
G1 X122.073 Y149.477 E21.19526
G1 X121.275 Y149.689 E21.22547
G1 X120.62 Y149.842 E21.25008
G1 X119.822 Y150.003 E21.27986
G1 X119.634 Y150.039 E21.28687
G1 X119.324 Y150.096 E21.2984
