;FLAVOR:Marlin
;TIME:1992
;Filament used: 1.35786m
;Layer height: 0.2
;MINX:79.122
;MINY:91.404
;MINZ:0.2
;MAXX:140.867
;MAXY:128.593
;MAXZ:17.6
;Generated with Cura_SteamEngine 4.2.1
M140 S50
M105
M190 S50
M104 S200
M105
M109 S200
M82 ;absolute extrusion mode
M201 X500.00 Y500.00 Z100.00 E5000.00 ;Setup machine max acceleration
M203 X500.00 Y500.00 Z10.00 E50.00 ;Setup machine max feedrate
M204 P500.00 R1000.00 T500.00 ;Setup Print/Retract/Travel acceleration
M205 X8.00 Y8.00 Z0.40 E5.00 ;Setup Jerk
M220 S100 ;Reset Feedrate
M221 S100 ;Reset Flowrate

G28 ;Home

G92 E0 ;Reset Extruder
G1 Z2.0 F3000 ;Move Z Axis up
G1 X10.1 Y20 Z0.28 F5000.0 ;Move to start position
G1 X10.1 Y200.0 Z0.28 F1500.0 E15 ;Draw the first line
G1 X10.4 Y200.0 Z0.28 F5000.0 ;Move to side a little
G1 X10.4 Y20 Z0.28 F1500.0 E30 ;Draw the second line
G92 E0 ;Reset Extruder
G1 Z2.0 F3000 ;Move Z Axis up

M141 S28
G92 E0
G92 E0
G1 F2700 E-5
;LAYER_COUNT:88
;LAYER:0
M107
G0 F6000 X83.928 Y96.329 Z0.2
;TYPE:SKIRT
G1 F2700 E0
G1 F1200 X84.704 Y95.762 E0.03516
G1 X85.524 Y95.262 E0.0703
G1 X86.508 Y94.776 E0.11045
G1 X86.758 Y94.667 E0.12043
G1 X87.654 Y94.32 E0.15558
G1 X88.575 Y94.049 E0.19071
G1 X89.173 Y93.916 E0.21312
G1 X89.405 Y93.871 E0.22177
G1 X90.092 Y93.759 E0.24723
G1 X91.054 Y93.632 E0.28274
G1 X91.204 Y93.613 E0.28827
G1 X91.965 Y93.523 E0.3163
G1 X94.421 Y93.161 E0.40713
G1 X96.849 Y92.733 E0.49733
G1 X101.024 Y91.845 E0.65349
G1 X101.33 Y91.785 E0.6649
G1 X101.98 Y91.665 E0.68909
G1 X102.931 Y91.53 E0.72423
G1 X103.202 Y91.503 E0.73419
G1 X103.702 Y91.464 E0.75254
G1 X104.578 Y91.415 E0.78464
G1 X105.621 Y91.404 E0.8228
G1 X105.968 Y91.416 E0.8355
G1 X106.457 Y91.443 E0.85342
G1 X107.247 Y91.504 E0.88241
G1 X107.569 Y91.534 E0.89424
G1 X108.47 Y91.629 E0.92739
G1 X108.644 Y91.648 E0.93379
G1 X109.425 Y91.742 E0.96257
G1 X111.93 Y91.973 E1.05461
G1 X114.429 Y92.132 E1.14622
G1 X116.919 Y92.22 E1.23738
G1 X119.463 Y92.237 E1.33046
G1 X121.397 Y92.203 E1.40123
G1 X122.269 Y92.178 E1.43314
G1 X123.31 Y92.195 E1.47123
G1 X124.106 Y92.244 E1.50041
G1 X124.52 Y92.277 E1.51561
G1 X124.745 Y92.299 E1.52388
G1 X126.088 Y92.511 E1.57362
G1 X126.92 Y92.693 E1.60478
G1 X127.849 Y92.937 E1.63992
G1 X128.407 Y93.124 E1.66145
G1 X129.367 Y93.474 E1.69884
G1 X130.255 Y93.84 E1.73398
G1 X130.963 Y94.197 E1.76299
G1 X131.842 Y94.679 E1.79966
G1 X132.36 Y94.981 E1.8216
G1 X132.538 Y95.091 E1.82926
G1 X133.333 Y95.63 E1.8644
G1 X133.714 Y95.924 E1.882
G1 X134.38 Y96.461 E1.9133
G1 X135.103 Y97.095 E1.94849
G1 X135.524 Y97.518 E1.97032
G1 X136.23 Y98.265 E2.00793
G1 X136.86 Y98.99 E2.04307
G1 X137.326 Y99.615 E2.07159
G1 X137.885 Y100.421 E2.10747
G1 X138.23 Y100.95 E2.13058
G1 X138.342 Y101.132 E2.1384
G1 X139.004 Y102.371 E2.18979
G1 X139.362 Y103.152 E2.22123
G1 X139.726 Y104.041 E2.25637
G1 X139.907 Y104.584 E2.27731
G1 X140.198 Y105.535 E2.3137
G1 X140.365 Y106.139 E2.33663
G1 X140.415 Y106.341 E2.34424
G1 X140.668 Y107.715 E2.39536
G1 X140.768 Y108.534 E2.42554
G1 X140.808 Y108.917 E2.43963
G1 X140.827 Y109.132 E2.44753
G1 X140.867 Y110.498 E2.49753
G1 X140.844 Y111.257 E2.52531
G1 X140.826 Y111.629 E2.53893
G1 X140.805 Y111.964 E2.55121
G1 X140.649 Y113.265 E2.59915
G1 X140.589 Y113.602 E2.61168
G1 X140.491 Y114.092 E2.62996
G1 X140.358 Y114.688 E2.6523
G1 X139.979 Y116.01 E2.70262
G1 X139.719 Y116.748 E2.73124
G1 X139.58 Y117.122 E2.74584
G1 X139.495 Y117.339 E2.75437
G1 X138.912 Y118.599 E2.80516
G1 X138.511 Y119.344 E2.83612
G1 X138.02 Y120.171 E2.8713
G1 X137.701 Y120.637 E2.89196
G1 X137.111 Y121.453 E2.9288
G1 X136.721 Y121.962 E2.95226
G1 X136.592 Y122.121 E2.95976
G1 X135.655 Y123.143 E3.01048
G1 X135.066 Y123.713 E3.04047
G1 X134.788 Y123.973 E3.0544
G1 X134.629 Y124.117 E3.06225
G1 X133.539 Y124.991 E3.11336
G1 X132.889 Y125.45 E3.14247
G1 X132.563 Y125.671 E3.15688
G1 X132.371 Y125.797 E3.16529
G1 X131.172 Y126.485 E3.21586
G1 X130.445 Y126.846 E3.24556
G1 X130.112 Y127.005 E3.25906
G1 X129.913 Y127.096 E3.26706
G1 X128.584 Y127.607 E3.31916
G1 X127.791 Y127.857 E3.34958
G1 X126.863 Y128.107 E3.38474
G1 X126.326 Y128.215 E3.40478
G1 X125.34 Y128.389 E3.44141
G1 X124.689 Y128.485 E3.46549
G1 X124.452 Y128.513 E3.47422
G1 X123.098 Y128.593 E3.52384
G1 X122.348 Y128.593 E3.55128
G1 X121.953 Y128.586 E3.56574
G1 X121.603 Y128.574 E3.57855
G1 X120.328 Y128.459 E3.62538
G1 X119.993 Y128.41 E3.63777
G1 X119.484 Y128.324 E3.65666
G1 X117.83 Y128.006 E3.71828
G1 X117.664 Y127.973 E3.72447
G1 X117.075 Y127.851 E3.74648
G1 X114.631 Y127.416 E3.8373
G1 X112.122 Y127.041 E3.93011
G1 X109.671 Y126.747 E4.02043
G1 X107.156 Y126.516 E4.11283
G1 X104.673 Y126.36 E4.20385
G1 X102.173 Y126.272 E4.29538
G1 X99.645 Y126.256 E4.38787
G1 X97.197 Y126.309 E4.47745
G1 X93.661 Y126.505 E4.60702
G1 X92.622 Y126.583 E4.64514
G1 X91.662 Y126.615 E4.68028
G1 X91.114 Y126.597 E4.70034
G1 X90.81 Y126.58 E4.71148
G1 X89.854 Y126.486 E4.74663
G1 X88.909 Y126.314 E4.78177
G1 X87.678 Y125.963 E4.8286
G1 X87.421 Y125.874 E4.83855
G1 X86.527 Y125.522 E4.8737
G1 X85.665 Y125.097 E4.90886
G1 X84.921 Y124.653 E4.94056
G1 X84.742 Y124.537 E4.94837
G1 X83.958 Y123.982 E4.98351
G1 X83.224 Y123.363 E5.01864
G1 X82.383 Y122.508 E5.06252
G1 X82.172 Y122.27 E5.07415
G1 X81.565 Y121.526 E5.10928
G1 X81.022 Y120.733 E5.14445
G1 X80.547 Y119.898 E5.17959
G1 X80.13 Y118.993 E5.21605
G1 X80.007 Y118.693 E5.22791
G1 X79.679 Y117.79 E5.26306
G1 X79.429 Y116.862 E5.29822
G1 X79.256 Y115.917 E5.33337
G1 X79.182 Y115.246 E5.35807
G1 X79.157 Y114.937 E5.36941
G1 X79.122 Y113.737 E5.41333
G1 X79.186 Y110.99 E5.51386
G1 X79.173 Y108.497 E5.60507
G1 X79.162 Y108.187 E5.61642
G1 X79.158 Y108.029 E5.62221
G1 X79.123 Y106.399 E5.68185
G1 X79.142 Y105.438 E5.71702
G1 X79.263 Y104.338 E5.75751
G1 X79.298 Y104.118 E5.76566
G1 X79.489 Y103.176 E5.80082
G1 X79.757 Y102.254 E5.83595
G1 X80.217 Y101.095 E5.88157
G1 X80.361 Y100.783 E5.89415
G1 X80.8 Y99.928 E5.92931
G1 X81.308 Y99.113 E5.96444
G1 X81.882 Y98.343 E5.99958
G1 X82.518 Y97.623 E6.03473
G1 X82.922 Y97.223 E6.05553
G1 X83.203 Y96.958 E6.06966
G1 X83.928 Y96.329 E6.10478
G0 F6000 X84.217 Y96.662
G1 F1200 X84.979 Y96.108 E6.13925
G1 X85.785 Y95.62 E6.17372
G1 X86.684 Y95.179 E6.21035
G1 X86.934 Y95.07 E6.22033
G1 X87.813 Y94.731 E6.2548
G1 X88.717 Y94.467 E6.28925
G1 X89.256 Y94.348 E6.30945
G1 X89.488 Y94.303 E6.3181
G1 X90.149 Y94.195 E6.3426
G1 X91.111 Y94.068 E6.3781
G1 X91.256 Y94.05 E6.38345
G1 X92.008 Y93.961 E6.41115
G1 X94.529 Y93.59 E6.50438
G1 X96.931 Y93.166 E6.59362
G1 X101.116 Y92.276 E6.75015
G1 X101.41 Y92.217 E6.76112
G1 X102.06 Y92.097 E6.78531
G1 X102.975 Y91.968 E6.81911
G1 X103.246 Y91.941 E6.82908
G1 X103.726 Y91.903 E6.84669
G1 X104.602 Y91.854 E6.87879
G1 X105.606 Y91.844 E6.91553
G1 X105.953 Y91.856 E6.92823
G1 X106.424 Y91.882 E6.94549
G1 X107.214 Y91.943 E6.97448
G1 X107.523 Y91.971 E6.98583
G1 X108.424 Y92.066 E7.01898
G1 X108.591 Y92.085 E7.02513
G1 X109.403 Y92.183 E7.05505
G1 X111.859 Y92.409 E7.14529
G1 X114.42 Y92.572 E7.23917
G1 X116.901 Y92.66 E7.33
G1 X119.468 Y92.677 E7.42392
G1 X121.415 Y92.643 E7.49516
G1 X122.281 Y92.618 E7.52686
G1 X123.283 Y92.634 E7.56352
G1 X124.079 Y92.683 E7.5927
G1 X124.477 Y92.715 E7.60731
G1 X124.702 Y92.737 E7.61558
G1 X125.994 Y92.94 E7.66343
G1 X126.826 Y93.122 E7.69459
G1 X127.737 Y93.363 E7.72907
G1 X128.256 Y93.537 E7.74909
G1 X129.216 Y93.887 E7.78648
G1 X130.087 Y94.247 E7.82096
G1 X130.751 Y94.583 E7.84818
G1 X131.63 Y95.065 E7.88486
G1 X132.128 Y95.356 E7.90596
G1 X132.306 Y95.466 E7.91362
G1 X133.438 Y96.267 E7.96435
G1 X134.104 Y96.804 E7.99565
G1 X134.812 Y97.426 E8.03013
G1 X135.204 Y97.821 E8.05049
G1 X135.91 Y98.568 E8.0881
G1 X136.528 Y99.279 E8.12256
G1 X136.964 Y99.866 E8.14932
G1 X137.523 Y100.672 E8.1852
G1 X137.855 Y101.181 E8.20744
G1 X137.967 Y101.363 E8.21525
G1 X138.604 Y102.555 E8.2647
G1 X138.962 Y103.336 E8.29613
G1 X139.318 Y104.208 E8.33059
G1 X139.486 Y104.713 E8.35007
G1 X139.777 Y105.664 E8.38645
G1 X139.938 Y106.245 E8.40851
G1 X139.988 Y106.447 E8.41612
G1 X140.231 Y107.769 E8.4653
G1 X140.331 Y108.588 E8.49549
G1 X140.37 Y108.956 E8.50903
G1 X140.389 Y109.171 E8.51692
G1 X140.427 Y110.484 E8.56498
G1 X140.404 Y111.243 E8.59276
G1 X140.387 Y111.601 E8.60587
G1 X140.366 Y111.936 E8.61815
G1 X140.216 Y113.188 E8.66429
G1 X140.156 Y113.525 E8.67681
G1 X140.062 Y113.997 E8.69442
G1 X139.929 Y114.593 E8.71676
G1 X139.564 Y115.863 E8.76511
G1 X139.304 Y116.601 E8.79373
G1 X139.17 Y116.961 E8.80779
G1 X139.085 Y117.178 E8.81631
G1 X138.524 Y118.391 E8.86521
G1 X138.123 Y119.136 E8.89616
G1 X137.642 Y119.946 E8.93063
G1 X137.344 Y120.379 E8.94986
G1 X136.754 Y121.195 E8.9867
G1 X136.379 Y121.684 E9.00925
G1 X136.25 Y121.843 E9.01674
G1 X135.349 Y122.826 E9.06552
G1 X134.76 Y123.396 E9.09551
G1 X134.492 Y123.647 E9.10895
G1 X134.333 Y123.791 E9.11679
G1 X133.285 Y124.631 E9.16593
G1 X132.635 Y125.09 E9.19504
G1 X132.322 Y125.303 E9.2089
G1 X132.13 Y125.429 E9.2173
G1 X130.977 Y126.091 E9.26594
G1 X130.25 Y126.452 E9.29564
G1 X129.929 Y126.605 E9.30865
G1 X129.73 Y126.696 E9.31665
G1 X128.451 Y127.187 E9.36678
G1 X127.658 Y127.437 E9.3972
G1 X126.749 Y127.682 E9.43164
G1 X126.25 Y127.782 E9.45026
G1 X125.264 Y127.956 E9.48689
G1 X124.637 Y128.048 E9.51008
G1 X124.4 Y128.076 E9.51881
G1 X123.098 Y128.153 E9.56653
G1 X122.348 Y128.153 E9.59397
G1 X121.968 Y128.146 E9.60787
G1 X121.618 Y128.134 E9.62068
G1 X120.392 Y128.024 E9.66572
G1 X120.057 Y127.975 E9.67811
G1 X119.567 Y127.892 E9.69629
G1 X117.913 Y127.574 E9.75791
G1 X117.754 Y127.542 E9.76384
G1 X117.176 Y127.422 E9.78544
G1 X114.701 Y126.981 E9.87742
G1 X112.202 Y126.609 E9.96985
G1 X109.696 Y126.307 E10.0622
G1 X107.187 Y126.077 E10.15438
G1 X104.682 Y125.919 E10.24621
G1 X102.191 Y125.832 E10.3374
G1 X99.638 Y125.816 E10.43081
G1 X97.192 Y125.869 E10.52032
G1 X93.605 Y126.068 E10.65176
G1 X92.589 Y126.144 E10.68903
G1 X91.647 Y126.174 E10.72351
G1 X91.138 Y126.158 E10.74215
G1 X90.834 Y126.141 E10.75329
G1 X89.897 Y126.048 E10.78774
G1 X88.97 Y125.877 E10.82222
G1 X87.822 Y125.547 E10.86592
G1 X87.565 Y125.458 E10.87588
G1 X86.688 Y125.112 E10.91037
G1 X85.844 Y124.693 E10.94484
G1 X85.16 Y124.284 E10.974
G1 X84.981 Y124.168 E10.9818
G1 X84.213 Y123.623 E11.01626
G1 X83.494 Y123.014 E11.05073
G1 X82.712 Y122.217 E11.09158
G1 X82.501 Y121.979 E11.10322
G1 X81.907 Y121.248 E11.13768
G1 X81.376 Y120.469 E11.17217
G1 X80.914 Y119.648 E11.20664
G1 X80.537 Y118.826 E11.23972
G1 X80.414 Y118.526 E11.25159
G1 X80.094 Y117.64 E11.28605
G1 X79.85 Y116.73 E11.32052
G1 X79.684 Y115.802 E11.35501
G1 X79.62 Y115.21 E11.3768
G1 X79.595 Y114.901 E11.38814
G1 X79.562 Y113.747 E11.43038
G1 X79.626 Y110.998 E11.53098
G1 X79.613 Y108.479 E11.62314
G1 X79.602 Y108.171 E11.63442
G1 X79.598 Y108.019 E11.63998
G1 X79.563 Y106.389 E11.69963
G1 X79.582 Y105.447 E11.7341
G1 X79.698 Y104.407 E11.77239
G1 X79.733 Y104.187 E11.78054
G1 X79.92 Y103.264 E11.81499
G1 X80.185 Y102.36 E11.84946
G1 X80.617 Y101.279 E11.89205
G1 X80.761 Y100.967 E11.90462
G1 X81.191 Y100.13 E11.93905
G1 X81.692 Y99.331 E11.97355
G1 X82.258 Y98.578 E12.00802
G1 X82.886 Y97.876 E12.04248
G1 X83.223 Y97.544 E12.05978
G1 X83.504 Y97.279 E12.07391
G1 X84.217 Y96.662 E12.10841
G0 F6000 X84.505 Y96.995
G1 F1200 X85.253 Y96.454 E12.14219
G1 X86.045 Y95.98 E12.17596
G1 X86.86 Y95.582 E12.20914
G1 X87.11 Y95.473 E12.21912
G1 X87.971 Y95.141 E12.25288
G1 X88.858 Y94.885 E12.28665
G1 X89.34 Y94.78 E12.3047
G1 X89.572 Y94.735 E12.31335
G1 X90.207 Y94.632 E12.33688
G1 X91.169 Y94.505 E12.37239
G1 X91.308 Y94.487 E12.37751
G1 X92.087 Y94.395 E12.40621
G1 X94.563 Y94.03 E12.49778
G1 X97.012 Y93.598 E12.58876
G1 X101.207 Y92.706 E12.74567
G1 X101.49 Y92.65 E12.75623
G1 X102.14 Y92.53 E12.78041
G1 X103.018 Y92.406 E12.81285
G1 X103.289 Y92.379 E12.82281
G1 X103.751 Y92.343 E12.83977
G1 X104.627 Y92.294 E12.87187
G1 X105.59 Y92.283 E12.9071
G1 X105.937 Y92.295 E12.91981
G1 X106.39 Y92.321 E12.93641
G1 X107.18 Y92.382 E12.9654
G1 X107.477 Y92.409 E12.97631
G1 X108.378 Y92.504 E13.00945
G1 X108.538 Y92.522 E13.01534
G1 X109.343 Y92.619 E13.04501
G1 X111.863 Y92.851 E13.1376
G1 X114.377 Y93.011 E13.22976
G1 X116.882 Y93.1 E13.32147
G1 X119.472 Y93.117 E13.41623
G1 X121.357 Y93.084 E13.4852
G1 X122.294 Y93.057 E13.5195
G1 X123.256 Y93.073 E13.5547
G1 X124.052 Y93.122 E13.58388
G1 X124.434 Y93.153 E13.5979
G1 X124.659 Y93.175 E13.60617
G1 X125.9 Y93.37 E13.65213
G1 X126.732 Y93.552 E13.68329
G1 X127.625 Y93.788 E13.71708
G1 X128.105 Y93.951 E13.73563
G1 X129.065 Y94.301 E13.77301
G1 X129.918 Y94.654 E13.80679
G1 X130.539 Y94.969 E13.83226
G1 X131.418 Y95.451 E13.86894
G1 X131.897 Y95.73 E13.88922
G1 X132.075 Y95.84 E13.89688
G1 X133.162 Y96.61 E13.94561
G1 X133.828 Y97.147 E13.97691
G1 X134.521 Y97.757 E14.01069
G1 X134.884 Y98.123 E14.02955
G1 X135.59 Y98.87 E14.06715
G1 X136.195 Y99.568 E14.10095
G1 X136.602 Y100.117 E14.12595
G1 X137.161 Y100.923 E14.16184
G1 X137.481 Y101.411 E14.18319
G1 X137.593 Y101.593 E14.19101
G1 X138.204 Y102.738 E14.23849
G1 X138.562 Y103.519 E14.26992
G1 X138.91 Y104.374 E14.3037
G1 X139.065 Y104.842 E14.32173
G1 X139.356 Y105.793 E14.35812
G1 X139.511 Y106.351 E14.37931
G1 X139.561 Y106.553 E14.38692
G1 X139.794 Y107.822 E14.43412
G1 X139.894 Y108.641 E14.46431
G1 X139.932 Y108.995 E14.47734
G1 X139.951 Y109.21 E14.48523
G1 X139.987 Y110.471 E14.53139
G1 X139.964 Y111.23 E14.55917
G1 X139.948 Y111.574 E14.57177
G1 X139.927 Y111.909 E14.58405
G1 X139.783 Y113.111 E14.62834
G1 X139.723 Y113.448 E14.64086
G1 X139.632 Y113.901 E14.65777
G1 X139.499 Y114.497 E14.68011
G1 X139.149 Y115.717 E14.72654
G1 X138.889 Y116.455 E14.75517
G1 X138.761 Y116.801 E14.76867
G1 X138.676 Y117.018 E14.7772
G1 X138.137 Y118.182 E14.82413
G1 X137.736 Y118.927 E14.85508
G1 X137.263 Y119.721 E14.88889
G1 X136.987 Y120.121 E14.90667
G1 X136.397 Y120.937 E14.94351
G1 X136.037 Y121.407 E14.96517
G1 X135.908 Y121.566 E14.97266
G1 X135.043 Y122.51 E15.01951
G1 X134.454 Y123.08 E15.0495
G1 X134.197 Y123.321 E15.06239
G1 X134.038 Y123.465 E15.07023
G1 X133.031 Y124.272 E15.11745
G1 X132.381 Y124.731 E15.14656
G1 X132.081 Y124.935 E15.15983
G1 X131.889 Y125.061 E15.16824
G1 X130.781 Y125.697 E15.21498
G1 X130.054 Y126.058 E15.24467
G1 X129.746 Y126.204 E15.25714
G1 X129.547 Y126.295 E15.26515
G1 X128.319 Y126.768 E15.3133
G1 X127.526 Y127.018 E15.34372
G1 X126.634 Y127.257 E15.3775
G1 X126.174 Y127.349 E15.39466
G1 X125.188 Y127.523 E15.4313
G1 X124.586 Y127.611 E15.45355
G1 X124.349 Y127.639 E15.46229
G1 X123.098 Y127.713 E15.50814
G1 X122.348 Y127.713 E15.53557
G1 X121.983 Y127.707 E15.54893
G1 X121.633 Y127.695 E15.56174
G1 X120.455 Y127.589 E15.60502
G1 X120.12 Y127.54 E15.6174
G1 X119.65 Y127.46 E15.63485
G1 X117.996 Y127.142 E15.69647
G1 X117.843 Y127.112 E15.70217
G1 X117.236 Y126.986 E15.72485
G1 X114.736 Y126.541 E15.81776
G1 X112.287 Y126.176 E15.90834
G1 X109.751 Y125.871 E16.0018
G1 X107.221 Y125.639 E16.09475
G1 X104.687 Y125.479 E16.18764
G1 X102.209 Y125.392 E16.27836
G1 X99.668 Y125.376 E16.37132
G1 X97.158 Y125.43 E16.46318
G1 X93.547 Y125.631 E16.59549
G1 X92.556 Y125.705 E16.63185
G1 X91.633 Y125.734 E16.66564
G1 X91.163 Y125.718 E16.68284
G1 X90.859 Y125.701 E16.69398
G1 X89.94 Y125.61 E16.72777
G1 X89.033 Y125.439 E16.76154
G1 X87.966 Y125.131 E16.80217
G1 X87.709 Y125.042 E16.81212
G1 X86.85 Y124.702 E16.84592
G1 X86.024 Y124.29 E16.87969
G1 X85.4 Y123.915 E16.90633
G1 X85.221 Y123.799 E16.91413
G1 X84.468 Y123.264 E16.94792
G1 X83.765 Y122.665 E16.98171
G1 X83.041 Y121.925 E17.01959
G1 X82.83 Y121.687 E17.03123
G1 X82.248 Y120.97 E17.06501
G1 X81.731 Y120.206 E17.09876
G1 X81.281 Y119.399 E17.13257
G1 X80.944 Y118.659 E17.16232
G1 X80.821 Y118.359 E17.17418
G1 X80.508 Y117.49 E17.20797
G1 X80.271 Y116.598 E17.24174
G1 X80.113 Y115.688 E17.27553
G1 X80.059 Y115.175 E17.29441
G1 X80.034 Y114.866 E17.30575
G1 X80.002 Y113.757 E17.34634
G1 X80.066 Y111.005 E17.44705
G1 X80.053 Y108.461 E17.54013
G1 X80.042 Y108.156 E17.55129
G1 X80.037 Y108.01 E17.55664
G1 X80.002 Y106.38 E17.61629
G1 X80.023 Y105.457 E17.65006
