;FLAVOR:Marlin
;TIME:5334
;Filament used: 4.82519m
;Layer height: 0.2
;MINX:53.5
;MINY:68
;MINZ:0.2
;MAXX:166.5
;MAXY:152
;MAXZ:8.4
;Generated with Cura_SteamEngine 4.4.1
M140 S60
M105
M190 S60
M104 S200
M105
M109 S200
M82 ;absolute extrusion mode
M201 X500.00 Y500.00 Z100.00 E5000.00 ;Setup machine max acceleration
M203 X500.00 Y500.00 Z10.00 E50.00 ;Setup machine max feedrate
M204 P500.00 R1000.00 T500.00 ;Setup Print/Retract/Travel acceleration
M205 X8.00 Y8.00 Z0.40 E5.00 ;Setup Jerk
M220 S100 ;Reset Feedrate
M221 S100 ;Reset Flowrate

G28 ;Home

G92 E0 ;Reset Extruder
G1 Z2.0 F3000 ;Move Z Axis up
G1 X10.1 Y20 Z0.28 F5000.0 ;Move to start position
G1 X10.1 Y200.0 Z0.28 F1500.0 E15 ;Draw the first line
G1 X10.4 Y200.0 Z0.28 F5000.0 ;Move to side a little
G1 X10.4 Y20 Z0.28 F1500.0 E30 ;Draw the second line
G92 E0 ;Reset Extruder
G1 Z2.0 F3000 ;Move Z Axis up

G92 E0
G92 E0
G1 F1500 E-6.5
;LAYER_COUNT:42
;LAYER:0
M107
G0 F6000 X58.425 Y71.087 Z0.2
;TYPE:SKIRT
G1 F1500 E0
G1 F1200 X59.441 Y70.339 E0.04196
G1 X59.716 Y70.16 E0.05288
G1 X60.035 Y69.96 E0.0654
G1 X60.219 Y69.849 E0.07255
G1 X61.042 Y69.399 E0.10374
G1 X61.919 Y69.014 E0.1356
G1 X62.143 Y68.927 E0.14359
G1 X62.636 Y68.749 E0.16103
G1 X62.944 Y68.646 E0.17183
G1 X63.846 Y68.387 E0.20304
G1 X64.833 Y68.195 E0.23648
G1 X65.037 Y68.165 E0.24334
G1 X66.076 Y68.062 E0.27807
G1 X67.016 Y68.014 E0.30937
G1 X67.577 Y68 E0.32804
G1 X152.293 Y68 E3.1457
G1 X152.451 Y68.001 E3.15096
G1 X153.149 Y68.011 E3.17418
G1 X153.979 Y68.055 E3.20182
G1 X154.245 Y68.079 E3.2107
G1 X154.626 Y68.12 E3.22345
G1 X154.905 Y68.155 E3.2328
G1 X155.83 Y68.311 E3.264
G1 X156.855 Y68.582 E3.29927
G1 X157.073 Y68.651 E3.30687
G1 X157.505 Y68.797 E3.32204
G1 X157.811 Y68.908 E3.33286
G1 X158.678 Y69.265 E3.36405
G1 X159.637 Y69.768 E3.40007
G1 X159.858 Y69.898 E3.4086
G1 X160.221 Y70.12 E3.42275
G1 X160.486 Y70.29 E3.43322
G1 X161.253 Y70.83 E3.46442
G1 X162.094 Y71.548 E3.5012
G1 X162.253 Y71.698 E3.50847
G1 X162.598 Y72.037 E3.52455
G1 X162.83 Y72.276 E3.53563
G1 X163.454 Y72.976 E3.56682
G1 X164.121 Y73.884 E3.6043
G1 X164.297 Y74.151 E3.61493
G1 X164.519 Y74.501 E3.62872
G1 X164.633 Y74.689 E3.63603
G1 X165.084 Y75.511 E3.66721
G1 X165.446 Y76.323 E3.69678
G1 X165.538 Y76.554 E3.70505
G1 X165.751 Y77.135 E3.72564
G1 X165.852 Y77.437 E3.73623
G1 X166.111 Y78.338 E3.76741
G1 X166.333 Y79.543 E3.80816
G1 X166.379 Y79.906 E3.82033
G1 X166.417 Y80.25 E3.83184
G1 X166.441 Y80.503 E3.84029
G1 X166.488 Y81.355 E3.86868
G1 X166.498 Y81.944 E3.88827
G1 X166.5 Y82.131 E3.89449
G1 X166.5 Y137.764 E5.74485
G1 X166.499 Y137.922 E5.7501
G1 X166.489 Y138.62 E5.77332
G1 X166.433 Y139.582 E5.80537
G1 X166.376 Y140.139 E5.824
G1 X166.241 Y141.067 E5.85519
G1 X165.914 Y142.358 E5.89948
G1 X165.806 Y142.697 E5.91131
G1 X165.677 Y143.077 E5.92466
G1 X165.603 Y143.283 E5.93194
G1 X165.249 Y144.151 E5.96312
G1 X164.687 Y145.217 E6.0032
G1 X164.557 Y145.434 E6.01161
G1 X164.375 Y145.728 E6.02312
G1 X164.206 Y145.991 E6.03351
G1 X163.666 Y146.757 E6.06468
G1 X162.77 Y147.782 E6.10997
G1 X162.387 Y148.169 E6.12807
G1 X161.7 Y148.807 E6.15926
G1 X160.641 Y149.603 E6.20332
G1 X160.354 Y149.793 E6.21477
G1 X159.964 Y150.04 E6.23012
G1 X159.78 Y150.151 E6.23727
G1 X158.957 Y150.601 E6.26847
G1 X158.085 Y150.984 E6.30015
G1 X157.869 Y151.068 E6.30785
G1 X157.39 Y151.242 E6.3248
G1 X157.075 Y151.348 E6.33586
G1 X156.174 Y151.608 E6.36705
G1 X155.167 Y151.805 E6.40118
G1 X154.963 Y151.835 E6.40803
G1 X154.458 Y151.897 E6.42496
G1 X154.118 Y151.931 E6.43632
G1 X153.191 Y151.985 E6.46721
G1 X152.405 Y151.997 E6.49335
G1 X152.237 Y151.998 E6.49894
G1 X68.013 Y152 E9.30024
G1 X67.707 Y152 E9.31042
G1 X67.549 Y151.999 E9.31567
G1 X66.851 Y151.989 E9.33889
G1 X66.021 Y151.945 E9.36654
G1 X65.755 Y151.921 E9.37542
G1 X65.374 Y151.88 E9.38816
G1 X65.095 Y151.845 E9.39752
G1 X64.17 Y151.689 E9.42872
G1 X63.125 Y151.412 E9.46467
G1 X62.899 Y151.34 E9.47256
G1 X62.487 Y151.2 E9.48704
G1 X62.181 Y151.089 E9.49786
G1 X61.314 Y150.732 E9.52905
G1 X60.299 Y150.196 E9.56722
G1 X60.086 Y150.069 E9.57547
G1 X59.781 Y149.881 E9.58739
G1 X59.519 Y149.713 E9.59774
G1 X58.752 Y149.173 E9.62894
G1 X57.904 Y148.45 E9.666
G1 X57.742 Y148.297 E9.67342
G1 X57.435 Y147.996 E9.68772
G1 X57.2 Y147.756 E9.69889
G1 X56.573 Y147.058 E9.73009
G1 X55.842 Y146.062 E9.77119
G1 X55.661 Y145.784 E9.78222
G1 X55.469 Y145.479 E9.79421
G1 X55.357 Y145.294 E9.8014
G1 X54.906 Y144.472 E9.83258
G1 X54.51 Y143.571 E9.86532
G1 X54.424 Y143.349 E9.87324
G1 X54.249 Y142.864 E9.89039
G1 X54.146 Y142.556 E9.90119
G1 X53.887 Y141.654 E9.9324
G1 X53.692 Y140.643 E9.96665
G1 X53.66 Y140.422 E9.97407
G1 X53.6 Y139.934 E9.99043
G1 X53.568 Y139.612 E10.00119
G1 X53.517 Y138.787 E10.02868
G1 X53.503 Y138.201 E10.04818
G1 X53.5 Y137.938 E10.05692
G1 X53.5 Y116.707 E10.76307
G1 X53.501 Y116.551 E10.76826
G1 X53.511 Y115.845 E10.79174
G1 X53.52 Y115.533 E10.80212
G1 X53.564 Y114.5 E10.83651
G1 X53.571 Y114.348 E10.84157
G1 X53.605 Y113.739 E10.86186
G1 X53.676 Y111.275 E10.94385
G1 X53.676 Y108.75 E11.02783
G1 X53.604 Y106.189 E11.11304
G1 X53.552 Y105.235 E11.14482
G1 X53.544 Y105.066 E11.15045
G1 X53.516 Y104.358 E11.17401
G1 X53.508 Y104.06 E11.18393
G1 X53.501 Y103.497 E11.20266
G1 X53.5 Y103.36 E11.20721
G1 X53.5 Y82.207 E11.91076
G1 X53.501 Y82.049 E11.91602
G1 X53.511 Y81.352 E11.9392
G1 X53.555 Y80.522 E11.96685
G1 X53.579 Y80.256 E11.97573
G1 X53.621 Y79.865 E11.98881
G1 X53.657 Y79.58 E11.99837
G1 X53.814 Y78.656 E12.02954
G1 X54.091 Y77.614 E12.0654
G1 X54.159 Y77.401 E12.07284
G1 X54.303 Y76.979 E12.08767
G1 X54.42 Y76.658 E12.09903
G1 X54.779 Y75.791 E12.13024
G1 X55.343 Y74.732 E12.17015
G1 X55.467 Y74.527 E12.17812
G1 X55.62 Y74.28 E12.18778
G1 X55.79 Y74.015 E12.19825
G1 X56.33 Y73.248 E12.22945
G1 X57.074 Y72.379 E12.2675
G1 X57.226 Y72.219 E12.27484
G1 X57.488 Y71.952 E12.28728
G1 X57.729 Y71.715 E12.29852
G1 X58.425 Y71.087 E12.3297
G0 F6000 X58.693 Y71.384
G1 F1200 X59.659 Y70.674 E12.36958
G1 X59.934 Y70.495 E12.38049
G1 X60.242 Y70.303 E12.39256
G1 X60.426 Y70.192 E12.39971
G1 X61.234 Y69.751 E12.43033
G1 X62.063 Y69.387 E12.46044
G1 X62.287 Y69.3 E12.46843
G1 X62.763 Y69.128 E12.48527
G1 X63.071 Y69.025 E12.49607
G1 X63.956 Y68.771 E12.52669
G1 X64.891 Y68.591 E12.55836
G1 X65.095 Y68.561 E12.56522
G1 X66.096 Y68.462 E12.59867
G1 X67.036 Y68.414 E12.62998
G1 X67.577 Y68.4 E12.64798
G1 X152.293 Y68.4 E15.46564
G1 X152.445 Y68.401 E15.4707
G1 X153.143 Y68.411 E15.49392
G1 X153.944 Y68.453 E15.5206
G1 X154.21 Y68.477 E15.52948
G1 X154.576 Y68.516 E15.54172
G1 X154.855 Y68.551 E15.55107
G1 X155.763 Y68.706 E15.58171
G1 X156.735 Y68.963 E15.61515
G1 X156.953 Y69.032 E15.62276
G1 X157.369 Y69.173 E15.63737
G1 X157.675 Y69.284 E15.64819
G1 X158.526 Y69.636 E15.67882
G1 X159.434 Y70.112 E15.71292
G1 X159.655 Y70.242 E15.72145
G1 X160.005 Y70.457 E15.73511
G1 X160.27 Y70.627 E15.74558
G1 X161.022 Y71.157 E15.77618
G1 X161.82 Y71.839 E15.8111
G1 X161.979 Y71.989 E15.81837
G1 X162.311 Y72.316 E15.83386
G1 X162.543 Y72.555 E15.84494
G1 X163.155 Y73.243 E15.87557
G1 X163.787 Y74.104 E15.91109
G1 X163.963 Y74.371 E15.92173
G1 X164.177 Y74.709 E15.93504
G1 X164.291 Y74.897 E15.94235
G1 X164.734 Y75.704 E15.97297
G1 X165.075 Y76.471 E16.00089
G1 X165.167 Y76.702 E16.00916
G1 X165.372 Y77.262 E16.02899
G1 X165.473 Y77.564 E16.03958
G1 X165.727 Y78.449 E16.0702
G1 X165.936 Y79.593 E16.10888
G1 X165.982 Y79.956 E16.12105
G1 X166.019 Y80.288 E16.13216
G1 X166.043 Y80.541 E16.14062
G1 X166.088 Y81.362 E16.16796
G1 X166.098 Y81.951 E16.18756
G1 X166.1 Y82.131 E16.19355
G1 X166.1 Y137.764 E18.04391
G1 X166.099 Y137.916 E18.04896
G1 X166.089 Y138.614 E18.07218
G1 X166.035 Y139.541 E18.10306
G1 X165.978 Y140.098 E18.12169
G1 X165.845 Y141.009 E18.15231
G1 X165.533 Y142.237 E18.19445
G1 X165.425 Y142.576 E18.20628
G1 X165.301 Y142.942 E18.21914
G1 X165.227 Y143.148 E18.22642
G1 X164.878 Y144 E18.25704
G1 X164.344 Y145.011 E18.29507
G1 X164.214 Y145.228 E18.30348
G1 X164.039 Y145.511 E18.31455
G1 X163.87 Y145.774 E18.32495
G1 X163.339 Y146.527 E18.35559
G1 X162.486 Y147.5 E18.39863
G1 X162.103 Y147.887 E18.41674
G1 X161.428 Y148.513 E18.44736
G1 X160.42 Y149.27 E18.48928
G1 X160.133 Y149.46 E18.50073
G1 X159.757 Y149.697 E18.51552
G1 X159.573 Y149.808 E18.52266
G1 X158.765 Y150.249 E18.55328
G1 X157.94 Y150.611 E18.58324
G1 X157.724 Y150.695 E18.59095
G1 X157.263 Y150.862 E18.60726
G1 X156.948 Y150.968 E18.61831
G1 X156.063 Y151.224 E18.64896
G1 X155.109 Y151.409 E18.68128
G1 X154.905 Y151.439 E18.68814
G1 X154.418 Y151.499 E18.70446
G1 X154.078 Y151.533 E18.71582
G1 X153.185 Y151.585 E18.74557
G1 X152.399 Y151.597 E18.77172
G1 X152.237 Y151.598 E18.77711
G1 X68.013 Y151.6 E21.57841
G1 X67.707 Y151.6 E21.58859
G1 X67.555 Y151.599 E21.59364
G1 X66.857 Y151.589 E21.61686
G1 X66.056 Y151.547 E21.64354
G1 X65.79 Y151.523 E21.65242
G1 X65.424 Y151.484 E21.66466
G1 X65.145 Y151.449 E21.67401
G1 X64.237 Y151.294 E21.70465
G1 X63.246 Y151.031 E21.73875
G1 X63.02 Y150.959 E21.74664
G1 X62.623 Y150.824 E21.76059
G1 X62.317 Y150.713 E21.77142
G1 X61.466 Y150.361 E21.80205
G1 X60.504 Y149.852 E21.83824
G1 X60.291 Y149.725 E21.84649
G1 X59.997 Y149.544 E21.85798
G1 X59.735 Y149.376 E21.86833
G1 X58.983 Y148.846 E21.89893
G1 X58.179 Y148.159 E21.9341
G1 X58.017 Y148.006 E21.94151
G1 X57.721 Y147.716 E21.95529
G1 X57.486 Y147.476 E21.96647
G1 X56.871 Y146.791 E21.99709
G1 X56.177 Y145.844 E22.03613
G1 X55.996 Y145.566 E22.04717
G1 X55.811 Y145.272 E22.05872
G1 X55.699 Y145.087 E22.06591
G1 X55.257 Y144.279 E22.09655
G1 X54.883 Y143.426 E22.12752
G1 X54.797 Y143.204 E22.13544
G1 X54.628 Y142.737 E22.15196
G1 X54.525 Y142.429 E22.16276
G1 X54.271 Y141.544 E22.19339
G1 X54.087 Y140.586 E22.22583
G1 X54.055 Y140.365 E22.23326
G1 X53.998 Y139.894 E22.24904
G1 X53.966 Y139.572 E22.2598
G1 X53.917 Y138.777 E22.28629
G1 X53.903 Y138.191 E22.30579
G1 X53.9 Y137.938 E22.31421
G1 X53.9 Y116.707 E23.02035
G1 X53.901 Y116.557 E23.02534
G1 X53.911 Y115.851 E23.04882
G1 X53.92 Y115.55 E23.05884
G1 X53.964 Y114.517 E23.09323
G1 X53.971 Y114.37 E23.09812
G1 X54.003 Y113.808 E23.11685
G1 X54.076 Y111.251 E23.20193
G1 X54.076 Y108.739 E23.28548
G1 X54.005 Y106.193 E23.37019
G1 X53.951 Y105.213 E23.40283
G1 X53.943 Y105.05 E23.40826
G1 X53.915 Y104.342 E23.43183
G1 X53.908 Y104.055 E23.44138
G1 X53.901 Y103.492 E23.4601
G1 X53.9 Y103.36 E23.46449
G1 X53.9 Y82.207 E24.16805
G1 X53.901 Y82.055 E24.1731
G1 X53.911 Y81.358 E24.19629
G1 X53.953 Y80.557 E24.22296
G1 X53.977 Y80.291 E24.23185
G1 X54.018 Y79.916 E24.24439
G1 X54.054 Y79.631 E24.25395
G1 X54.208 Y78.723 E24.28458
G1 X54.472 Y77.735 E24.31859
G1 X54.54 Y77.522 E24.32603
G1 X54.679 Y77.116 E24.3403
G1 X54.796 Y76.795 E24.35167
G1 X55.148 Y75.945 E24.38227
G1 X55.685 Y74.939 E24.4202
G1 X55.809 Y74.734 E24.42816
G1 X55.957 Y74.496 E24.43749
G1 X56.127 Y74.231 E24.44796
G1 X56.657 Y73.479 E24.47856
G1 X57.364 Y72.654 E24.51469
G1 X57.516 Y72.494 E24.52203
G1 X57.769 Y72.237 E24.53403
G1 X58.01 Y72 E24.54527
G1 X58.693 Y71.384 E24.57586
G0 F6000 X58.961 Y71.681
G1 F1200 X59.878 Y71.009 E24.61367
G1 X60.153 Y70.83 E24.62459
G1 X60.448 Y70.645 E24.63617
G1 X60.632 Y70.534 E24.64332
G1 X61.425 Y70.102 E24.67335
G1 X62.208 Y69.76 E24.70177
G1 X62.432 Y69.673 E24.70976
G1 X62.89 Y69.508 E24.72595
G1 X63.198 Y69.405 E24.73676
G1 X64.066 Y69.156 E24.76679
G1 X64.949 Y68.987 E24.79669
G1 X65.153 Y68.957 E24.80355
G1 X66.117 Y68.861 E24.83577
G1 X67.057 Y68.813 E24.86708
G1 X67.577 Y68.8 E24.88438
G1 X152.293 Y68.8 E27.70204
G1 X152.439 Y68.801 E27.7069
G1 X153.137 Y68.811 E27.73012
G1 X153.908 Y68.851 E27.7558
G1 X154.174 Y68.875 E27.76468
G1 X154.527 Y68.913 E27.77649
G1 X154.806 Y68.948 E27.78584
G1 X155.696 Y69.1 E27.81587
G1 X156.614 Y69.344 E27.84746
G1 X156.832 Y69.413 E27.85507
G1 X157.232 Y69.549 E27.86912
G1 X157.538 Y69.66 E27.87995
G1 X158.373 Y70.006 E27.91001
G1 X159.232 Y70.457 E27.94228
G1 X159.453 Y70.587 E27.9508
G1 X159.789 Y70.794 E27.96393
G1 X160.054 Y70.964 E27.9744
G1 X160.791 Y71.485 E28.00442
G1 X161.545 Y72.13 E28.03742
G1 X161.704 Y72.28 E28.04469
G1 X162.024 Y72.594 E28.05961
G1 X162.256 Y72.833 E28.07068
G1 X162.856 Y73.509 E28.10075
G1 X163.453 Y74.324 E28.13435
G1 X163.629 Y74.591 E28.14498
G1 X163.835 Y74.916 E28.15778
G1 X163.949 Y75.104 E28.1651
G1 X164.382 Y75.896 E28.19512
G1 X164.703 Y76.619 E28.22143
G1 X164.795 Y76.85 E28.2297
G1 X164.992 Y77.389 E28.24878
G1 X165.093 Y77.691 E28.25938
G1 X165.342 Y78.559 E28.28941
G1 X165.539 Y79.644 E28.32609
G1 X165.585 Y80.007 E28.33826
G1 X165.62 Y80.326 E28.34893
G1 X165.644 Y80.579 E28.35738
G1 X165.689 Y81.369 E28.3837
G1 X165.699 Y81.958 E28.40329
G1 X165.7 Y82.131 E28.40905
G1 X165.7 Y137.764 E30.25941
G1 X165.699 Y137.91 E30.26427
G1 X165.689 Y138.608 E30.28748
G1 X165.637 Y139.5 E30.3172
G1 X165.58 Y140.057 E30.33583
G1 X165.448 Y140.951 E30.36588
G1 X165.152 Y142.115 E30.40583
G1 X165.044 Y142.454 E30.41766
G1 X164.924 Y142.806 E30.43003
G1 X164.85 Y143.012 E30.43731
G1 X164.508 Y143.848 E30.46735
G1 X164.001 Y144.806 E30.5034
G1 X163.871 Y145.023 E30.51182
G1 X163.702 Y145.295 E30.52247
G1 X163.533 Y145.558 E30.53287
G1 X163.012 Y146.295 E30.56289
G1 X162.202 Y147.219 E30.60375
G1 X161.819 Y147.606 E30.62186
G1 X161.156 Y148.219 E30.6519
G1 X160.2 Y148.936 E30.69164
G1 X159.913 Y149.126 E30.70309
G1 X159.551 Y149.355 E30.71734
G1 X159.367 Y149.466 E30.72448
G1 X158.574 Y149.898 E30.75452
G1 X157.795 Y150.238 E30.78279
G1 X157.579 Y150.322 E30.7905
G1 X157.135 Y150.483 E30.80621
G1 X156.82 Y150.589 E30.81726
G1 X155.952 Y150.839 E30.8473
G1 X155.051 Y151.013 E30.87783
G1 X154.847 Y151.043 E30.88468
G1 X154.378 Y151.101 E30.9004
G1 X154.038 Y151.135 E30.91177
G1 X153.179 Y151.185 E30.94038
G1 X152.393 Y151.197 E30.96653
G1 X152.237 Y151.198 E30.97172
G1 X68.013 Y151.2 E33.77302
G1 X67.707 Y151.2 E33.7832
G1 X67.561 Y151.199 E33.78805
G1 X66.863 Y151.189 E33.81127
G1 X66.092 Y151.149 E33.83695
G1 X65.826 Y151.125 E33.84583
G1 X65.473 Y151.087 E33.85764
G1 X65.194 Y151.052 E33.86699
G1 X64.304 Y150.9 E33.89702
G1 X63.368 Y150.65 E33.92925
G1 X63.142 Y150.578 E33.93714
G1 X62.76 Y150.448 E33.95056
G1 X62.454 Y150.337 E33.96138
G1 X61.619 Y149.991 E33.99145
G1 X60.708 Y149.509 E34.02573
G1 X60.495 Y149.382 E34.03397
G1 X60.213 Y149.207 E34.04501
G1 X59.951 Y149.039 E34.05536
G1 X59.213 Y148.519 E34.08539
G1 X58.453 Y147.869 E34.11865
G1 X58.291 Y147.716 E34.12606
G1 X58.007 Y147.436 E34.13933
G1 X57.772 Y147.196 E34.1505
G1 X57.169 Y146.524 E34.18053
G1 X56.512 Y145.625 E34.21757
G1 X56.331 Y145.347 E34.2286
G1 X56.153 Y145.064 E34.23972
G1 X56.041 Y144.879 E34.24691
G1 X55.608 Y144.087 E34.27693
G1 X55.256 Y143.282 E34.30616
G1 X55.17 Y143.06 E34.31407
G1 X55.008 Y142.61 E34.32998
G1 X54.905 Y142.302 E34.34078
G1 X54.656 Y141.434 E34.37082
G1 X54.483 Y140.529 E34.40146
G1 X54.451 Y140.308 E34.40889
G1 X54.396 Y139.855 E34.42407
G1 X54.364 Y139.533 E34.43483
G1 X54.317 Y138.768 E34.46032
G1 X54.303 Y138.182 E34.47982
G1 X54.3 Y137.938 E34.48793
G1 X54.3 Y116.707 E35.19408
G1 X54.301 Y116.563 E35.19887
G1 X54.311 Y115.857 E35.22235
G1 X54.319 Y115.567 E35.232
G1 X54.363 Y114.534 E35.26639
G1 X54.37 Y114.393 E35.27109
G1 X54.403 Y113.807 E35.29061
G1 X54.476 Y111.263 E35.37526
G1 X54.476 Y108.728 E35.45957
G1 X54.405 Y106.196 E35.54382
G1 X54.35 Y105.191 E35.5773
G1 X54.343 Y105.034 E35.58252
G1 X54.315 Y104.326 E35.60609
G1 X54.308 Y104.05 E35.61527
G1 X54.301 Y103.487 E35.634
G1 X54.3 Y103.36 E35.63822
G1 X54.3 Y82.207 E36.34177
G1 X54.301 Y82.061 E36.34663
G1 X54.311 Y81.364 E36.36982
G1 X54.351 Y80.593 E36.39549
G1 X54.375 Y80.327 E36.40438
G1 X54.414 Y79.966 E36.41645
G1 X54.45 Y79.681 E36.42601
G1 X54.603 Y78.791 E36.45604
G1 X54.853 Y77.857 E36.4882
G1 X54.921 Y77.644 E36.49564
G1 X55.055 Y77.253 E36.50939
G1 X55.172 Y76.932 E36.52075
G1 X55.518 Y76.098 E36.55078
G1 X56.027 Y75.146 E36.58669
G1 X56.151 Y74.941 E36.59465
G1 X56.294 Y74.712 E36.60363
G1 X56.464 Y74.447 E36.61411
G1 X56.985 Y73.71 E36.64413
G1 X57.654 Y72.93 E36.6783
G1 X57.806 Y72.77 E36.68564
