;FLAVOR:Marlin
;TIME:1232
;Filament used: 0.648995m
;Layer height: 0.2
;MINX:92.289
;MINY:91.25
;MINZ:0.2
;MAXX:142.707
;MAXY:143.751
;MAXZ:12.6
;Generated with Cura_SteamEngine 4.6.1
M140 S80
M105
M190 S80
M104 S240
M105
M109 S240
M82 ;absolute extrusion mode
; Ender 3 Custom Start G-code
G92 E0 ; Reset Extruder
G28 ; Home all axes
G1 Z2.0 F3000 ; Move Z Axis up little to prevent scratching of Heat Bed
G1 X0.1 Y20 Z0.3 F5000.0 ; Move to start position
G1 X0.1 Y200.0 Z0.3 F1500.0 E15 ; Draw the first line
G1 X0.4 Y200.0 Z0.3 F5000.0 ; Move to side a little
G1 X0.4 Y20 Z0.3 F1500.0 E30 ; Draw the second line
G92 E0 ; Reset Extruder
G1 Z2.0 F3000 ; Move Z Axis up little to prevent scratching of Heat Bed
G1 X5 Y20 Z0.3 F5000.0 ; Move over to prevent blob squish
G92 E0
G92 E0
G1 F2700 E-5
;LAYER_COUNT:63
;LAYER:0
M107
G0 F6000 X109.032 Y92.14 Z0.2
;TYPE:SKIRT
G1 F2700 E0
G1 F900 X110.59 Y92.292 E0.05207
G1 X113.118 Y92.465 E0.13634
G1 X115.683 Y92.569 E0.22173
G1 X118.182 Y92.599 E0.30485
G1 X120.751 Y92.557 E0.39031
G1 X123.281 Y92.444 E0.47454
G1 X125.854 Y92.257 E0.56034
G1 X127.771 Y92.075 E0.62439
G1 X128.674 Y92.051 E0.65443
G1 X129.575 Y92.106 E0.68446
G1 X130.468 Y92.241 E0.71449
G1 X131.346 Y92.455 E0.74455
G1 X132.201 Y92.745 E0.77458
G1 X133.027 Y93.11 E0.80462
G1 X133.818 Y93.546 E0.83466
G1 X134.567 Y94.051 E0.8647
G1 X135.268 Y94.62 E0.89473
G1 X135.916 Y95.249 E0.92477
G1 X136.242 Y95.611 E0.94097
G1 X136.524 Y95.94 E0.95538
G1 X136.975 Y96.504 E0.9794
G1 X137.373 Y97.041 E1.00163
G1 X137.635 Y97.413 E1.01677
G1 X137.991 Y97.941 E1.03795
G1 X138.186 Y98.241 E1.04985
G1 X138.407 Y98.595 E1.06373
G1 X138.599 Y98.915 E1.07614
G1 X138.849 Y99.35 E1.09283
G1 X139.025 Y99.67 E1.10497
G1 X139.271 Y100.136 E1.1225
G1 X139.425 Y100.44 E1.13383
G1 X139.597 Y100.794 E1.14692
G1 X139.767 Y101.162 E1.16041
G1 X140.02 Y101.74 E1.18139
G1 X140.146 Y102.042 E1.19228
G1 X140.28 Y102.377 E1.20428
G1 X140.418 Y102.741 E1.21722
G1 X140.593 Y103.232 E1.23456
G1 X140.707 Y103.571 E1.24646
G1 X140.859 Y104.05 E1.26317
G1 X140.958 Y104.38 E1.27463
G1 X141.075 Y104.797 E1.28904
G1 X141.167 Y105.148 E1.3011
G1 X141.304 Y105.713 E1.32044
G1 X141.384 Y106.073 E1.33271
G1 X141.456 Y106.425 E1.34466
G1 X141.518 Y106.757 E1.35589
G1 X141.62 Y107.356 E1.3761
G1 X141.678 Y107.74 E1.38902
G1 X141.73 Y108.136 E1.4023
G1 X141.771 Y108.5 E1.41448
G1 X141.827 Y109.09 E1.4342
G1 X141.854 Y109.437 E1.44577
G1 X141.88 Y109.866 E1.46007
G1 X141.895 Y110.201 E1.47122
G1 X141.904 Y110.526 E1.48203
G1 X141.908 Y110.906 E1.49467
G1 X141.901 Y111.634 E1.51889
G1 X141.89 Y112.002 E1.53113
G1 X141.874 Y112.352 E1.54279
G1 X141.852 Y112.71 E1.55472
G1 X141.807 Y113.265 E1.57324
G1 X141.769 Y113.641 E1.5858
G1 X141.724 Y114.021 E1.59853
G1 X141.676 Y114.374 E1.61038
G1 X141.578 Y115.01 E1.63178
G1 X141.517 Y115.364 E1.64373
G1 X141.462 Y115.653 E1.65352
G1 X141.39 Y116.001 E1.66534
G1 X141.225 Y116.729 E1.69016
G1 X141.134 Y117.095 E1.70271
G1 X140.902 Y117.965 E1.73265
G1 X140.527 Y119.28 E1.77814
G1 X139.9 Y121.728 E1.86218
G1 X139.341 Y124.214 E1.94693
G1 X138.86 Y126.661 E2.02988
G1 X138.253 Y130.441 E2.15721
G1 X138.087 Y131.329 E2.18726
G1 X137.842 Y132.198 E2.21729
G1 X137.521 Y133.042 E2.24732
G1 X137.087 Y133.929 E2.28017
G1 X136.629 Y134.751 E2.31146
G1 X136.262 Y135.373 E2.33548
G1 X135.769 Y136.13 E2.36553
G1 X135.211 Y136.84 E2.39557
G1 X134.592 Y137.498 E2.42561
G1 X133.918 Y138.099 E2.45565
G1 X133.193 Y138.638 E2.4857
G1 X132.424 Y139.11 E2.51571
G1 X131.615 Y139.513 E2.54577
G1 X130.774 Y139.842 E2.5758
G1 X129.908 Y140.096 E2.60582
G1 X129.022 Y140.272 E2.63586
G1 X128.388 Y140.349 E2.65711
G1 X128.009 Y140.383 E2.66976
G1 X127.65 Y140.409 E2.68173
G1 X124.985 Y140.553 E2.7705
G1 X122.431 Y140.764 E2.85574
G1 X119.922 Y141.042 E2.9397
G1 X117.374 Y141.399 E3.02527
G1 X114.903 Y141.815 E3.10861
G1 X112.383 Y142.313 E3.19405
G1 X111.403 Y142.534 E3.22746
G1 X110.643 Y142.685 E3.25324
G1 X110.18 Y142.766 E3.26887
G1 X109.451 Y142.867 E3.29335
G1 X109.234 Y142.889 E3.3006
G1 X108.744 Y142.927 E3.31695
G1 X108.536 Y142.938 E3.32388
G1 X107.895 Y142.951 E3.3452
G1 X107.496 Y142.947 E3.35847
G1 X106.861 Y142.921 E3.37961
G1 X106.654 Y142.906 E3.38651
G1 X106.009 Y142.839 E3.40808
G1 X105.753 Y142.804 E3.41667
G1 X105.166 Y142.706 E3.43647
G1 X104.795 Y142.633 E3.44904
G1 X103.766 Y142.374 E3.48434
G1 X103.288 Y142.227 E3.50097
G1 X102.471 Y141.938 E3.52979
G1 X102.166 Y141.815 E3.54073
G1 X101.611 Y141.572 E3.56088
G1 X101.379 Y141.462 E3.56942
G1 X100.477 Y140.977 E3.60349
G1 X100.005 Y140.692 E3.62182
G1 X99.278 Y140.209 E3.65085
G1 X99.025 Y140.025 E3.66126
G1 X98.483 Y139.602 E3.68413
G1 X98.282 Y139.434 E3.69284
G1 X97.551 Y138.76 E3.72591
G1 X97.132 Y138.334 E3.74578
G1 X96.596 Y137.746 E3.77225
G1 X96.443 Y137.564 E3.78015
G1 X95.762 Y136.654 E3.81796
G1 X95.391 Y136.097 E3.84022
G1 X94.757 Y135.005 E3.88222
G1 X94.55 Y134.591 E3.89761
G1 X94.072 Y133.473 E3.93805
G1 X93.855 Y132.868 E3.95943
G1 X93.49 Y131.594 E4.00351
G1 X93.382 Y131.098 E4.02039
G1 X93.246 Y130.341 E4.04597
G1 X93.213 Y130.105 E4.0539
G1 X93.149 Y129.521 E4.07344
G1 X93.126 Y129.239 E4.08285
G1 X93.094 Y128.59 E4.10446
G1 X93.089 Y128.307 E4.11387
G1 X93.096 Y127.698 E4.13413
G1 X93.105 Y127.484 E4.14125
G1 X93.151 Y126.858 E4.16213
G1 X93.237 Y126.071 E4.18846
G1 X93.287 Y125.705 E4.20075
G1 X93.605 Y123.1 E4.28804
G1 X93.839 Y120.599 E4.37158
G1 X94.004 Y118.074 E4.45574
G1 X94.097 Y115.543 E4.53998
G1 X94.118 Y112.927 E4.62699
G1 X94.111 Y112.409 E4.64422
G1 X94.104 Y111.074 E4.68863
G1 X94.109 Y110.707 E4.70083
G1 X94.133 Y109.928 E4.72676
G1 X94.15 Y109.566 E4.73881
G1 X94.17 Y109.265 E4.74884
G1 X94.202 Y108.895 E4.76119
G1 X94.258 Y108.352 E4.77935
G1 X94.297 Y108.027 E4.79024
G1 X94.356 Y107.592 E4.80484
G1 X94.416 Y107.2 E4.81803
G1 X94.506 Y106.687 E4.83535
G1 X94.568 Y106.369 E4.84613
G1 X94.652 Y105.966 E4.85982
G1 X94.74 Y105.581 E4.87295
G1 X94.976 Y104.654 E4.90477
G1 X95.07 Y104.322 E4.91625
G1 X95.172 Y103.983 E4.92802
G1 X95.312 Y103.547 E4.94325
G1 X95.438 Y103.181 E4.95613
G1 X95.651 Y102.595 E4.97686
G1 X95.774 Y102.272 E4.98836
G1 X95.91 Y101.934 E5.00048
G1 X96.054 Y101.595 E5.01273
G1 X96.252 Y101.15 E5.02893
G1 X96.393 Y100.846 E5.04007
G1 X96.618 Y100.382 E5.05722
G1 X96.784 Y100.054 E5.06945
G1 X97.012 Y99.624 E5.08564
G1 X97.193 Y99.298 E5.09804
G1 X97.397 Y98.945 E5.1116
G1 X97.571 Y98.655 E5.12285
G1 X97.9 Y98.127 E5.14354
G1 X98.248 Y97.6 E5.16455
G1 X98.439 Y97.328 E5.1756
G1 X98.908 Y96.681 E5.20218
G1 X99.123 Y96.394 E5.21411
G1 X99.325 Y96.135 E5.22503
G1 X99.657 Y95.728 E5.2425
G1 X100.265 Y95.06 E5.27254
G1 X100.929 Y94.448 E5.30258
G1 X101.645 Y93.897 E5.33263
G1 X102.406 Y93.412 E5.36264
G1 X103.208 Y92.996 E5.39269
G1 X104.043 Y92.652 E5.42273
G1 X104.905 Y92.384 E5.45275
G1 X105.788 Y92.193 E5.4828
G1 X106.684 Y92.081 E5.51283
G1 X107.587 Y92.048 E5.54289
G1 X108.325 Y92.081 E5.56746
G1 X109.032 Y92.14 E5.59105
G0 F6000 X109.071 Y91.742
G1 F900 X110.623 Y91.893 E5.64292
G1 X113.161 Y92.068 E5.72753
G1 X115.669 Y92.169 E5.81102
G1 X118.18 Y92.199 E5.89454
G1 X120.762 Y92.157 E5.98043
G1 X123.234 Y92.047 E6.06273
G1 X125.826 Y91.857 E6.14917
G1 X127.743 Y91.676 E6.21321
G1 X128.663 Y91.65 E6.24382
G1 X129.582 Y91.705 E6.27444
G1 X130.493 Y91.838 E6.30507
G1 X131.389 Y92.051 E6.3357
G1 X132.263 Y92.34 E6.36631
G1 X133.108 Y92.704 E6.39692
G1 X133.919 Y93.14 E6.42754
G1 X134.689 Y93.645 E6.45817
G1 X135.412 Y94.215 E6.48879
G1 X136.084 Y94.845 E6.51943
G1 X136.546 Y95.351 E6.54222
G1 X136.828 Y95.68 E6.55663
G1 X137.296 Y96.266 E6.58157
G1 X137.694 Y96.803 E6.6038
G1 X137.967 Y97.189 E6.61953
G1 X138.323 Y97.717 E6.64071
G1 X138.526 Y98.03 E6.65312
G1 X138.747 Y98.384 E6.667
G1 X138.945 Y98.715 E6.67982
G1 X139.195 Y99.15 E6.69651
G1 X139.379 Y99.483 E6.70917
G1 X139.625 Y99.949 E6.72669
G1 X139.785 Y100.266 E6.7385
G1 X139.957 Y100.62 E6.75159
G1 X140.133 Y101.002 E6.76558
G1 X140.518 Y101.893 E6.79787
G1 X140.652 Y102.228 E6.80987
G1 X140.795 Y102.606 E6.82331
G1 X140.97 Y103.097 E6.84064
G1 X141.089 Y103.45 E6.85303
G1 X141.241 Y103.929 E6.86975
G1 X141.343 Y104.271 E6.88162
G1 X141.46 Y104.688 E6.89602
G1 X141.555 Y105.054 E6.9086
G1 X141.692 Y105.619 E6.92794
G1 X141.776 Y105.993 E6.94069
G1 X141.848 Y106.345 E6.95264
G1 X141.913 Y106.69 E6.96431
G1 X142.015 Y107.289 E6.98452
G1 X142.075 Y107.688 E6.99794
G1 X142.127 Y108.084 E7.01123
G1 X142.17 Y108.462 E7.02388
G1 X142.226 Y109.052 E7.04359
G1 X142.254 Y109.413 E7.05563
G1 X142.28 Y109.842 E7.06993
G1 X142.295 Y110.19 E7.08151
G1 X142.304 Y110.515 E7.09233
G1 X142.308 Y110.91 E7.10547
G1 X142.301 Y111.638 E7.12968
G1 X142.29 Y112.02 E7.14239
G1 X142.274 Y112.37 E7.15405
G1 X142.25 Y112.743 E7.16648
G1 X142.205 Y113.298 E7.185
G1 X142.166 Y113.688 E7.19803
G1 X142.121 Y114.068 E7.21076
G1 X142.071 Y114.435 E7.22308
G1 X141.973 Y115.071 E7.24448
G1 X141.91 Y115.439 E7.2569
G1 X141.855 Y115.728 E7.26668
G1 X141.78 Y116.089 E7.27895
G1 X141.615 Y116.817 E7.30378
G1 X141.521 Y117.198 E7.31683
G1 X141.286 Y118.074 E7.34699
G1 X140.919 Y119.36 E7.39147
G1 X140.289 Y121.817 E7.47584
G1 X139.731 Y124.299 E7.56045
G1 X139.257 Y126.712 E7.64224
G1 X138.649 Y130.498 E7.76978
G1 X138.48 Y131.403 E7.8004
G1 X138.233 Y132.289 E7.83099
G1 X137.91 Y133.152 E7.86164
G1 X137.437 Y134.122 E7.89753
G1 X136.973 Y134.955 E7.92925
G1 X136.606 Y135.577 E7.95327
G1 X136.104 Y136.348 E7.98387
G1 X135.538 Y137.074 E8.01448
G1 X134.91 Y137.747 E8.0451
G1 X134.226 Y138.364 E8.07574
G1 X133.491 Y138.919 E8.10637
G1 X132.711 Y139.408 E8.13699
G1 X131.892 Y139.827 E8.16759
G1 X131.039 Y140.174 E8.19822
G1 X130.159 Y140.445 E8.22884
G1 X129.259 Y140.639 E8.25946
G1 X128.424 Y140.748 E8.28747
G1 X128.045 Y140.782 E8.30013
G1 X127.671 Y140.808 E8.3126
G1 X125.005 Y140.952 E8.4014
G1 X122.472 Y141.161 E8.48593
G1 X119.985 Y141.437 E8.56916
G1 X117.459 Y141.79 E8.65399
G1 X114.936 Y142.216 E8.73909
G1 X112.512 Y142.695 E8.82127
G1 X111.483 Y142.926 E8.85635
G1 X111.015 Y143.022 E8.87224
G1 X110.712 Y143.079 E8.88249
G1 X110.249 Y143.16 E8.89813
G1 X109.491 Y143.265 E8.92358
G1 X109.274 Y143.287 E8.93083
G1 X108.557 Y143.337 E8.95474
G1 X107.891 Y143.351 E8.9769
G1 X107.492 Y143.347 E8.99017
G1 X106.832 Y143.32 E9.01214
G1 X106.625 Y143.305 E9.01904
G1 X105.955 Y143.235 E9.04145
G1 X105.699 Y143.2 E9.05004
G1 X105.089 Y143.099 E9.0706
G1 X104.718 Y143.026 E9.08318
G1 X103.648 Y142.757 E9.11988
G1 X103.17 Y142.61 E9.13651
G1 X102.321 Y142.309 E9.16647
G1 X102.016 Y142.186 E9.17741
G1 X101.44 Y141.933 E9.19833
G1 X101.208 Y141.823 E9.20687
G1 X100.27 Y141.319 E9.24229
G1 X99.798 Y141.034 E9.26063
G1 X99.042 Y140.533 E9.29079
G1 X98.789 Y140.349 E9.3012
G1 X98.226 Y139.909 E9.32496
G1 X98.025 Y139.741 E9.33368
G1 X97.266 Y139.041 E9.36802
G1 X96.847 Y138.615 E9.38789
G1 X96.29 Y138.003 E9.41541
G1 X96.137 Y137.821 E9.42332
G1 X95.429 Y136.876 E9.4626
G1 X95.058 Y136.319 E9.48486
G1 X94.399 Y135.183 E9.52854
G1 X94.192 Y134.769 E9.54393
G1 X93.695 Y133.608 E9.58594
G1 X93.478 Y133.003 E9.60731
G1 X93.099 Y131.679 E9.65312
G1 X92.991 Y131.183 E9.67
G1 X92.85 Y130.396 E9.69659
G1 X92.817 Y130.16 E9.70452
G1 X92.75 Y129.554 E9.7248
G1 X92.727 Y129.272 E9.73421
G1 X92.694 Y128.597 E9.75669
G1 X92.689 Y128.314 E9.7661
G1 X92.696 Y127.682 E9.78712
G1 X92.705 Y127.468 E9.79425
G1 X92.753 Y126.816 E9.81599
G1 X92.841 Y126.018 E9.84269
G1 X92.887 Y125.681 E9.85401
G1 X93.204 Y123.086 E9.94096
G1 X93.439 Y120.572 E10.02494
G1 X93.605 Y118.034 E10.10953
G1 X93.697 Y115.525 E10.19304
G1 X93.718 Y112.927 E10.27945
G1 X93.711 Y112.412 E10.29658
G1 X93.704 Y111.077 E10.34098
G1 X93.709 Y110.695 E10.35369
G1 X93.733 Y109.916 E10.37961
G1 X93.751 Y109.539 E10.39217
G1 X93.771 Y109.238 E10.4022
G1 X93.804 Y108.854 E10.41502
G1 X93.86 Y108.311 E10.43317
G1 X93.9 Y107.973 E10.44449
G1 X93.959 Y107.538 E10.4591
G1 X94.022 Y107.131 E10.47279
G1 X94.112 Y106.618 E10.49012
G1 X94.176 Y106.287 E10.50133
G1 X94.26 Y105.884 E10.51502
G1 X94.352 Y105.484 E10.52867
G1 X94.591 Y104.545 E10.5609
G1 X94.685 Y104.213 E10.57238
G1 X94.792 Y103.86 E10.58464
G1 X94.932 Y103.424 E10.59988
G1 X95.062 Y103.044 E10.61323
G1 X95.275 Y102.458 E10.63397
G1 X95.403 Y102.122 E10.64593
G1 X95.539 Y101.784 E10.65805
G1 X95.688 Y101.432 E10.67076
G1 X95.886 Y100.987 E10.68696
G1 X96.033 Y100.671 E10.69855
G1 X96.258 Y100.207 E10.7157
G1 X96.431 Y99.866 E10.72842
G1 X96.659 Y99.436 E10.74461
G1 X96.846 Y99.098 E10.75746
G1 X97.05 Y98.745 E10.77102
G1 X97.232 Y98.443 E10.78275
G1 X97.561 Y97.915 E10.80344
G1 X97.917 Y97.376 E10.82492
G1 X98.115 Y97.093 E10.83641
G1 X98.584 Y96.446 E10.86299
G1 X98.808 Y96.148 E10.87539
G1 X99.01 Y95.889 E10.88631
G1 X99.35 Y95.472 E10.90421
G1 X99.968 Y94.79 E10.93482
G1 X100.644 Y94.165 E10.96544
G1 X101.371 Y93.6 E10.99606
G1 X102.145 Y93.101 E11.02669
G1 X102.958 Y92.671 E11.05728
G1 X103.807 Y92.313 E11.08793
G1 X104.683 Y92.03 E11.11855
G1 X105.58 Y91.824 E11.14916
G1 X106.492 Y91.696 E11.17979
G1 X107.411 Y91.648 E11.2104
G1 X108.357 Y91.683 E11.24188
G1 X109.071 Y91.742 E11.26571
G0 F6000 X130.517 Y91.436
G1 F900 X131.43 Y91.647 E11.29688
G1 X132.323 Y91.935 E11.32808
G1 X133.187 Y92.299 E11.35927
G1 X134.018 Y92.734 E11.39046
G1 X134.808 Y93.239 E11.42165
G1 X135.553 Y93.809 E11.45285
G1 X136.246 Y94.441 E11.48404
G1 X136.85 Y95.09 E11.51353
G1 X137.132 Y95.419 E11.52794
G1 X137.617 Y96.028 E11.55384
G1 X138.015 Y96.565 E11.57607
G1 X138.299 Y96.966 E11.59241
G1 X138.655 Y97.494 E11.61359
G1 X138.865 Y97.818 E11.62644
G1 X139.086 Y98.172 E11.64032
G1 X139.292 Y98.516 E11.65365
G1 X139.542 Y98.951 E11.67034
G1 X139.733 Y99.297 E11.68348
G1 X139.979 Y99.763 E11.70101
G1 X140.145 Y100.091 E11.71324
G1 X140.317 Y100.445 E11.72633
G1 X140.5 Y100.841 E11.74084
G1 X140.753 Y101.419 E11.76182
G1 X140.889 Y101.745 E11.77357
G1 X141.023 Y102.08 E11.78557
G1 X141.172 Y102.472 E11.79952
G1 X141.347 Y102.963 E11.81686
G1 X141.47 Y103.329 E11.8297
G1 X141.622 Y103.808 E11.84641
G1 X141.728 Y104.163 E11.85874
G1 X141.845 Y104.58 E11.87314
G1 X141.944 Y104.96 E11.8862
G1 X142.081 Y105.525 E11.90554
G1 X142.168 Y105.913 E11.91876
G1 X142.24 Y106.265 E11.93071
G1 X142.307 Y106.622 E11.94279
G1 X142.409 Y107.221 E11.963
G1 X142.471 Y107.636 E11.97696
G1 X142.523 Y108.032 E11.99024
G1 X142.568 Y108.425 E12.0034
G1 X142.624 Y109.015 E12.02311
G1 X142.653 Y109.389 E12.03559
G1 X142.679 Y109.818 E12.04988
G1 X142.695 Y110.179 E12.0619
G1 X142.704 Y110.504 E12.07272
G1 X142.707 Y110.914 E12.08635
G1 X142.7 Y111.642 E12.11057
G1 X142.69 Y112.038 E12.12374
G1 X142.674 Y112.388 E12.1354
G1 X142.649 Y112.775 E12.14829
G1 X142.604 Y113.33 E12.16681
G1 X142.564 Y113.735 E12.18035
G1 X142.519 Y114.115 E12.19308
G1 X142.467 Y114.496 E12.20587
G1 X142.369 Y115.132 E12.22727
G1 X142.248 Y115.803 E12.24995
G1 X142.17 Y116.177 E12.26265
G1 X142.005 Y116.905 E12.28748
G1 X141.908 Y117.301 E12.30104
G1 X141.671 Y118.184 E12.33145
G1 X141.304 Y119.469 E12.3759
G1 X140.672 Y121.939 E12.4607
G1 X140.128 Y124.358 E12.54316
G1 X139.644 Y126.82 E12.62662
G1 X139.045 Y130.554 E12.7524
G1 X138.874 Y131.476 E12.78359
G1 X138.624 Y132.38 E12.81478
G1 X138.298 Y133.26 E12.846
G1 X137.788 Y134.316 E12.885
G1 X137.318 Y135.158 E12.91707
G1 X136.951 Y135.78 E12.94109
G1 X136.44 Y136.567 E12.9723
G1 X135.864 Y137.307 E13.00349
G1 X135.228 Y137.996 E13.03468
G1 X134.535 Y138.627 E13.06585
G1 X133.79 Y139.198 E13.09707
G1 X133 Y139.703 E13.12826
G1 X132.17 Y140.139 E13.15944
G1 X131.305 Y140.502 E13.19064
G1 X130.413 Y140.791 E13.22183
G1 X129.499 Y141.003 E13.25303
G1 X128.46 Y141.146 E13.28792
G1 X128.081 Y141.18 E13.30057
G1 X127.693 Y141.208 E13.31351
G1 X125.024 Y141.353 E13.40241
G1 X122.513 Y141.559 E13.48621
G1 X120.018 Y141.836 E13.5697
G1 X117.51 Y142.187 E13.65393
G1 X115.044 Y142.603 E13.73711
G1 X112.572 Y143.092 E13.82092
G1 X111.563 Y143.318 E13.85532
G1 X111.095 Y143.414 E13.87121
G1 X110.781 Y143.473 E13.88183
G1 X110.318 Y143.554 E13.89746
G1 X109.532 Y143.663 E13.92386
G1 X109.315 Y143.685 E13.93111
G1 X108.786 Y143.726 E13.94876
