;FLAVOR:Marlin
;TIME:3467
;Filament used: 2.58287m
;Layer height: 0.2
;MINX:92.728
;MINY:84.21
;MINZ:0.2
;MAXX:135.808
;MAXY:135.79
;MAXZ:34.6
;Generated with Cura_SteamEngine 4.2.1
M140 S50
M105
M190 S50
M104 S200
M105
M109 S200
M82 ;absolute extrusion mode
M201 X500.00 Y500.00 Z100.00 E5000.00 ;Setup machine max acceleration
M203 X500.00 Y500.00 Z10.00 E50.00 ;Setup machine max feedrate
M204 P500.00 R1000.00 T500.00 ;Setup Print/Retract/Travel acceleration
M205 X8.00 Y8.00 Z0.40 E5.00 ;Setup Jerk
M220 S100 ;Reset Feedrate
M221 S100 ;Reset Flowrate

G28 ;Home

G92 E0 ;Reset Extruder
G1 Z2.0 F3000 ;Move Z Axis up
G1 X10.1 Y20 Z0.28 F5000.0 ;Move to start position
G1 X10.1 Y200.0 Z0.28 F1500.0 E15 ;Draw the first line
G1 X10.4 Y200.0 Z0.28 F5000.0 ;Move to side a little
G1 X10.4 Y20 Z0.28 F1500.0 E30 ;Draw the second line
G92 E0 ;Reset Extruder
G1 Z2.0 F3000 ;Move Z Axis up

M141 S28
G92 E0
G92 E0
G1 F2700 E-5
;LAYER_COUNT:175
;LAYER:0
M107
G0 F6000 X95.936 Y87.784 Z0.2
;TYPE:SKIRT
G1 F2700 E0
G1 F1200 X96.628 Y87.118 E0.03514
G1 X97.373 Y86.512 E0.07027
G1 X98.166 Y85.97 E0.10542
G1 X99.001 Y85.495 E0.14056
G1 X99.873 Y85.092 E0.17571
G1 X100.776 Y84.763 E0.21087
G1 X101.702 Y84.51 E0.24599
G1 X102.647 Y84.335 E0.28115
G1 X103.954 Y84.224 E0.32914
G1 X104.275 Y84.215 E0.34089
G1 X104.598 Y84.21 E0.35271
G1 X111.584 Y84.21 E0.6083
G1 X111.745 Y84.211 E0.61419
G1 X112.889 Y84.227 E0.65605
G1 X115.534 Y84.227 E0.75282
G1 X116.375 Y84.212 E0.78359
G1 X116.581 Y84.21 E0.79113
G1 X123.561 Y84.21 E1.0465
G1 X123.726 Y84.211 E1.05254
G1 X124.424 Y84.221 E1.07808
G1 X125.383 Y84.275 E1.11322
G1 X126.335 Y84.408 E1.14839
G1 X127.272 Y84.62 E1.18354
G1 X128.188 Y84.909 E1.21868
G1 X129.077 Y85.274 E1.25384
G1 X129.932 Y85.711 E1.28897
G1 X130.748 Y86.217 E1.3241
G1 X131.519 Y86.79 E1.35924
G1 X132.24 Y87.425 E1.39439
G1 X132.906 Y88.118 E1.42956
G1 X133.512 Y88.863 E1.46469
G1 X134.053 Y89.657 E1.49984
G1 X134.527 Y90.493 E1.535
G1 X134.929 Y91.365 E1.57013
G1 X135.258 Y92.268 E1.6053
G1 X135.51 Y93.194 E1.64041
G1 X135.685 Y94.139 E1.67557
G1 X135.794 Y95.436 E1.72319
G1 X135.803 Y95.756 E1.7349
G1 X135.808 Y96.08 E1.74675
G1 X135.808 Y104.013 E2.03699
G1 X135.807 Y104.178 E2.04303
G1 X135.8 Y104.65 E2.0603
G1 X135.808 Y108.037 E2.18422
G1 X135.808 Y116.024 E2.47643
G1 X135.807 Y116.185 E2.48232
G1 X135.797 Y116.902 E2.50856
G1 X135.744 Y117.861 E2.5437
G1 X135.611 Y118.812 E2.57883
G1 X135.399 Y119.749 E2.61398
G1 X135.11 Y120.666 E2.64915
G1 X134.746 Y121.555 E2.6843
G1 X134.309 Y122.41 E2.71943
G1 X133.803 Y123.227 E2.75459
G1 X133.231 Y123.998 E2.78971
G1 X132.596 Y124.719 E2.82486
G1 X132.093 Y125.213 E2.85066
G1 X131.863 Y125.426 E2.86212
G1 X129.923 Y127.236 E2.9592
G1 X128.142 Y128.993 E3.05073
G1 X126.382 Y130.832 E3.14386
G1 X126.073 Y131.173 E3.16069
G1 X125.971 Y131.285 E3.16624
G1 X125.212 Y132.101 E3.20701
G1 X124.529 Y132.776 E3.24214
G1 X123.792 Y133.393 E3.27731
G1 X123.007 Y133.945 E3.31242
G1 X122.178 Y134.431 E3.34757
G1 X121.311 Y134.846 E3.38274
G1 X120.414 Y135.188 E3.41786
G1 X119.491 Y135.454 E3.45301
G1 X118.549 Y135.642 E3.48815
G1 X117.594 Y135.751 E3.52332
G1 X117.082 Y135.777 E3.54207
G1 X116.758 Y135.786 E3.55393
G1 X116.438 Y135.79 E3.56564
G1 X107.839 Y135.79 E3.88024
G1 X107.674 Y135.789 E3.88628
G1 X106.976 Y135.779 E3.91182
G1 X106.017 Y135.725 E3.94696
G1 X105.065 Y135.592 E3.98213
G1 X104.128 Y135.38 E4.01728
G1 X103.212 Y135.091 E4.05242
G1 X102.323 Y134.726 E4.08758
G1 X101.468 Y134.289 E4.12271
G1 X100.652 Y133.783 E4.15784
G1 X99.881 Y133.21 E4.19298
G1 X99.16 Y132.575 E4.22813
G1 X98.494 Y131.882 E4.2633
G1 X97.888 Y131.137 E4.29843
G1 X97.347 Y130.343 E4.33358
G1 X96.873 Y129.507 E4.36875
G1 X96.471 Y128.635 E4.40388
G1 X96.27 Y128.113 E4.42434
G1 X95.897 Y127.066 E4.465
G1 X95.833 Y126.88 E4.4722
G1 X95.742 Y126.609 E4.48266
G1 X94.875 Y124.265 E4.5741
G1 X93.881 Y121.794 E4.67154
G1 X93.634 Y121.204 E4.69494
G1 X93.3 Y120.303 E4.7301
G1 X93.042 Y119.378 E4.76523
G1 X92.862 Y118.434 E4.80039
G1 X92.743 Y117.1 E4.84939
G1 X92.733 Y116.774 E4.86132
G1 X92.728 Y116.42 E4.87428
G1 X92.728 Y108.476 E5.16492
G1 X92.729 Y108.307 E5.1711
G1 X92.736 Y107.846 E5.18797
G1 X92.728 Y104.463 E5.31174
G1 X92.728 Y96.424 E5.60586
G1 X92.729 Y96.268 E5.61156
G1 X92.738 Y95.603 E5.6359
G1 X92.791 Y94.644 E5.67103
G1 X92.924 Y93.692 E5.7062
G1 X93.135 Y92.755 E5.74134
G1 X93.423 Y91.839 E5.77647
G1 X93.787 Y90.95 E5.81162
G1 X94.223 Y90.094 E5.84677
G1 X94.729 Y89.277 E5.88192
G1 X95.301 Y88.506 E5.91705
G1 X95.936 Y87.784 E5.95223
G0 F6000 X96.368 Y87.971
G1 F1200 X97.056 Y87.329 E5.98665
G1 X97.797 Y86.747 E6.02113
G1 X98.585 Y86.23 E6.05561
G1 X99.414 Y85.781 E6.0901
G1 X100.277 Y85.405 E6.12454
G1 X101.17 Y85.103 E6.15903
G1 X102.084 Y84.878 E6.19347
G1 X103.015 Y84.731 E6.22795
G1 X103.966 Y84.663 E6.26283
G1 X104.287 Y84.654 E6.27458
G1 X104.598 Y84.65 E6.28596
G1 X111.584 Y84.65 E6.54155
G1 X111.739 Y84.651 E6.54722
G1 X112.883 Y84.667 E6.58908
G1 X115.542 Y84.667 E6.68637
G1 X116.383 Y84.652 E6.71714
G1 X116.581 Y84.65 E6.72438
G1 X123.561 Y84.65 E6.97975
G1 X123.72 Y84.651 E6.98557
G1 X124.418 Y84.661 E7.01111
G1 X125.359 Y84.715 E7.0456
G1 X126.291 Y84.848 E7.08004
G1 X127.209 Y85.059 E7.1145
G1 X128.106 Y85.348 E7.14898
G1 X128.975 Y85.712 E7.18345
G1 X129.81 Y86.148 E7.21791
G1 X130.605 Y86.653 E7.25237
G1 X131.355 Y87.224 E7.28686
G1 X132.053 Y87.857 E7.32133
G1 X132.695 Y88.546 E7.35579
G1 X133.277 Y89.287 E7.39026
G1 X133.793 Y90.075 E7.42472
G1 X134.241 Y90.904 E7.4592
G1 X134.616 Y91.768 E7.49366
G1 X134.918 Y92.661 E7.52815
G1 X135.142 Y93.576 E7.56261
G1 X135.288 Y94.507 E7.59709
G1 X135.355 Y95.448 E7.6316
G1 X135.364 Y95.768 E7.64332
G1 X135.368 Y96.08 E7.65473
G1 X135.368 Y104.013 E7.94497
G1 X135.367 Y104.172 E7.95079
G1 X135.36 Y104.645 E7.96809
G1 X135.368 Y108.038 E8.09223
G1 X135.368 Y116.024 E8.38441
G1 X135.367 Y116.179 E8.39008
G1 X135.357 Y116.896 E8.41631
G1 X135.304 Y117.836 E8.45076
G1 X135.171 Y118.769 E8.48524
G1 X134.96 Y119.687 E8.5197
G1 X134.671 Y120.584 E8.55418
G1 X134.308 Y121.453 E8.58864
G1 X133.872 Y122.289 E8.62313
G1 X133.367 Y123.084 E8.65759
G1 X132.796 Y123.834 E8.69208
G1 X132.164 Y124.532 E8.72653
G1 X131.795 Y124.89 E8.74534
G1 X131.529 Y125.136 E8.75859
G1 X129.625 Y126.912 E8.85385
G1 X127.809 Y128.704 E8.94719
G1 X126.084 Y130.506 E9.03846
G1 X125.747 Y130.878 E9.05683
G1 X125.649 Y130.985 E9.06213
G1 X124.89 Y131.801 E9.10291
G1 X124.219 Y132.463 E9.13739
G1 X123.495 Y133.066 E9.17186
G1 X122.723 Y133.605 E9.20631
G1 X121.907 Y134.077 E9.2408
G1 X121.055 Y134.477 E9.27524
G1 X120.171 Y134.805 E9.30973
G1 X119.263 Y135.056 E9.3442
G1 X118.337 Y135.229 E9.37866
G1 X117.07 Y135.337 E9.42519
G1 X116.746 Y135.346 E9.43705
G1 X116.438 Y135.35 E9.44832
G1 X107.839 Y135.35 E9.76292
G1 X107.68 Y135.349 E9.76874
G1 X106.982 Y135.339 E9.79428
G1 X106.041 Y135.285 E9.82876
G1 X105.109 Y135.152 E9.8632
G1 X104.191 Y134.941 E9.89767
G1 X103.294 Y134.652 E9.93215
G1 X102.425 Y134.288 E9.96662
G1 X101.59 Y133.852 E10.00108
G1 X100.795 Y133.347 E10.03554
G1 X100.045 Y132.776 E10.07002
G1 X99.347 Y132.143 E10.1045
G1 X98.705 Y131.454 E10.13895
G1 X98.123 Y130.713 E10.17343
G1 X97.607 Y129.925 E10.20789
G1 X97.159 Y129.096 E10.24236
G1 X96.685 Y127.965 E10.28723
G1 X96.312 Y126.918 E10.32789
G1 X96.25 Y126.739 E10.33482
G1 X96.158 Y126.466 E10.34536
G1 X95.279 Y124.088 E10.43812
G1 X94.302 Y121.659 E10.5339
G1 X94.04 Y121.034 E10.5587
G1 X93.713 Y120.15 E10.59318
G1 X93.462 Y119.242 E10.62765
G1 X93.29 Y118.316 E10.66211
G1 X93.183 Y117.086 E10.70728
G1 X93.173 Y116.76 E10.71921
G1 X93.168 Y116.42 E10.73165
G1 X93.168 Y108.476 E11.02229
G1 X93.169 Y108.314 E11.02822
G1 X93.176 Y107.851 E11.04516
G1 X93.168 Y104.462 E11.16915
G1 X93.168 Y96.424 E11.46323
G1 X93.169 Y96.274 E11.46872
G1 X93.178 Y95.609 E11.49305
G1 X93.231 Y94.668 E11.52753
G1 X93.363 Y93.735 E11.56201
G1 X93.574 Y92.817 E11.59647
G1 X93.862 Y91.92 E11.63094
G1 X94.225 Y91.051 E11.66539
G1 X94.66 Y90.215 E11.69987
G1 X95.165 Y89.42 E11.73433
G1 X95.736 Y88.67 E11.76882
G1 X96.368 Y87.971 E11.80329
G0 F6000 X96.799 Y88.162
G1 F1200 X97.484 Y87.544 E11.83705
G1 X98.22 Y86.987 E11.87082
G1 X99.002 Y86.496 E11.9046
G1 X99.824 Y86.074 E11.9384
G1 X100.678 Y85.725 E11.97216
G1 X101.56 Y85.451 E12.00595
G1 X102.462 Y85.255 E12.03972
G1 X103.378 Y85.137 E12.07351
G1 X103.978 Y85.103 E12.0955
G1 X104.299 Y85.094 E12.10724
G1 X104.598 Y85.09 E12.11818
G1 X111.584 Y85.09 E12.37378
G1 X111.733 Y85.091 E12.37923
G1 X112.877 Y85.107 E12.42109
G1 X115.55 Y85.107 E12.51888
G1 X116.391 Y85.092 E12.54965
G1 X116.581 Y85.09 E12.55661
G1 X123.561 Y85.09 E12.81198
G1 X123.714 Y85.091 E12.81757
G1 X124.412 Y85.101 E12.84311
G1 X125.333 Y85.154 E12.87687
G1 X126.247 Y85.287 E12.91066
G1 X127.146 Y85.498 E12.94444
G1 X128.023 Y85.787 E12.97823
G1 X128.872 Y86.15 E13.01201
G1 X129.686 Y86.585 E13.04577
G1 X130.46 Y87.089 E13.07957
G1 X131.187 Y87.658 E13.11334
G1 X131.862 Y88.288 E13.14712
G1 X132.48 Y88.974 E13.1809
G1 X133.036 Y89.71 E13.21465
G1 X133.527 Y90.493 E13.24846
G1 X133.948 Y91.314 E13.28222
G1 X134.296 Y92.169 E13.31599
G1 X134.569 Y93.051 E13.34977
G1 X134.765 Y93.953 E13.38354
G1 X134.882 Y94.869 E13.41733
G1 X134.915 Y95.46 E13.43899
G1 X134.924 Y95.78 E13.4507
G1 X134.928 Y96.08 E13.46167
G1 X134.928 Y104.013 E13.75191
G1 X134.927 Y104.166 E13.75751
G1 X134.92 Y104.639 E13.77482
G1 X134.928 Y108.039 E13.89921
G1 X134.928 Y116.024 E14.19135
G1 X134.927 Y116.173 E14.1968
G1 X134.917 Y116.89 E14.22304
G1 X134.864 Y117.811 E14.25679
G1 X134.732 Y118.725 E14.29058
G1 X134.521 Y119.624 E14.32436
G1 X134.233 Y120.501 E14.35813
G1 X133.87 Y121.35 E14.39191
G1 X133.435 Y122.165 E14.42571
G1 X132.931 Y122.938 E14.45947
G1 X132.363 Y123.666 E14.49326
G1 X131.496 Y124.567 E14.539
G1 X131.23 Y124.813 E14.55226
G1 X129.327 Y126.588 E14.64747
G1 X127.493 Y128.398 E14.74174
G1 X125.769 Y130.199 E14.83296
G1 X125.421 Y130.583 E14.85192
G1 X125.326 Y130.685 E14.85702
G1 X124.567 Y131.501 E14.89779
G1 X123.91 Y132.149 E14.93155
G1 X123.199 Y132.738 E14.96533
G1 X122.439 Y133.263 E14.99912
G1 X121.637 Y133.721 E15.03291
G1 X120.799 Y134.107 E15.06667
G1 X119.93 Y134.419 E15.10045
G1 X119.038 Y134.655 E15.13421
G1 X118.128 Y134.813 E15.168
G1 X117.058 Y134.897 E15.20727
G1 X116.734 Y134.906 E15.21912
G1 X116.438 Y134.91 E15.22996
G1 X107.839 Y134.91 E15.54456
G1 X107.686 Y134.909 E15.55016
G1 X106.988 Y134.899 E15.5757
G1 X106.067 Y134.846 E15.60945
G1 X105.153 Y134.713 E15.64324
G1 X104.254 Y134.502 E15.67703
G1 X103.377 Y134.213 E15.71081
G1 X102.528 Y133.85 E15.74459
G1 X101.714 Y133.415 E15.77836
G1 X100.94 Y132.911 E15.81215
G1 X100.213 Y132.342 E15.84593
G1 X99.538 Y131.712 E15.87971
G1 X98.92 Y131.026 E15.91349
G1 X98.364 Y130.29 E15.94723
G1 X97.873 Y129.507 E15.98105
G1 X97.452 Y128.686 E16.0148
G1 X97.099 Y127.817 E16.04912
G1 X96.726 Y126.77 E16.08978
G1 X96.667 Y126.598 E16.09644
G1 X96.57 Y126.311 E16.10752
G1 X95.698 Y123.953 E16.1995
G1 X94.722 Y121.524 E16.29527
G1 X94.445 Y120.864 E16.32146
G1 X94.126 Y119.998 E16.35523
G1 X93.883 Y119.107 E16.38902
G1 X93.717 Y118.199 E16.42279
G1 X93.623 Y117.073 E16.46413
G1 X93.613 Y116.747 E16.47606
G1 X93.608 Y116.42 E16.48802
G1 X93.608 Y108.476 E16.77866
G1 X93.609 Y108.32 E16.78437
G1 X93.616 Y107.856 E16.80135
G1 X93.608 Y104.461 E16.92556
G1 X93.608 Y96.424 E17.2196
G1 X93.609 Y96.28 E17.22487
G1 X93.618 Y95.615 E17.2492
G1 X93.67 Y94.693 E17.28299
G1 X93.802 Y93.779 E17.31678
G1 X94.013 Y92.88 E17.35056
G1 X94.301 Y92.003 E17.38433
G1 X94.663 Y91.154 E17.4181
G1 X95.098 Y90.339 E17.4519
G1 X95.601 Y89.565 E17.48567
G1 X96.169 Y88.838 E17.51942
G1 X96.799 Y88.162 E17.55323
G0 F6000 X96.603 Y89.009
G1 F1200 X97.229 Y88.358 E17.58627
G1 X97.911 Y87.764 E17.61936
G1 X98.642 Y87.233 E17.65242
G1 X99.418 Y86.768 E17.68552
G1 X100.231 Y86.374 E17.71857
G1 X101.077 Y86.053 E17.75168
G1 X101.947 Y85.808 E17.78474
G1 X102.835 Y85.641 E17.8178
G1 X103.991 Y85.543 E17.86025
G1 X104.312 Y85.534 E17.872
G1 X104.598 Y85.53 E17.88246
G1 X111.584 Y85.53 E18.13805
G1 X111.727 Y85.531 E18.14328
G1 X112.871 Y85.547 E18.18514
G1 X115.558 Y85.547 E18.28345
G1 X116.399 Y85.532 E18.31422
G1 X116.581 Y85.53 E18.32088
G1 X123.561 Y85.53 E18.57625
G1 X123.707 Y85.531 E18.58159
G1 X124.405 Y85.541 E18.60713
G1 X125.308 Y85.594 E18.64023
G1 X126.202 Y85.726 E18.67329
G1 X127.081 Y85.937 E18.70636
G1 X127.938 Y86.225 E18.73944
G1 X128.766 Y86.588 E18.77252
G1 X129.559 Y87.022 E18.80559
G1 X130.311 Y87.524 E18.83867
G1 X131.015 Y88.091 E18.87174
G1 X131.666 Y88.718 E18.90481
G1 X132.259 Y89.4 E18.93788
G1 X132.79 Y90.132 E18.97096
G1 X133.254 Y90.908 E19.00404
G1 X133.647 Y91.722 E19.03711
G1 X133.967 Y92.567 E19.07017
G1 X134.212 Y93.438 E19.10327
G1 X134.378 Y94.326 E19.13632
G1 X134.475 Y95.473 E19.17844
G1 X134.484 Y95.793 E19.19015
G1 X134.488 Y96.08 E19.20065
G1 X134.488 Y104.013 E19.49089
G1 X134.487 Y104.16 E19.49627
G1 X134.48 Y104.634 E19.51361
G1 X134.488 Y108.04 E19.63822
G1 X134.488 Y116.024 E19.93033
G1 X134.487 Y116.167 E19.93556
G1 X134.477 Y116.884 E19.96179
G1 X134.424 Y117.786 E19.99485
G1 X134.292 Y118.68 E20.02791
G1 X134.082 Y119.559 E20.06098
G1 X133.794 Y120.416 E20.09406
G1 X133.432 Y121.245 E20.12715
G1 X132.998 Y122.038 E20.16023
G1 X132.496 Y122.789 E20.19327
G1 X131.929 Y123.494 E20.22637
G1 X131.197 Y124.244 E20.26472
G1 X130.931 Y124.49 E20.27797
G1 X129.011 Y126.281 E20.37404
G1 X127.194 Y128.074 E20.46743
G1 X125.437 Y129.91 E20.5604
G1 X125.095 Y130.287 E20.57903
G1 X125.004 Y130.386 E20.58395
G1 X124.245 Y131.202 E20.62472
G1 X123.601 Y131.836 E20.65778
G1 X122.903 Y132.41 E20.69085
G1 X122.157 Y132.921 E20.72393
G1 X121.369 Y133.364 E20.757
G1 X120.545 Y133.735 E20.79006
G1 X119.691 Y134.032 E20.82314
G1 X118.814 Y134.253 E20.85623
G1 X117.922 Y134.395 E20.88928
G1 X117.046 Y134.457 E20.92141
G1 X116.722 Y134.466 E20.93327
G1 X116.438 Y134.47 E20.94366
G1 X107.839 Y134.47 E21.25826
G1 X107.693 Y134.469 E21.2636
G1 X106.995 Y134.459 E21.28914
G1 X106.092 Y134.406 E21.32224
G1 X105.198 Y134.274 E21.3553
G1 X104.319 Y134.063 E21.38837
G1 X103.462 Y133.775 E21.42145
G1 X102.634 Y133.412 E21.45453
G1 X101.841 Y132.978 E21.4876
G1 X101.089 Y132.476 E21.52068
G1 X100.385 Y131.909 E21.55375
G1 X99.734 Y131.282 E21.58682
G1 X99.141 Y130.6 E21.61989
G1 X98.61 Y129.868 E21.65297
G1 X98.146 Y129.092 E21.68605
G1 X97.753 Y128.278 E21.71912
G1 X97.514 Y127.67 E21.74302
G1 X97.141 Y126.623 E21.78369
G1 X97.084 Y126.458 E21.79007
G1 X96.989 Y126.177 E21.80092
G1 X96.101 Y123.774 E21.89465
G1 X95.127 Y121.354 E21.99009
G1 X94.851 Y120.694 E22.01627
G1 X94.539 Y119.845 E22.04936
G1 X94.304 Y118.973 E22.0824
G1 X94.146 Y118.083 E22.11547
G1 X94.063 Y117.059 E22.15306
G1 X94.053 Y116.733 E22.16499
G1 X94.048 Y116.42 E22.17644
G1 X94.048 Y108.476 E22.46708
G1 X94.049 Y108.327 E22.47253
G1 X94.056 Y107.862 E22.48955
G1 X94.048 Y104.46 E22.61402
G1 X94.048 Y96.424 E22.90802
G1 X94.049 Y96.286 E22.91307
G1 X94.058 Y95.621 E22.9374
G1 X94.11 Y94.718 E22.9705
G1 X94.242 Y93.824 E23.00356
G1 X94.452 Y92.945 E23.03662
G1 X94.739 Y92.087 E23.06972
G1 X95.101 Y91.259 E23.10278
G1 X95.535 Y90.466 E23.13586
G1 X96.036 Y89.714 E23.16892
G1 X96.603 Y89.009 E23.20202
G1 F2700 E18.20202
;MESH:calicat.stl
G0 F6000 X103.615 Y117.403
G0 X106.467 Y123.151
G0 X108.232 Y123.15
;TYPE:WALL-INNER
G1 F2700 E23.20202
G1 F1200 X108.231 Y120.57 E23.29641
G1 X108.231 Y120.35 E23.30446
G1 X108.451 Y120.35 E23.30966
G1 X112.868 Y120.35 E23.47126
G1 X112.868 Y115.65 E23.64322
G1 X105.368 Y115.65 E23.91762
G1 X105.368 Y108.85 E24.1664
G1 X111.168 Y108.85 E24.3786
G1 X111.168 Y113.85 E24.56153
G1 X117.368 Y113.85 E24.78837
G1 X117.368 Y108.85 E24.9713
G1 X123.168 Y108.85 E25.1835
G1 X123.168 Y115.65 E25.43228
G1 X115.668 Y115.65 E25.70668
G1 X115.668 Y123.15 E25.98107
G1 X108.232 Y123.15 E26.25313
G0 F6000 X107.792 Y123.59
G1 F1200 X107.791 Y120.13 E26.37972
G1 X107.791 Y119.91 E26.38777
G1 X108.011 Y119.91 E26.39297
G1 X112.428 Y119.91 E26.55457
G1 X112.428 Y116.09 E26.69433
