;FLAVOR:Marlin
;TIME:461
;Filament used: 0.357779m
;Layer height: 0.2
;MINX:114.45
;MINY:100.657
;MINZ:0.24
;MAXX:150.745
;MAXY:136.968
;MAXZ:9.09
;Generated with Cura_SteamEngine 4.8.0
M140 S50
M105
M190 S50
M104 S200
M105
M109 S200
M82 ;absolute extrusion mode
; Ender 3 Custom Start G-code
G92 E0 ; Reset Extruder
G28 ; Home all axes
G29 ; ABL
G1 Z2.0 F3000 ; Move Z Axis up little to prevent scratching of Heat Bed
G1 X0.1 Y20 Z0.3 F5000.0 ; Move to start position
G1 X0.1 Y200.0 Z0.3 F1500.0 E15 ; Draw the first line
G1 X0.4 Y200.0 Z0.3 F5000.0 ; Move to side a little
G1 X0.4 Y20 Z0.3 F1500.0 E30 ; Draw the second line
G92 E0 ; Reset Extruder
G1 Z2.0 F3000 ; Move Z Axis up little to prevent scratching of Heat Bed
G1 X5 Y20 Z0.3 F5000.0 ; Move over to prevent blob squish
G92 E0
G92 E0
G1 F2700 E-5
;LAYER_COUNT:40
;LAYER:-6
M107
G0 F9000 X120.05 Y107.182 Z0.24
;TYPE:SUPPORT-INTERFACE
G1 F2700 E0
G1 F1125 X120.156 Y107.067 E0.01248
G1 X120.628 Y106.59 E0.06605
G1 X120.853 Y106.373 E0.091
G1 X121.623 Y105.689 E0.17322
G1 X121.741 Y105.59 E0.18551
G1 X122.277 Y105.171 E0.23982
G1 X122.489 Y105.013 E0.26093
G1 X123.324 Y104.436 E0.34194
G1 X123.409 Y104.381 E0.35003
G1 X124.051 Y103.996 E0.40978
G1 X124.326 Y103.843 E0.4349
G1 X125.179 Y103.398 E0.5117
G1 X125.311 Y103.336 E0.52334
G1 X125.927 Y103.063 E0.57713
G1 X126.173 Y102.962 E0.59835
G1 X127.104 Y102.612 E0.67775
G1 X127.239 Y102.568 E0.68908
G1 X127.915 Y102.363 E0.74547
G1 X128.242 Y102.274 E0.77252
G1 X129.165 Y102.057 E0.84821
G1 X129.352 Y102.019 E0.86344
G1 X129.967 Y101.915 E0.91323
G1 X130.266 Y101.871 E0.93735
G1 X131.241 Y101.764 E1.01565
G1 X131.394 Y101.752 E1.0279
G1 X132.156 Y101.718 E1.08879
G1 X132.451 Y101.714 E1.11234
G1 X133.381 Y101.73 E1.18659
G1 X133.563 Y101.739 E1.20113
G1 X134.254 Y101.794 E1.25646
G1 X134.522 Y101.822 E1.27797
G1 X135.494 Y101.959 E1.35633
G1 X135.632 Y101.983 E1.36751
G1 X136.336 Y102.129 E1.4249
G1 X136.65 Y102.203 E1.45066
G1 X137.542 Y102.446 E1.52445
G1 X137.712 Y102.497 E1.53862
G1 X138.341 Y102.71 E1.59163
G1 X138.541 Y102.782 E1.6086
G1 X139.497 Y103.169 E1.69093
G1 X139.675 Y103.249 E1.7065
G1 X140.318 Y103.56 E1.76352
G1 X140.62 Y103.719 E1.79076
G1 X141.423 Y104.172 E1.86436
G1 X141.563 Y104.256 E1.87739
G1 X142.105 Y104.607 E1.92894
G1 X142.373 Y104.792 E1.95493
G1 X143.155 Y105.369 E2.03251
G1 X143.26 Y105.451 E2.04314
G1 X143.765 Y105.873 E2.09567
G1 X144.05 Y106.127 E2.12615
G1 X144.711 Y106.753 E2.19882
G1 X144.834 Y106.877 E2.21276
G1 X145.295 Y107.373 E2.26681
G1 X145.471 Y107.571 E2.28796
G1 X146.121 Y108.36 E2.36956
G1 X146.221 Y108.491 E2.38272
G1 X146.664 Y109.106 E2.44322
G1 X146.783 Y109.283 E2.46025
G1 X146.821 Y109.34 E2.46571
G1 X147.349 Y110.183 E2.54512
G1 X147.396 Y110.262 E2.55245
G1 X147.706 Y110.829 E2.60404
G1 X147.876 Y111.163 E2.63395
G1 X148.274 Y112.008 E2.70851
G1 X148.33 Y112.138 E2.71981
G1 X148.594 Y112.804 E2.777
G1 X148.694 Y113.081 E2.80051
G1 X149.002 Y114.021 E2.87947
G1 X149.033 Y114.128 E2.88836
G1 X149.215 Y114.834 E2.94656
G1 X149.28 Y115.121 E2.97005
G1 X149.464 Y116.072 E3.04737
G1 X149.488 Y116.219 E3.05926
G1 X149.575 Y116.888 E3.11311
G1 X149.608 Y117.215 E3.13934
G1 X149.673 Y118.182 E3.21671
G1 X149.678 Y118.328 E3.22837
G1 X149.681 Y119.034 E3.28473
G1 X149.673 Y119.358 E3.3106
G1 X149.616 Y120.323 E3.38776
G1 X149.602 Y120.48 E3.40034
G1 X149.533 Y121.054 E3.44649
G1 X149.499 Y121.303 E3.46655
G1 X149.479 Y121.425 E3.47642
G1 X149.307 Y122.377 E3.55365
G1 X149.28 Y122.508 E3.56432
G1 X149.098 Y123.239 E3.62446
G1 X149.009 Y123.557 E3.65082
G1 X148.715 Y124.482 E3.72829
G1 X148.667 Y124.617 E3.73973
G1 X148.454 Y125.171 E3.78711
G1 X148.361 Y125.397 E3.80662
G1 X148.321 Y125.491 E3.81477
G1 X147.93 Y126.353 E3.89033
G1 X147.864 Y126.486 E3.90218
G1 X147.524 Y127.125 E3.95996
G1 X147.401 Y127.342 E3.97987
G1 X146.853 Y128.233 E4.06337
G1 X146.773 Y128.353 E4.07488
G1 X146.355 Y128.943 E4.1326
G1 X146.231 Y129.107 E4.14901
G1 X146.145 Y129.218 E4.16022
G1 X145.536 Y129.971 E4.23752
G1 X145.464 Y130.056 E4.24642
G1 X145.027 Y130.534 E4.29812
G1 X144.821 Y130.747 E4.32177
G1 X144.132 Y131.418 E4.39854
G1 X144.007 Y131.533 E4.4121
G1 X143.421 Y132.031 E4.47349
G1 X143.223 Y132.191 E4.49381
G1 X142.42 Y132.794 E4.57397
G1 X142.315 Y132.868 E4.58422
G1 X141.773 Y133.226 E4.63607
G1 X141.52 Y133.383 E4.65984
G1 X140.655 Y133.882 E4.73955
G1 X140.533 Y133.947 E4.75059
G1 X139.917 Y134.252 E4.80546
G1 X139.725 Y134.342 E4.82238
G1 X138.757 Y134.753 E4.90633
G1 X138.601 Y134.812 E4.91964
G1 X137.859 Y135.07 E4.98235
G1 X137.577 Y135.157 E5.00591
G1 X136.666 Y135.411 E5.0814
G1 X136.524 Y135.446 E5.09307
G1 X135.845 Y135.589 E5.14846
G1 X135.564 Y135.641 E5.17128
G1 X134.573 Y135.789 E5.25126
G1 X134.477 Y135.801 E5.25898
G1 X133.829 Y135.858 E5.31091
G1 X133.522 Y135.878 E5.33547
G1 X132.534 Y135.905 E5.41436
G1 X132.398 Y135.904 E5.42522
G1 X131.625 Y135.877 E5.48696
G1 X131.311 Y135.855 E5.51209
G1 X130.329 Y135.755 E5.59088
G1 X130.222 Y135.741 E5.59949
G1 X129.581 Y135.637 E5.65133
G1 X129.268 Y135.577 E5.67677
G1 X128.322 Y135.364 E5.75417
G1 X128.185 Y135.329 E5.76546
G1 X127.484 Y135.124 E5.82376
G1 X127.213 Y135.037 E5.84648
G1 X126.326 Y134.718 E5.92173
G1 X126.169 Y134.656 E5.9352
G1 X125.473 Y134.353 E5.99579
G1 X125.276 Y134.261 E6.01315
G1 X124.334 Y133.781 E6.09754
G1 X124.223 Y133.72 E6.10765
G1 X123.65 Y133.381 E6.1608
G1 X123.376 Y133.209 E6.18662
G1 X122.564 Y132.66 E6.26486
G1 X122.472 Y132.593 E6.27395
G1 X121.905 Y132.156 E6.33109
G1 X121.708 Y131.995 E6.3514
G1 X120.915 Y131.301 E6.43552
G1 X120.842 Y131.235 E6.44338
G1 X120.395 Y130.791 E6.49367
G1 X120.115 Y130.499 E6.52596
G1 X119.482 Y129.789 E6.60189
G1 X119.385 Y129.673 E6.61396
G1 X118.963 Y129.135 E6.66854
G1 X118.792 Y128.905 E6.69142
G1 X118.219 Y128.076 E6.77186
G1 X118.149 Y127.967 E6.7822
G1 X117.765 Y127.328 E6.84171
G1 X117.644 Y127.112 E6.86148
G1 X117.188 Y126.236 E6.94031
G1 X117.127 Y126.11 E6.95148
G1 X116.837 Y125.457 E7.00852
G1 X116.723 Y125.177 E7.03265
G1 X116.383 Y124.262 E7.11057
G1 X116.345 Y124.151 E7.11993
G1 X116.136 Y123.457 E7.17779
G1 X116.077 Y123.244 E7.19543
G1 X115.835 Y122.228 E7.2788
G1 X115.804 Y122.073 E7.29142
G1 X115.694 Y121.432 E7.34334
G1 X115.659 Y121.192 E7.3627
G1 X115.646 Y121.085 E7.3713
G1 X115.51 Y119.609 E7.48962
G1 X115.5 Y119.413 E7.50529
G1 X115.499 Y119.331 E7.51183
G1 X115.515 Y117.941 E7.62279
G1 X115.52 Y117.818 E7.63262
G1 X115.535 Y117.581 E7.65158
G1 X115.633 Y116.599 E7.73035
G1 X115.652 Y116.456 E7.74187
G1 X115.748 Y115.854 E7.79053
G1 X115.82 Y115.474 E7.8214
G1 X116.035 Y114.517 E7.8997
G1 X116.061 Y114.418 E7.90787
G1 X116.266 Y113.718 E7.96609
G1 X116.367 Y113.407 E7.9922
G1 X116.708 Y112.468 E8.07194
G1 X116.747 Y112.37 E8.08036
G1 X117.007 Y111.769 E8.13263
G1 X117.114 Y111.537 E8.15303
G1 X117.594 Y110.589 E8.23785
G1 X117.649 Y110.488 E8.24703
G1 X118 Y109.892 E8.30224
G1 X118.185 Y109.597 E8.33003
G1 X118.716 Y108.812 E8.40569
G1 X118.811 Y108.68 E8.41867
G1 X119.184 Y108.194 E8.46757
G1 X119.369 Y107.965 E8.49107
G1 X120.05 Y107.182 E8.57391
G0 F9000 X120 Y107.239
G1 F1125 X120 Y130.37 E10.42032
G0 F9000 X121.6 Y131.9
G1 F1125 X121.6 Y105.709 E12.511
G0 F9000 X123.2 Y104.521
G1 F1125 X123.2 Y133.09 E14.7915
G0 F9000 X124.8 Y134.018
G1 F1125 X124.8 Y103.595 E17.22
G0 F9000 X126.4 Y102.876
G1 F1125 X126.4 Y134.744 E19.76384
G0 F9000 X128 Y135.274
G1 F1125 X128 Y102.339 E22.39285
G0 F9000 X129.6 Y101.977
G1 F1125 X129.6 Y135.64 E25.07998
G0 F9000 X131.2 Y135.843
G1 F1125 X131.2 Y101.768 E27.79999
G0 F9000 X132.8 Y101.721
G1 F1125 X132.8 Y135.898 E30.52815
G0 F9000 X134.4 Y135.808
G1 F1125 X134.4 Y101.81 E33.24202
G0 F9000 X136 Y102.06
G1 F1125 X136 Y135.557 E35.91589
G0 F9000 X137.6 Y135.15
G1 F1125 X137.6 Y102.464 E38.52503
G0 F9000 X139.2 Y103.049
G1 F1125 X139.2 Y134.565 E41.04077
G0 F9000 X140.8 Y133.799
G1 F1125 X140.8 Y103.821 E43.43375
G0 F9000 X142.4 Y104.812
G1 F1125 X142.4 Y132.809 E45.66859
G0 F9000 X144 Y131.539
G1 F1125 X144 Y106.083 E47.7006
G0 F9000 X145.6 Y107.728
G1 F1125 X145.6 Y129.892 E49.46982
G0 F9000 X147.2 Y127.669
G1 F1125 X147.2 Y109.946 E50.88455
G0 F9000 X148.8 Y113.405
G1 F1125 X148.8 Y124.215 E51.74745
G1 F2700 E46.74745
G0 F9000 X149.721 Y124.827
G0 X148.808 Y126.978
G0 X147.646 Y128.961
G0 X146.267 Y130.755
G0 X144.707 Y132.334
G0 X142.909 Y133.751
G0 X141.015 Y134.896
G0 X138.961 Y135.814
G0 X136.762 Y136.483
G0 X134.592 Y136.859
G0 X132.371 Y136.968
G0 X130.073 Y136.796
G0 X127.899 Y136.354
G0 X125.755 Y135.636
G0 X123.701 Y134.648
G0 X121.837 Y133.447
G0 X120.112 Y132.008
G0 X118.717 Y130.514
G0 X117.525 Y128.943
G0 X118.4 Y128.337
G1 F2700 E51.74745
G1 F1125 X118.4 Y109.279 E53.26874
G0 F9000 X116.8 Y112.247
G1 F1125 X116.8 Y125.366 E54.31596
G0 F300 X116.8 Y125.366 Z0.54
G0 F9000 X118.316 Y128.216
;TIME_ELAPSED:44.586396
;LAYER:-5
;TYPE:SUPPORT
G1 F1125 X123.165 Y133.065 E55.0002
G1 X123.375 Y133.207 E55.0255
G1 X123.65 Y133.38 E55.05792
G1 X124.223 Y133.719 E55.12435
G1 X124.333 Y133.78 E55.1369
G1 X125.275 Y134.26 E55.24239
G1 X125.472 Y134.352 E55.26408
G1 X126.169 Y134.655 E55.33992
G0 F9000 X126.171 Y134.656
G1 F1125 X116.745 Y125.23 E56.67003
G1 X116.723 Y125.176 E56.67585
G1 X116.382 Y124.261 E56.77328
G1 X116.345 Y124.15 E56.78496
G1 X116.135 Y123.455 E56.8574
G1 X116.077 Y123.243 E56.87933
G1 X116.046 Y123.117 E56.89228
G1 X128.281 Y135.352 E58.61877
G1 X128.322 Y135.363 E58.623
G1 X129.267 Y135.576 E58.71966
G1 X129.58 Y135.636 E58.75146
G1 X130.056 Y135.713 E58.79957
G1 X115.679 Y121.336 E60.82832
G1 X115.658 Y121.191 E60.84294
G1 X115.646 Y121.084 E60.85369
G1 X115.524 Y119.766 E60.98576
G1 X131.633 Y135.876 E63.25898
G1 X132.397 Y135.903 E63.33526
G1 X132.534 Y135.904 E63.34893
G1 X133.061 Y135.889 E63.40154
G1 X115.51 Y118.338 E65.87818
G1 X115.515 Y117.94 E65.91789
G1 X115.52 Y117.816 E65.93027
G1 X115.534 Y117.579 E65.95396
G1 X115.591 Y117.005 E66.01152
G1 X134.393 Y135.807 E68.66468
G1 X134.476 Y135.8 E68.673
G1 X134.573 Y135.787 E68.68276
G1 X135.563 Y135.64 E68.78263
G1 X135.628 Y135.628 E68.78922
G1 X115.764 Y115.764 E71.59225
G1 X115.819 Y115.474 E71.6217
G1 X116.015 Y114.6 E71.71107
G1 X136.789 Y135.375 E74.64258
G1 X137.576 Y135.157 E74.72406
G1 X137.858 Y135.069 E74.75354
G1 X137.887 Y135.058 E74.75663
G1 X116.333 Y113.505 E77.79807
G1 X116.366 Y113.406 E77.80848
G1 X116.707 Y112.467 E77.90816
G0 F9000 X116.707 Y112.465
G1 F1125 X138.923 Y134.681 E81.04308
G1 X139.724 Y134.341 E81.1299
G1 X139.91 Y134.254 E81.15039
G1 X117.14 Y111.483 E84.36356
G1 X117.593 Y110.588 E84.46365
G1 X117.616 Y110.545 E84.46851
G1 X140.842 Y133.771 E87.74595
G1 X141.518 Y133.382 E87.82377
G1 X141.733 Y133.248 E87.84905
G1 X118.144 Y109.659 E91.17772
G1 X118.184 Y109.597 E91.18508
G1 X118.713 Y108.813 E91.27945
G1 X142.575 Y132.675 E94.64663
G1 X143.222 Y132.191 E94.72726
G1 X143.377 Y132.064 E94.74725
G1 X119.327 Y108.014 E98.14097
G1 X119.368 Y107.965 E98.14734
G1 X119.983 Y107.256 E98.24099
G1 X144.138 Y131.41 E101.64945
G1 X144.82 Y130.747 E101.74436
G1 X144.855 Y130.712 E101.7493
G1 X120.681 Y106.539 E105.16044
G1 X120.852 Y106.373 E105.18422
G1 X121.422 Y105.866 E105.26034
G1 X145.531 Y129.975 E108.66238
G1 X145.535 Y129.97 E108.66302
G1 X146.144 Y129.218 E108.75957
G1 X146.163 Y129.193 E108.7627
G1 X122.201 Y105.23 E112.14407
G1 X122.276 Y105.171 E112.15359
G1 X122.488 Y105.013 E112.17998
G1 X123.026 Y104.641 E112.24524
G1 X146.758 Y128.373 E115.59408
G1 X146.772 Y128.353 E115.59652
G1 X146.852 Y128.233 E115.61091
G1 X147.301 Y127.502 E115.69651
G1 X123.89 Y104.091 E119.00005
G1 X124.05 Y103.995 E119.01867
G1 X124.324 Y103.842 E119.04998
G1 X124.805 Y103.592 E119.10407
G1 X147.806 Y126.593 E122.34976
G1 X147.863 Y126.485 E122.36195
G1 X147.929 Y126.352 E122.37676
G1 X148.257 Y125.63 E122.45589
G1 X125.763 Y103.135 E125.63011
G1 X125.926 Y103.062 E125.64793
G1 X126.171 Y102.961 E125.67437
G1 X126.776 Y102.734 E125.73885
G1 X148.664 Y124.622 E128.82748
G1 X148.665 Y124.616 E128.82809
G1 X148.714 Y124.481 E128.84242
G1 X149.008 Y123.557 E128.93917
G0 F9000 X149.01 Y123.554
G1 F1125 X127.842 Y102.386 E131.9262
G1 X127.914 Y102.363 E131.93374
G1 X128.241 Y102.273 E131.96759
G1 X128.972 Y102.101 E132.04252
G1 X149.296 Y122.426 E134.91052
G1 X149.306 Y122.376 E134.91561
G1 X149.478 Y121.425 E135.01204
G1 X149.497 Y121.302 E135.02446
G1 X149.509 Y121.224 E135.03234
G1 X130.169 Y101.885 E137.76135
G1 X130.265 Y101.87 E137.77104
G1 X131.24 Y101.763 E137.86891
G1 X131.393 Y101.751 E137.88423
G1 X131.448 Y101.749 E137.88972
G1 X149.637 Y119.939 E140.45645
G1 X149.671 Y119.358 E140.51452
G1 X149.68 Y119.034 E140.54687
G1 X149.678 Y118.565 E140.59366
G1 X132.833 Y101.72 E142.97067
G1 X133.38 Y101.73 E143.02526
G1 X133.561 Y101.739 E143.04335
G1 X134.253 Y101.794 E143.11261
G1 X134.329 Y101.802 E143.12024
G1 X149.592 Y117.065 E145.27401
G1 X149.574 Y116.887 E145.29186
G1 X149.487 Y116.219 E145.35908
G1 X149.463 Y116.072 E145.37394
G1 X149.331 Y115.39 E145.44325
G1 X136 Y102.059 E147.3244
G1 X136.335 Y102.128 E147.35853
G1 X136.649 Y102.203 E147.39074
G1 X137.541 Y102.446 E147.48299
G1 X137.711 Y102.497 E147.5007
G1 X137.925 Y102.57 E147.52326
G1 X148.819 Y113.463 E149.06045
G1 X148.693 Y113.08 E149.10068
G1 X148.593 Y112.804 E149.12997
G1 X148.329 Y112.137 E149.20155
G1 X148.273 Y112.008 E149.21558
G1 X147.875 Y111.162 E149.30887
G1 X147.816 Y111.046 E149.32186
G1 X140.344 Y103.574 E150.37624
G1 X140.618 Y103.719 E150.40717
G1 X141.422 Y104.171 E150.4992
G1 X141.562 Y104.255 E150.51549
G1 X142.104 Y104.606 E150.57992
G1 X142.372 Y104.792 E150.61247
G1 X143.154 Y105.369 E150.70944
G1 X143.259 Y105.45 E150.72268
G1 X143.764 Y105.872 E150.78834
G1 X144.048 Y106.126 E150.82636
G1 X144.71 Y106.752 E150.91727
G1 X144.833 Y106.877 E150.93477
G1 X145.294 Y107.373 E151.00234
G1 X145.47 Y107.57 E151.02869
G1 X146.12 Y108.359 E151.1307
G1 X146.22 Y108.49 E151.14714
G1 X146.663 Y109.105 E151.22277
G1 X146.782 Y109.283 E151.24413
G1 X146.82 Y109.339 E151.25089
G1 X147.348 Y110.182 E151.35014
G1 X147.394 Y110.261 E151.35926
G1 X147.704 Y110.829 E151.42383
G1 F2700 E146.42383
G0 F9000 X148.652 Y110.34
G0 X149.59 Y112.43
G0 X150.251 Y114.588
G0 X150.633 Y116.769
G0 X150.745 Y119.05
G0 X150.579 Y121.263
G0 X150.126 Y123.517
G0 X149.44 Y125.573
G0 X148.455 Y127.642
G0 X147.217 Y129.566
G0 X145.799 Y131.266
G0 X144.095 Y132.855
G0 X142.367 Y134.109
G0 X140.374 Y135.214
G0 X138.298 Y136.045
G0 X136.046 Y136.635
G0 X133.907 Y136.919
G0 X131.594 Y136.941
G0 X129.388 Y136.684
G0 X127.167 Y136.14
G0 X125.04 Y135.326
G0 X123.46 Y134.484
G0 X122.57 Y133.949
G0 X123.165 Y133.065
G1 F2700 E151.42383
G1 F1125 X122.564 Y132.658 E151.49625
G1 X122.472 Y132.592 E151.50755
G1 X121.905 Y132.155 E151.57898
G1 X121.707 Y131.994 E151.60444
G1 X120.914 Y131.3 E151.70959
G1 X120.842 Y131.234 E151.71933
G1 X120.394 Y130.79 E151.78227
G1 X120.114 Y130.497 E151.82271
G1 X119.481 Y129.788 E151.91755
G1 X119.385 Y129.672 E151.93257
G1 X118.962 Y129.133 E152.00094
G1 X118.792 Y128.904 E152.02939
G1 F2700 E147.02939
G0 F300 X118.792 Y128.904 Z0.74
G0 F9000 X118.116 Y129.779
G0 X119.636 Y131.538
G0 X121.293 Y133.028
G0 X123.116 Y134.303
G0 X125.12 Y135.36
G0 X127.276 Y136.174
G0 X129.21 Y136.638
G0 X131.204 Y136.914
G0 X131.291 Y136.054
;TIME_ELAPSED:99.687775
;LAYER:-4
;TYPE:SUPPORT-INTERFACE
G1 F2700 E152.02939
G1 F1500 X131.628 Y136.077 E152.04063
G1 X132.391 Y136.104 E152.06602
G1 X132.538 Y136.105 E152.07091
G1 X133.523 Y136.078 E152.10369
G1 X133.847 Y136.057 E152.11448
G1 X134.499 Y136 E152.13625
G1 X130.759 Y136 E152.26065
G1 X130.297 Y135.953 E152.27609
G1 X130.196 Y135.94 E152.27948
G1 X129.541 Y135.833 E152.30155
G1 X129.227 Y135.773 E152.31218
G1 X128.46 Y135.6 E152.33834
G1 X136.729 Y135.6 E152.61336
G1 X137.638 Y135.347 E152.64475
G1 X137.919 Y135.26 E152.65453
G1 X138.092 Y135.2 E152.66062
G1 X127.076 Y135.2 E153.02701
G1 X126.246 Y134.902 E153.05635
G1 X126.081 Y134.837 E153.06224
G1 X125.996 Y134.8 E153.06533
G1 X139.157 Y134.8 E153.50306
G1 X139.684 Y134.577 E153.5221
G1 X140.002 Y134.433 E153.53371
