;FLAVOR:Marlin
;TIME:203
;Filament used: 0.072045m
;Layer height: 0.2
;MINX:122.293
;MINY:108.511
;MINZ:0.2
;MAXX:142.883
;MAXY:129.092
;MAXZ:8
;Generated with Cura_SteamEngine 4.8.0
M140 S50
M105
M190 S50
M104 S200
M105
M109 S200
M82 ;absolute extrusion mode
; Ender 3 Custom Start G-code
G92 E0 ; Reset Extruder
G28 ; Home all axes
G29 ; ABL
G1 Z2.0 F3000 ; Move Z Axis up little to prevent scratching of Heat Bed
G1 X0.1 Y20 Z0.3 F5000.0 ; Move to start position
G1 X0.1 Y200.0 Z0.3 F1500.0 E15 ; Draw the first line
G1 X0.4 Y200.0 Z0.3 F5000.0 ; Move to side a little
G1 X0.4 Y20 Z0.3 F1500.0 E30 ; Draw the second line
G92 E0 ; Reset Extruder
G1 Z2.0 F3000 ; Move Z Axis up little to prevent scratching of Heat Bed
G1 X5 Y20 Z0.3 F5000.0 ; Move over to prevent blob squish
G92 E0
G92 E0
G1 F2700 E-5
;LAYER_COUNT:40
;LAYER:0
M107
G0 F6000 X124.664 Y112.231 Z0.2
;TYPE:SKIRT
G1 F2700 E0
G1 F1200 X125.373 Y111.46 E0.03484
G1 X125.596 Y111.248 E0.04507
G1 X126.298 Y110.655 E0.07564
G1 X126.548 Y110.468 E0.08602
G1 X127.372 Y109.929 E0.11877
G1 X127.64 Y109.777 E0.12902
G1 X128.5 Y109.357 E0.16085
G1 X128.787 Y109.238 E0.17118
G1 X129.706 Y108.923 E0.20349
G1 X130.004 Y108.841 E0.21377
G1 X130.945 Y108.643 E0.24576
G1 X131.253 Y108.598 E0.25611
G1 X132.229 Y108.517 E0.28868
G1 X132.537 Y108.511 E0.29893
G1 X133.49 Y108.551 E0.33065
G1 X133.8 Y108.583 E0.34102
G1 X134.771 Y108.746 E0.37377
G1 X135.071 Y108.816 E0.38401
G1 X135.975 Y109.085 E0.41538
G1 X136.268 Y109.192 E0.42576
G1 X137.171 Y109.589 E0.45857
G1 X137.444 Y109.73 E0.46879
G1 X138.261 Y110.216 E0.5004
G1 X138.519 Y110.392 E0.51079
G1 X139.272 Y110.977 E0.54251
G1 X139.503 Y111.18 E0.55273
G1 X140.199 Y111.874 E0.58543
G1 X140.404 Y112.106 E0.59572
G1 X141.01 Y112.886 E0.62857
G1 X141.184 Y113.142 E0.63887
G1 X141.664 Y113.948 E0.67007
G1 X141.806 Y114.223 E0.68037
G1 X142.194 Y115.104 E0.71238
G1 X142.302 Y115.397 E0.72277
G1 X142.579 Y116.323 E0.75492
G1 X142.649 Y116.623 E0.76516
G1 X142.811 Y117.589 E0.79774
G1 X142.843 Y117.897 E0.80804
G1 X142.883 Y118.879 E0.84073
G1 X142.876 Y119.189 E0.85104
G1 X142.8 Y120.113 E0.88188
G1 X142.756 Y120.422 E0.89226
G1 X142.551 Y121.404 E0.92562
G1 X142.469 Y121.7 E0.93584
G1 X142.166 Y122.584 E0.96692
G1 X142.048 Y122.871 E0.97724
G1 X141.614 Y123.761 E1.01018
G1 X141.461 Y124.03 E1.02047
G1 X140.921 Y124.854 E1.05324
G1 X140.735 Y125.102 E1.06355
G1 X140.135 Y125.81 E1.09441
G1 X139.921 Y126.034 E1.10472
G1 X139.178 Y126.717 E1.13828
G1 X138.935 Y126.913 E1.14867
G1 X138.195 Y127.442 E1.17892
G1 X137.933 Y127.607 E1.18922
G1 X137.07 Y128.077 E1.22191
G1 X136.791 Y128.207 E1.23214
G1 X135.835 Y128.578 E1.26625
G1 X135.539 Y128.671 E1.27657
G1 X134.649 Y128.894 E1.30709
G1 X134.342 Y128.952 E1.31748
G1 X133.401 Y129.072 E1.34903
G1 X133.094 Y129.092 E1.35926
G1 X132.08 Y129.092 E1.39299
G1 X131.773 Y129.072 E1.40322
G1 X130.837 Y128.953 E1.4346
G1 X130.529 Y128.895 E1.44503
G1 X129.627 Y128.669 E1.47595
G1 X129.332 Y128.576 E1.48624
G1 X128.383 Y128.207 E1.52011
G1 X128.104 Y128.077 E1.53035
G1 X127.253 Y127.614 E1.56257
G1 X126.99 Y127.449 E1.57289
G1 X126.241 Y126.916 E1.60347
G1 X125.999 Y126.721 E1.61381
G1 X125.253 Y126.035 E1.64751
G1 X125.04 Y125.812 E1.65777
G1 X124.434 Y125.096 E1.68897
G1 X124.247 Y124.846 E1.69935
G1 X123.713 Y124.03 E1.73179
G1 X123.56 Y123.761 E1.74208
G1 X123.135 Y122.893 E1.77423
G1 X123.016 Y122.606 E1.78456
G1 X122.698 Y121.677 E1.81722
G1 X122.617 Y121.381 E1.82743
G1 X122.421 Y120.446 E1.8592
G1 X122.376 Y120.137 E1.86959
G1 X122.301 Y119.311 E1.89717
G1 X122.293 Y119.102 E1.90413
G1 X122.302 Y118.317 E1.93024
G1 X122.321 Y118.013 E1.94037
G1 X122.442 Y117.052 E1.97259
G1 X122.5 Y116.745 E1.98298
G1 X122.73 Y115.833 E2.01426
G1 X122.823 Y115.54 E2.02448
G1 X123.178 Y114.625 E2.05713
G1 X123.308 Y114.344 E2.06743
G1 X123.78 Y113.474 E2.10035
G1 X123.945 Y113.211 E2.11067
G1 X124.469 Y112.474 E2.14075
G1 X124.664 Y112.231 E2.15111
G0 F6000 X124.976 Y112.482
G1 F1200 X125.648 Y111.75 E2.18416
G1 X125.871 Y111.538 E2.1944
G1 X126.538 Y110.975 E2.22343
G1 X126.788 Y110.788 E2.23381
G1 X127.569 Y110.277 E2.26485
G1 X127.837 Y110.125 E2.2751
G1 X128.654 Y109.726 E2.30534
G1 X128.941 Y109.607 E2.31567
G1 X129.812 Y109.308 E2.3463
G1 X130.11 Y109.226 E2.35658
G1 X131.003 Y109.039 E2.38693
G1 X131.311 Y108.994 E2.39728
G1 X132.237 Y108.917 E2.42819
G1 X132.545 Y108.911 E2.43843
G1 X133.449 Y108.949 E2.46853
G1 X133.759 Y108.981 E2.47889
G1 X134.68 Y109.136 E2.50996
G1 X134.98 Y109.206 E2.5202
G1 X135.837 Y109.461 E2.54994
G1 X136.13 Y109.568 E2.56032
G1 X136.988 Y109.944 E2.59147
G1 X137.261 Y110.085 E2.60169
G1 X138.035 Y110.547 E2.63167
G1 X138.293 Y110.723 E2.64206
G1 X139.008 Y111.277 E2.67214
G1 X139.239 Y111.48 E2.68237
G1 X139.899 Y112.139 E2.71339
G1 X140.104 Y112.371 E2.72369
G1 X140.679 Y113.111 E2.75486
G1 X140.853 Y113.367 E2.76516
G1 X141.308 Y114.132 E2.79476
G1 X141.45 Y114.407 E2.80505
G1 X141.818 Y115.243 E2.83543
G1 X141.926 Y115.536 E2.84582
G1 X142.189 Y116.414 E2.8763
G1 X142.259 Y116.714 E2.88655
G1 X142.413 Y117.63 E2.91744
G1 X142.445 Y117.938 E2.92774
G1 X142.483 Y118.87 E2.95877
G1 X142.476 Y119.18 E2.96908
G1 X142.404 Y120.056 E2.99832
G1 X142.36 Y120.365 E3.0087
G1 X142.165 Y121.298 E3.0404
G1 X142.083 Y121.594 E3.05061
G1 X141.796 Y122.432 E3.08008
G1 X141.678 Y122.719 E3.0904
G1 X141.266 Y123.564 E3.12166
G1 X141.113 Y123.833 E3.13196
G1 X140.601 Y124.614 E3.16302
G1 X140.415 Y124.862 E3.17333
G1 X139.846 Y125.534 E3.20262
G1 X139.632 Y125.758 E3.21292
G1 X138.927 Y126.406 E3.24477
G1 X138.684 Y126.602 E3.25515
G1 X137.981 Y127.104 E3.28388
G1 X137.719 Y127.269 E3.29418
G1 X136.901 Y127.715 E3.32517
G1 X136.622 Y127.845 E3.33541
G1 X135.715 Y128.197 E3.36777
G1 X135.419 Y128.29 E3.37808
G1 X134.575 Y128.501 E3.40702
G1 X134.268 Y128.559 E3.41741
G1 X133.375 Y128.672 E3.44735
G1 X133.068 Y128.692 E3.45758
G1 X132.106 Y128.692 E3.48958
G1 X131.799 Y128.672 E3.49981
G1 X130.911 Y128.56 E3.52958
G1 X130.603 Y128.502 E3.54
G1 X129.747 Y128.288 E3.56935
G1 X129.452 Y128.195 E3.57964
G1 X128.552 Y127.845 E3.61176
G1 X128.273 Y127.715 E3.62199
G1 X127.465 Y127.275 E3.6526
G1 X127.202 Y127.11 E3.66292
G1 X126.492 Y126.604 E3.69192
G1 X126.25 Y126.409 E3.70226
G1 X125.542 Y125.758 E3.73425
G1 X125.329 Y125.535 E3.7445
G1 X124.754 Y124.856 E3.7741
G1 X124.567 Y124.606 E3.78448
G1 X124.061 Y123.833 E3.81521
G1 X123.908 Y123.564 E3.8255
G1 X123.504 Y122.739 E3.85605
G1 X123.385 Y122.452 E3.86639
G1 X123.083 Y121.571 E3.89736
G1 X123.002 Y121.275 E3.90757
G1 X122.817 Y120.388 E3.93771
G1 X122.772 Y120.079 E3.94809
G1 X122.7 Y119.296 E3.97425
G1 X122.692 Y119.087 E3.9812
G1 X122.701 Y118.342 E4.00598
G1 X122.72 Y118.038 E4.01611
G1 X122.835 Y117.126 E4.04669
G1 X122.893 Y116.819 E4.05708
G1 X123.111 Y115.954 E4.08675
G1 X123.204 Y115.661 E4.09697
G1 X123.541 Y114.793 E4.12794
G1 X123.671 Y114.512 E4.13824
G1 X124.119 Y113.686 E4.16949
G1 X124.284 Y113.423 E4.17982
G1 X124.781 Y112.725 E4.20832
G1 X124.976 Y112.482 E4.21868
G0 F6000 X125.288 Y112.732
G1 F1200 X125.924 Y112.04 E4.24994
G1 X126.147 Y111.828 E4.26018
G1 X126.777 Y111.296 E4.2876
G1 X127.027 Y111.109 E4.29799
G1 X127.767 Y110.625 E4.32739
G1 X128.035 Y110.473 E4.33764
G1 X128.807 Y110.096 E4.36622
G1 X129.094 Y109.977 E4.37655
G1 X129.918 Y109.694 E4.40553
G1 X130.216 Y109.612 E4.41581
G1 X131.061 Y109.435 E4.44452
G1 X131.369 Y109.39 E4.45488
G1 X132.245 Y109.317 E4.48411
G1 X132.553 Y109.311 E4.49436
G1 X133.408 Y109.347 E4.52282
G1 X133.718 Y109.379 E4.53319
G1 X134.59 Y109.525 E4.56259
G1 X134.89 Y109.595 E4.57284
G1 X135.7 Y109.837 E4.60096
G1 X135.993 Y109.944 E4.61133
G1 X136.804 Y110.3 E4.64079
G1 X137.077 Y110.441 E4.65101
G1 X137.81 Y110.877 E4.67938
G1 X138.068 Y111.053 E4.68976
G1 X138.744 Y111.578 E4.71823
G1 X138.975 Y111.781 E4.72846
G1 X139.6 Y112.404 E4.75781
G1 X139.805 Y112.636 E4.76811
G1 X140.348 Y113.336 E4.79757
G1 X140.522 Y113.592 E4.80787
G1 X140.953 Y114.315 E4.83587
G1 X141.095 Y114.59 E4.84616
G1 X141.443 Y115.381 E4.8749
G1 X141.551 Y115.674 E4.88529
G1 X141.8 Y116.504 E4.91411
G1 X141.87 Y116.804 E4.92436
G1 X142.016 Y117.672 E4.95363
G1 X142.048 Y117.98 E4.96393
G1 X142.083 Y118.861 E4.99326
G1 X142.076 Y119.171 E5.00357
G1 X142.008 Y120 E5.03123
G1 X141.964 Y120.309 E5.04161
G1 X141.78 Y121.191 E5.07158
G1 X141.698 Y121.487 E5.0818
G1 X141.426 Y122.28 E5.10968
G1 X141.308 Y122.567 E5.12
G1 X140.919 Y123.366 E5.14956
G1 X140.766 Y123.635 E5.15985
G1 X140.281 Y124.374 E5.18925
G1 X140.095 Y124.622 E5.19956
G1 X139.556 Y125.257 E5.22727
G1 X139.342 Y125.481 E5.23757
G1 X138.676 Y126.095 E5.2677
G1 X138.433 Y126.291 E5.27808
G1 X137.768 Y126.765 E5.30524
G1 X137.506 Y126.93 E5.31554
G1 X136.732 Y127.352 E5.34486
G1 X136.453 Y127.482 E5.3551
G1 X135.595 Y127.815 E5.38571
G1 X135.299 Y127.908 E5.39603
G1 X134.5 Y128.108 E5.42342
G1 X134.193 Y128.166 E5.43382
G1 X133.349 Y128.273 E5.46211
G1 X133.042 Y128.293 E5.47235
G1 X132.132 Y128.293 E5.50261
G1 X131.825 Y128.273 E5.51284
G1 X130.985 Y128.167 E5.541
G1 X130.677 Y128.109 E5.55143
G1 X129.867 Y127.906 E5.5792
G1 X129.572 Y127.813 E5.58949
G1 X128.721 Y127.482 E5.61986
G1 X128.442 Y127.352 E5.6301
G1 X127.678 Y126.937 E5.65902
G1 X127.415 Y126.772 E5.66934
G1 X126.743 Y126.293 E5.69679
G1 X126.501 Y126.098 E5.70713
G1 X125.831 Y125.482 E5.7374
G1 X125.618 Y125.259 E5.74765
G1 X125.075 Y124.617 E5.77562
G1 X124.888 Y124.367 E5.786
G1 X124.408 Y123.635 E5.81512
G1 X124.255 Y123.366 E5.82541
G1 X123.874 Y122.586 E5.85428
G1 X123.755 Y122.299 E5.86462
G1 X123.469 Y121.466 E5.89391
G1 X123.388 Y121.17 E5.90412
G1 X123.213 Y120.331 E5.93262
G1 X123.168 Y120.022 E5.94301
G1 X123.1 Y119.281 E5.96776
G1 X123.092 Y119.072 E5.97472
G1 X123.101 Y118.367 E5.99817
G1 X123.12 Y118.063 E6.0083
G1 X123.228 Y117.201 E6.03719
G1 X123.286 Y116.894 E6.04758
G1 X123.492 Y116.075 E6.07567
G1 X123.585 Y115.782 E6.0859
G1 X123.904 Y114.961 E6.11519
G1 X124.034 Y114.68 E6.12549
G1 X124.457 Y113.899 E6.15503
G1 X124.622 Y113.636 E6.16536
G1 X125.093 Y112.975 E6.19235
G1 X125.288 Y112.732 E6.20271
G0 F6000 X125.599 Y112.982
G1 F1200 X126.2 Y112.33 E6.23221
G1 X126.423 Y112.118 E6.24244
G1 X127.017 Y111.616 E6.26831
G1 X127.267 Y111.429 E6.27869
G1 X127.964 Y110.973 E6.30639
G1 X128.232 Y110.821 E6.31664
G1 X128.96 Y110.465 E6.3436
G1 X129.247 Y110.346 E6.35393
G1 X130.024 Y110.08 E6.38125
G1 X130.322 Y109.998 E6.39152
G1 X131.119 Y109.83 E6.41862
G1 X131.427 Y109.785 E6.42897
G1 X132.252 Y109.717 E6.4565
G1 X132.56 Y109.711 E6.46675
G1 X133.367 Y109.745 E6.49361
G1 X133.677 Y109.777 E6.50398
G1 X134.499 Y109.915 E6.5317
G1 X134.799 Y109.985 E6.54195
G1 X135.563 Y110.212 E6.56845
G1 X135.856 Y110.319 E6.57883
G1 X136.621 Y110.655 E6.60662
G1 X136.894 Y110.796 E6.61684
G1 X137.584 Y111.208 E6.64357
G1 X137.842 Y111.384 E6.65396
G1 X138.48 Y111.878 E6.68079
G1 X138.711 Y112.081 E6.69102
G1 X139.3 Y112.669 E6.7187
G1 X139.505 Y112.901 E6.729
G1 X140.018 Y113.561 E6.7568
G1 X140.192 Y113.817 E6.7671
G1 X140.597 Y114.499 E6.79348
G1 X140.739 Y114.774 E6.80377
G1 X141.068 Y115.519 E6.83086
G1 X141.176 Y115.812 E6.84125
G1 X141.41 Y116.595 E6.86843
G1 X141.48 Y116.895 E6.87867
G1 X141.618 Y117.713 E6.90627
G1 X141.65 Y118.021 E6.91656
G1 X141.683 Y118.852 E6.94423
G1 X141.676 Y119.162 E6.95454
G1 X141.612 Y119.943 E6.9806
G1 X141.568 Y120.252 E6.99098
G1 X141.394 Y121.084 E7.01925
G1 X141.312 Y121.38 E7.02947
G1 X141.056 Y122.128 E7.05577
G1 X140.938 Y122.415 E7.06609
G1 X140.571 Y123.168 E7.09395
G1 X140.418 Y123.437 E7.10424
G1 X139.961 Y124.134 E7.13196
G1 X139.775 Y124.382 E7.14227
G1 X139.267 Y124.981 E7.16839
G1 X139.053 Y125.205 E7.1787
G1 X138.425 Y125.783 E7.20709
G1 X138.182 Y125.979 E7.21747
G1 X137.555 Y126.427 E7.2431
G1 X137.293 Y126.592 E7.2534
G1 X136.564 Y126.989 E7.28101
G1 X136.285 Y127.119 E7.29125
G1 X135.475 Y127.434 E7.32015
G1 X135.179 Y127.527 E7.33047
G1 X134.426 Y127.715 E7.35628
G1 X134.119 Y127.773 E7.36668
G1 X133.323 Y127.874 E7.39336
G1 X133.016 Y127.894 E7.4036
G1 X132.158 Y127.894 E7.43213
G1 X131.851 Y127.874 E7.44237
G1 X131.059 Y127.774 E7.46892
G1 X130.751 Y127.716 E7.47934
G1 X129.988 Y127.525 E7.5055
G1 X129.693 Y127.432 E7.51579
G1 X128.889 Y127.119 E7.54449
G1 X128.61 Y126.989 E7.55472
G1 X127.89 Y126.598 E7.58197
G1 X127.627 Y126.433 E7.5923
G1 X126.994 Y125.981 E7.61817
G1 X126.752 Y125.786 E7.62851
G1 X126.12 Y125.206 E7.65704
G1 X125.907 Y124.983 E7.66729
G1 X125.395 Y124.377 E7.69368
G1 X125.208 Y124.127 E7.70406
G1 X124.756 Y123.437 E7.7315
G1 X124.603 Y123.168 E7.74179
G1 X124.243 Y122.433 E7.76901
G1 X124.124 Y122.146 E7.77935
G1 X123.855 Y121.36 E7.80698
G1 X123.774 Y121.064 E7.81719
G1 X123.609 Y120.273 E7.84406
G1 X123.564 Y119.964 E7.85445
G1 X123.5 Y119.265 E7.87779
G1 X123.492 Y119.056 E7.88475
G1 X123.5 Y118.392 E7.90683
G1 X123.519 Y118.088 E7.91697
G1 X123.621 Y117.275 E7.94422
G1 X123.679 Y116.968 E7.95461
G1 X123.873 Y116.196 E7.98108
G1 X123.966 Y115.903 E7.99131
G1 X124.267 Y115.129 E8.01893
G1 X124.397 Y114.848 E8.02923
G1 X124.796 Y114.111 E8.0571
G1 X124.961 Y113.848 E8.06743
G1 X125.404 Y113.225 E8.09285
G1 X125.599 Y112.982 E8.10322
G0 F6000 X125.911 Y113.233
G1 F1200 X126.475 Y112.62 E8.13092
G1 X126.698 Y112.408 E8.14116
G1 X127.256 Y111.936 E8.16546
G1 X127.506 Y111.749 E8.17585
G1 X128.161 Y111.321 E8.20187
G1 X128.429 Y111.169 E8.21212
G1 X129.113 Y110.835 E8.23744
G1 X129.4 Y110.716 E8.24777
G1 X130.13 Y110.465 E8.27345
G1 X130.428 Y110.383 E8.28373
G1 X131.177 Y110.226 E8.30918
G1 X131.485 Y110.181 E8.31953
G1 X132.26 Y110.117 E8.3454
G1 X132.568 Y110.111 E8.35564
G1 X133.326 Y110.143 E8.38088
G1 X133.636 Y110.175 E8.39124
G1 X134.408 Y110.304 E8.41727
G1 X134.708 Y110.374 E8.42752
G1 X135.426 Y110.588 E8.45244
G1 X135.719 Y110.695 E8.46281
G1 X136.437 Y111.01 E8.48889
G1 X136.71 Y111.151 E8.49911
G1 X137.359 Y111.538 E8.52424
G1 X137.617 Y111.714 E8.53463
G1 X138.216 Y112.179 E8.55985
G1 X138.447 Y112.382 E8.57008
G1 X139 Y112.934 E8.59607
G1 X139.205 Y113.166 E8.60637
G1 X139.687 Y113.786 E8.63249
G1 X139.861 Y114.042 E8.64278
G1 X140.242 Y114.682 E8.66755
G1 X140.384 Y114.957 E8.67785
G1 X140.692 Y115.658 E8.70331
G1 X140.8 Y115.951 E8.7137
G1 X141.021 Y116.686 E8.73923
G1 X141.091 Y116.986 E8.74947
G1 X141.22 Y117.754 E8.77538
G1 X141.252 Y118.062 E8.78568
G1 X141.283 Y118.843 E8.81167
G1 X141.276 Y119.153 E8.82199
G1 X141.216 Y119.887 E8.84648
G1 X141.172 Y120.196 E8.85686
G1 X141.009 Y120.977 E8.8834
G1 X140.927 Y121.273 E8.89361
G1 X140.686 Y121.976 E8.91833
G1 X140.568 Y122.263 E8.92865
G1 X140.223 Y122.97 E8.95482
G1 X140.07 Y123.239 E8.96511
G1 X139.641 Y123.894 E8.99115
G1 X139.455 Y124.142 E9.00146
G1 X138.978 Y124.705 E9.026
G1 X138.764 Y124.929 E9.03631
G1 X138.173 Y125.472 E9.063
G1 X137.93 Y125.668 E9.07339
G1 X137.342 Y126.088 E9.09742
G1 X137.08 Y126.253 E9.10772
G1 X136.395 Y126.627 E9.13368
G1 X136.116 Y126.757 E9.14391
G1 X135.355 Y127.052 E9.17106
G1 X135.059 Y127.145 E9.18138
G1 X134.352 Y127.322 E9.20562
G1 X134.045 Y127.38 E9.21601
G1 X133.297 Y127.475 E9.24109
G1 X132.99 Y127.495 E9.25132
G1 X132.184 Y127.495 E9.27813
G1 X131.877 Y127.475 E9.28836
G1 X131.133 Y127.381 E9.3133
G1 X130.825 Y127.323 E9.32373
G1 X130.108 Y127.143 E9.34832
G1 X129.813 Y127.05 E9.3586
G1 X129.058 Y126.757 E9.38554
G1 X128.779 Y126.627 E9.39578
G1 X128.103 Y126.259 E9.42138
G1 X127.84 Y126.094 E9.4317
G1 X127.245 Y125.67 E9.456
G1 X127.003 Y125.475 E9.46634
G1 X126.41 Y124.929 E9.49315
G1 X126.197 Y124.706 E9.50341
G1 X125.715 Y124.138 E9.52818
G1 X125.528 Y123.888 E9.53857
G1 X125.104 Y123.239 E9.56435
G1 X124.951 Y122.97 E9.57465
G1 X124.613 Y122.28 E9.6002
G1 X124.494 Y121.993 E9.61053
G1 X124.241 Y121.254 E9.63651
G1 X124.16 Y120.958 E9.64672
G1 X124.005 Y120.215 E9.67197
G1 X123.96 Y119.906 E9.68235
G1 X123.9 Y119.25 E9.70426
G1 X123.892 Y119.041 E9.71122
G1 X123.899 Y118.417 E9.73197
G1 X123.918 Y118.113 E9.7421
G1 X124.014 Y117.349 E9.76771
G1 X124.072 Y117.042 E9.77811
G1 X124.255 Y116.317 E9.80298
G1 X124.348 Y116.024 E9.8132
G1 X124.63 Y115.297 E9.83914
