;FLAVOR:Marlin
;TIME:10243
;Filament used: 7.53568m
;Layer height: 0.2
;MINX:70.835
;MINY:69.836
;MINZ:0.24
;MAXX:164.161
;MAXY:165.136
;MAXZ:16.09
;Generated with Cura_SteamEngine 4.8.0
M140 S50
M105
M190 S50
M104 S200
M105
M109 S200
M82 ;absolute extrusion mode
; Ender 3 Custom Start G-code
G92 E0 ; Reset Extruder
G28 ; Home all axes
G29 ; ABL
G1 Z2.0 F3000 ; Move Z Axis up little to prevent scratching of Heat Bed
G1 X0.1 Y20 Z0.3 F5000.0 ; Move to start position
G1 X0.1 Y200.0 Z0.3 F1500.0 E15 ; Draw the first line
G1 X0.4 Y200.0 Z0.3 F5000.0 ; Move to side a little
G1 X0.4 Y20 Z0.3 F1500.0 E30 ; Draw the second line
G92 E0 ; Reset Extruder
G1 Z2.0 F3000 ; Move Z Axis up little to prevent scratching of Heat Bed
G1 X5 Y20 Z0.3 F5000.0 ; Move over to prevent blob squish
G92 E0
G92 E0
G1 F2700 E-5
;LAYER_COUNT:75
;LAYER:-6
M107
G0 F9000 X76.313 Y75.346 Z0.24
;TYPE:SUPPORT-INTERFACE
G1 F2700 E0
G1 F1125 X76.436 Y75.222 E0.01394
G1 X77.088 Y74.616 E0.085
G1 X77.228 Y74.495 E0.09977
G1 X77.922 Y73.937 E0.17085
G1 X78.052 Y73.84 E0.1838
G1 X78.778 Y73.339 E0.25421
G1 X78.934 Y73.239 E0.269
G1 X79.697 Y72.791 E0.33963
G1 X79.853 Y72.708 E0.35374
G1 X80.639 Y72.32 E0.42371
G1 X80.846 Y72.229 E0.44176
G1 X82.157 Y71.726 E0.55384
G1 X82.281 Y71.682 E0.56435
G1 X82.539 Y71.6 E0.58596
G1 X83.461 Y71.339 E0.66245
G1 X83.607 Y71.303 E0.67445
G1 X84.52 Y71.115 E0.74886
G1 X84.641 Y71.094 E0.75866
G1 X85.562 Y70.974 E0.8328
G1 X85.708 Y70.961 E0.8445
G1 X86.966 Y70.902 E0.94503
G1 X87.069 Y70.9 E0.95325
G1 X148.008 Y70.901 E5.81767
G1 X149.009 Y70.937 E5.89763
G1 X149.132 Y70.946 E5.90747
G1 X150.038 Y71.046 E5.98023
G1 X150.232 Y71.075 E5.99589
G1 X151.481 Y71.322 E6.09752
G1 X151.572 Y71.342 E6.10496
G1 X151.794 Y71.4 E6.12327
G1 X152.701 Y71.66 E6.19859
G1 X152.844 Y71.706 E6.21058
G1 X153.696 Y72.02 E6.28306
G1 X153.837 Y72.078 E6.29523
G1 X154.666 Y72.454 E6.3679
G1 X154.811 Y72.526 E6.38082
G1 X155.585 Y72.947 E6.45115
G1 X155.76 Y73.051 E6.4674
G1 X156.501 Y73.527 E6.5377
G1 X156.627 Y73.615 E6.54997
G1 X157.379 Y74.18 E6.62505
G1 X157.515 Y74.289 E6.63897
G1 X157.511 Y74.293 E6.63942
G1 X157.896 Y74.611 E6.67928
G1 X158.053 Y74.752 E6.69612
G1 X158.728 Y75.388 E6.77015
G1 X158.863 Y75.525 E6.78551
G1 X159.455 Y76.17 E6.85539
G1 X159.568 Y76.302 E6.86926
G1 X160.117 Y76.996 E6.9399
G1 X160.24 Y77.163 E6.95646
G1 X160.724 Y77.877 E7.02531
G1 X160.826 Y78.04 E7.04066
G1 X161.259 Y78.79 E7.10979
G1 X161.353 Y78.968 E7.12586
G1 X161.731 Y79.748 E7.19505
G1 X161.804 Y79.918 E7.20981
G1 X162.281 Y81.178 E7.31736
G1 X162.335 Y81.334 E7.33054
G1 X162.409 Y81.567 E7.35005
G1 X162.667 Y82.482 E7.42594
G1 X162.707 Y82.646 E7.43941
G1 X162.887 Y83.533 E7.51166
G1 X162.912 Y83.683 E7.5238
G1 X163.028 Y84.583 E7.59624
G1 X163.042 Y84.739 E7.60874
G1 X163.097 Y85.949 E7.70543
G1 X163.1 Y86.065 E7.71469
G1 X163.1 Y148.991 E12.73771
G1 X163.064 Y149.996 E12.81799
G1 X163.055 Y150.115 E12.82751
G1 X162.954 Y151.038 E12.90163
G1 X162.925 Y151.232 E12.91729
G1 X162.678 Y152.481 E13.01892
G1 X162.638 Y152.655 E13.03317
G1 X162.602 Y152.787 E13.0441
G1 X162.34 Y153.701 E13.11999
G1 X162.299 Y153.83 E13.1308
G1 X161.98 Y154.696 E13.20447
G1 X161.922 Y154.837 E13.21664
G1 X161.546 Y155.666 E13.2893
G1 X161.475 Y155.81 E13.30212
G1 X161.053 Y156.585 E13.37256
G1 X160.949 Y156.76 E13.38881
G1 X160.473 Y157.501 E13.45911
G1 X160.385 Y157.627 E13.47138
G1 X159.82 Y158.379 E13.54646
G1 X159.711 Y158.515 E13.56037
G1 X159.707 Y158.511 E13.56082
G1 X159.389 Y158.896 E13.60068
G1 X159.248 Y159.053 E13.61753
G1 X158.612 Y159.728 E13.69156
G1 X158.473 Y159.865 E13.70714
G1 X157.83 Y160.455 E13.7768
G1 X157.698 Y160.568 E13.79067
G1 X157.004 Y161.117 E13.86131
G1 X156.84 Y161.238 E13.87757
G1 X156.123 Y161.724 E13.94672
G1 X155.961 Y161.825 E13.96196
G1 X155.21 Y162.259 E14.03119
G1 X155.032 Y162.353 E14.04726
G1 X154.252 Y162.731 E14.11645
G1 X154.074 Y162.807 E14.1319
G1 X152.822 Y163.281 E14.23876
G1 X152.666 Y163.335 E14.25194
G1 X152.426 Y163.411 E14.27204
G1 X151.511 Y163.669 E14.34792
G1 X151.352 Y163.707 E14.36097
G1 X150.454 Y163.889 E14.43411
G1 X150.317 Y163.912 E14.4452
G1 X149.417 Y164.028 E14.51764
G1 X149.25 Y164.043 E14.53102
G1 X148.043 Y164.097 E14.62747
G1 X147.925 Y164.1 E14.63689
G1 X86.992 Y164.099 E19.50083
G1 X85.991 Y164.063 E19.58078
G1 X85.868 Y164.054 E19.59063
G1 X84.962 Y163.954 E19.66339
G1 X84.768 Y163.925 E19.67904
G1 X83.519 Y163.678 E19.78067
G1 X83.428 Y163.658 E19.78811
G1 X83.206 Y163.6 E19.80643
G1 X82.299 Y163.34 E19.88174
G1 X82.156 Y163.294 E19.89374
G1 X81.304 Y162.98 E19.96622
G1 X81.163 Y162.922 E19.97839
G1 X80.332 Y162.545 E20.05123
G1 X80.189 Y162.474 E20.06397
G1 X79.415 Y162.053 E20.13431
G1 X79.24 Y161.949 E20.15056
G1 X78.487 Y161.465 E20.22201
G1 X78.373 Y161.385 E20.23313
G1 X77.612 Y160.813 E20.30912
G1 X77.485 Y160.711 E20.32212
G1 X77.489 Y160.707 E20.32257
G1 X77.104 Y160.389 E20.36243
G1 X77.014 Y160.31 E20.37199
G1 X76.272 Y159.612 E20.45331
G1 X76.135 Y159.473 E20.46889
G1 X75.536 Y158.82 E20.53962
G1 X75.429 Y158.694 E20.55282
G1 X74.883 Y158.004 E20.62306
G1 X74.76 Y157.837 E20.63961
G1 X74.268 Y157.111 E20.70962
G1 X74.174 Y156.96 E20.72382
G1 X73.741 Y156.21 E20.79295
G1 X73.647 Y156.032 E20.80901
G1 X73.267 Y155.248 E20.87856
G1 X73.19 Y155.067 E20.89426
G1 X72.715 Y153.811 E21.00145
G1 X72.662 Y153.658 E21.01438
G1 X72.583 Y153.407 E21.03538
G1 X72.331 Y152.511 E21.10968
G1 X72.293 Y152.353 E21.12265
G1 X72.111 Y151.455 E21.19579
G1 X72.088 Y151.317 E21.20696
G1 X71.972 Y150.417 E21.27939
G1 X71.957 Y150.25 E21.29278
G1 X71.903 Y149.043 E21.38922
G1 X71.9 Y148.923 E21.3988
G1 X71.9 Y86.009 E26.42087
G1 X71.936 Y85.003 E26.50123
G1 X71.946 Y84.868 E26.51203
G1 X72.046 Y83.962 E26.58479
G1 X72.076 Y83.765 E26.6007
G1 X72.322 Y82.519 E26.70208
G1 X72.362 Y82.345 E26.71633
G1 X72.398 Y82.213 E26.72725
G1 X72.66 Y81.299 E26.80315
G1 X72.714 Y81.135 E26.81693
G1 X73.02 Y80.304 E26.88762
G1 X73.078 Y80.163 E26.89979
G1 X73.454 Y79.334 E26.97246
G1 X73.526 Y79.189 E26.98538
G1 X73.947 Y78.415 E27.05571
G1 X74.051 Y78.24 E27.07196
G1 X74.517 Y77.515 E27.14076
G1 X74.634 Y77.351 E27.15684
G1 X75.464 Y76.281 E27.26493
G1 X75.538 Y76.19 E27.2743
G1 X75.685 Y76.023 E27.29206
G1 X76.313 Y75.346 E27.36577
G0 F9000 X76.8 Y74.883
G1 F1125 X76.8 Y160.108 E34.1688
G0 F9000 X78.4 Y161.403
G1 F1125 X78.4 Y73.599 E41.17769
G0 F9000 X80 Y72.635
G1 F1125 X80 Y162.371 E48.34081
G0 F9000 X81.6 Y163.089
G1 F1125 X81.6 Y71.939 E55.61679
G0 F9000 X83.2 Y71.412
G1 F1125 X83.2 Y163.598 E62.97548
G0 F9000 X84.8 Y163.929
G1 F1125 X84.8 Y71.073 E70.38765
G0 F9000 X86.4 Y70.928
G1 F1125 X86.4 Y164.077 E77.8232
G0 F9000 X88 Y164.099
G1 F1125 X88 Y70.901 E85.26267
G0 F9000 X89.6 Y70.901
G1 F1125 X89.6 Y164.099 E92.70214
G0 F9000 X91.2 Y164.099
G1 F1125 X91.2 Y70.901 E100.1416
G0 F9000 X92.8 Y70.901
G1 F1125 X92.8 Y164.099 E107.58107
G0 F9000 X94.4 Y164.099
G1 F1125 X94.4 Y70.901 E115.02054
G0 F9000 X96 Y70.901
G1 F1125 X96 Y164.099 E122.46001
G0 F9000 X97.6 Y164.099
G1 F1125 X97.6 Y70.901 E129.89947
G0 F9000 X99.2 Y70.901
G1 F1125 X99.2 Y164.099 E137.33894
G0 F9000 X100.8 Y164.099
G1 F1125 X100.8 Y70.901 E144.77841
G0 F9000 X102.4 Y70.901
G1 F1125 X102.4 Y164.099 E152.21788
G0 F9000 X104 Y164.099
G1 F1125 X104 Y70.901 E159.65734
G0 F9000 X105.6 Y70.901
G1 F1125 X105.6 Y164.099 E167.09681
G0 F9000 X107.2 Y164.099
G1 F1125 X107.2 Y70.901 E174.53628
G0 F9000 X108.8 Y70.901
G1 F1125 X108.8 Y164.099 E181.97575
G0 F9000 X110.4 Y164.099
G1 F1125 X110.4 Y70.901 E189.41521
G0 F9000 X112 Y70.901
G1 F1125 X112 Y164.099 E196.85468
G0 F9000 X113.6 Y164.099
G1 F1125 X113.6 Y70.901 E204.29415
G0 F9000 X115.2 Y70.901
G1 F1125 X115.2 Y164.099 E211.73362
G0 F9000 X116.8 Y164.099
G1 F1125 X116.8 Y70.901 E219.17308
G0 F9000 X118.4 Y70.901
G1 F1125 X118.4 Y164.099 E226.61255
G0 F9000 X120 Y164.099
G1 F1125 X120 Y70.901 E234.05202
G0 F9000 X121.6 Y70.901
G1 F1125 X121.6 Y164.099 E241.49148
G0 F9000 X123.2 Y164.099
G1 F1125 X123.2 Y70.901 E248.93095
G0 F9000 X124.8 Y70.901
G1 F1125 X124.8 Y164.099 E256.37042
G0 F9000 X126.4 Y164.099
G1 F1125 X126.4 Y70.901 E263.80989
G0 F9000 X128 Y70.901
G1 F1125 X128 Y164.099 E271.24935
G0 F9000 X129.6 Y164.099
G1 F1125 X129.6 Y70.901 E278.68882
G0 F9000 X131.2 Y70.901
G1 F1125 X131.2 Y164.099 E286.12829
G0 F9000 X132.8 Y164.099
G1 F1125 X132.8 Y70.901 E293.56776
G0 F9000 X134.4 Y70.901
G1 F1125 X134.4 Y164.099 E301.00722
G0 F9000 X136 Y164.099
G1 F1125 X136 Y70.901 E308.44669
G0 F9000 X137.6 Y70.901
G1 F1125 X137.6 Y164.099 E315.88616
G0 F9000 X139.2 Y164.099
G1 F1125 X139.2 Y70.901 E323.32563
G0 F9000 X140.8 Y70.901
G1 F1125 X140.8 Y164.099 E330.76509
G0 F9000 X142.4 Y164.099
G1 F1125 X142.4 Y70.901 E338.20456
G0 F9000 X144 Y70.901
G1 F1125 X144 Y164.099 E345.64403
G0 F9000 X145.6 Y164.099
G1 F1125 X145.6 Y70.901 E353.08349
G0 F9000 X147.2 Y70.901
G1 F1125 X147.2 Y164.099 E360.52296
G0 F9000 X148.8 Y164.064
G1 F1125 X148.8 Y70.93 E367.95732
G0 F9000 X150.4 Y71.109
G1 F1125 X150.4 Y163.899 E375.36422
G0 F9000 X152 Y163.532
G1 F1125 X152 Y71.46 E382.71381
G0 F9000 X153.6 Y71.985
G1 F1125 X153.6 Y162.987 E389.97798
G0 F9000 X155.2 Y162.265
G1 F1125 X155.2 Y72.738 E397.12441
G0 F9000 X156.8 Y73.745
G1 F1125 X156.8 Y161.266 E404.11072
G0 F9000 X158.4 Y159.932
G1 F1125 X158.4 Y75.079 E410.88405
G0 F9000 X160 Y76.849
G1 F1125 X160 Y158.14 E417.37305
G0 F9000 X161.6 Y155.547
G1 F1125 X161.6 Y79.478 E423.4452
G1 F2700 E418.4452
G0 F9000 X162.558 Y79.014
G0 X161.62 Y77.303
G0 X160.395 Y75.632
G0 X159.069 Y74.223
G0 X157.256 Y72.756
G0 X156.117 Y72.026
G0 X154.252 Y71.098
G0 X153.005 Y70.639
G0 X151.702 Y70.28
G0 X150.169 Y69.989
G0 X147.992 Y69.836
G0 X86.926 Y69.838
G0 X85.438 Y69.917
G0 X83.377 Y70.263
G0 X81.793 Y70.726
G0 X80.182 Y71.358
G0 X78.385 Y72.327
G0 X77.265 Y73.099
G0 X75.848 Y74.326
G0 X74.634 Y75.615
G0 X75.2 Y76.621
G1 F2700 E423.4452
G1 F1125 X75.2 Y158.404 E429.97348
G0 F9000 X73.6 Y155.935
G1 F1125 X73.6 Y79.052 E436.11061
G1 F2700 E431.11061
G0 F9000 X72.495 Y78.871
G0 X71.707 Y80.791
G0 X71.362 Y82.011
G0 X70.989 Y83.831
G0 X72 Y84.378
G1 F2700 E436.11061
G1 F1125 X72 Y150.634 E441.39945
G1 F2700 E436.39945
G0 F300 X72 Y150.634 Z0.54
G0 F9000 X71.034 Y151.465
G0 X71.299 Y152.773
G0 X71.716 Y154.179
G0 X72.044 Y155.031
G0 X72.688 Y156.494
G0 X73.647 Y156.03
;TIME_ELAPSED:308.591478
;LAYER:-5
;TYPE:SUPPORT
G1 F2700 E441.39945
G1 F1125 X73.74 Y156.209 E441.41958
G1 X74.174 Y156.959 E441.50604
G1 X74.268 Y157.109 E441.5237
G1 X74.759 Y157.836 E441.61124
G1 X74.882 Y158.003 E441.63193
G1 X75.428 Y158.693 E441.71973
G1 X75.535 Y158.819 E441.73622
G1 X76.135 Y159.472 E441.82471
G1 X76.272 Y159.611 E441.84418
G1 X77.013 Y160.309 E441.94576
G1 X77.103 Y160.388 E441.95771
G1 X77.489 Y160.706 E442.00761
G1 X77.485 Y160.71 E442.00817
G1 X77.612 Y160.811 E442.02436
G1 X78.372 Y161.384 E442.11933
G1 X78.486 Y161.464 E442.13323
G1 X79.239 Y161.948 E442.22255
G1 X79.415 Y162.051 E442.2429
G1 X80.188 Y162.473 E442.33077
G1 X80.331 Y162.544 E442.3467
G1 X80.675 Y162.7 E442.38439
G1 X73.307 Y155.332 E443.42409
G1 X73.266 Y155.247 E443.43351
G1 X73.19 Y155.066 E443.4531
G1 X72.715 Y153.81 E443.58709
G1 X72.662 Y153.657 E443.60324
G1 X72.583 Y153.406 E443.6295
G1 X72.499 Y153.109 E443.6603
G1 X82.901 Y163.512 E445.1282
G1 X83.205 Y163.599 E445.15975
G1 X83.427 Y163.657 E445.18265
G1 X83.519 Y163.676 E445.19202
G1 X84.718 Y163.914 E445.31399
G1 X72.083 Y151.279 E447.09693
G1 X71.972 Y150.415 E447.18384
G1 X71.957 Y150.249 E447.20048
G1 X71.932 Y149.714 E447.25392
G1 X86.291 Y164.072 E449.28006
G1 X86.992 Y164.098 E449.35005
G1 X87.73 Y164.098 E449.42369
G1 X71.9 Y148.267 E451.65754
G1 X71.9 Y146.853 E451.79863
G1 X89.144 Y164.098 E454.23202
G1 X90.559 Y164.098 E454.37321
G1 X71.9 Y145.439 E457.00619
G1 X71.9 Y144.024 E457.14738
G1 X91.973 Y164.098 E459.97997
G1 X93.387 Y164.098 E460.12106
G1 X71.9 Y142.61 E463.15318
G1 X71.9 Y141.196 E463.29427
G1 X94.801 Y164.098 E466.52592
G1 X96.216 Y164.098 E466.66711
G1 X71.9 Y139.782 E470.09836
G1 X71.9 Y138.368 E470.23945
G1 X97.63 Y164.098 E473.87023
G1 X99.044 Y164.098 E474.01132
G1 X71.9 Y136.953 E477.8417
G1 X71.9 Y135.539 E477.98279
G1 X100.458 Y164.098 E482.0127
G1 X101.872 Y164.098 E482.15379
G1 X71.9 Y134.125 E486.38323
G1 X71.9 Y132.711 E486.52432
G1 X103.287 Y164.098 E490.95337
G1 X104.701 Y164.098 E491.09446
G1 X71.9 Y131.297 E495.72303
G1 X71.9 Y129.882 E495.86422
G1 X106.115 Y164.098 E500.6924
G1 X107.529 Y164.098 E500.83349
G1 X71.9 Y128.468 E505.8612
G1 X71.9 Y127.054 E506.00228
G1 X108.943 Y164.098 E511.22952
G1 X110.358 Y164.098 E511.37071
G1 X71.9 Y125.64 E516.79755
G1 X71.9 Y124.225 E516.93874
G1 X111.772 Y164.098 E522.56518
G1 X113.186 Y164.098 E522.70627
G1 X71.9 Y122.811 E528.53224
G1 X71.9 Y121.397 E528.67333
G1 X114.6 Y164.098 E534.69883
G1 X116.015 Y164.098 E534.84002
G1 X71.9 Y119.983 E541.06513
G1 X71.9 Y118.569 E541.20621
G1 X117.429 Y164.098 E547.63085
G1 X118.843 Y164.098 E547.77194
G1 X71.9 Y117.154 E554.39617
G1 X71.9 Y115.74 E554.53726
G1 X120.257 Y164.098 E561.36103
G1 X121.671 Y164.098 E561.50212
G1 X71.9 Y114.326 E568.52541
G1 X71.9 Y112.912 E568.6665
G1 X123.086 Y164.098 E575.8894
G1 X124.5 Y164.098 E576.03049
G1 X71.9 Y111.498 E583.45292
G1 X71.9 Y110.083 E583.59411
G1 X125.914 Y164.098 E591.21614
G1 X127.328 Y164.098 E591.35723
G1 X71.9 Y108.669 E599.17879
G1 X71.9 Y107.255 E599.31988
G1 X128.742 Y164.098 E607.34097
G1 X130.157 Y164.098 E607.48216
G1 X71.9 Y105.841 E615.70285
G1 X71.9 Y104.426 E615.84404
G1 X131.571 Y164.098 E624.26433
G1 X132.985 Y164.098 E624.40542
G1 X71.9 Y103.012 E633.02524
G1 X71.9 Y101.598 E633.16633
G1 X134.399 Y164.098 E641.98569
G1 X135.813 Y164.098 E642.12678
G1 X71.9 Y100.184 E651.14566
G1 X71.9 Y98.77 E651.28675
G1 X137.228 Y164.098 E660.50524
G1 X138.642 Y164.098 E660.64633
G1 X71.9 Y97.355 E670.06442
G1 X71.9 Y95.941 E670.20551
G1 X140.056 Y164.098 E679.82312
G1 X141.47 Y164.098 E679.96421
G1 X71.9 Y94.527 E689.78136
G1 X71.9 Y93.113 E689.92245
G1 X142.885 Y164.098 E699.9392
G1 X144.299 Y164.098 E700.08029
G1 X71.9 Y91.699 E710.29657
G1 X71.9 Y90.284 E710.43776
G1 X145.713 Y164.098 E720.85364
G1 X147.127 Y164.098 E720.99473
G1 X71.9 Y88.87 E731.61015
G1 X71.9 Y87.456 E731.75124
G1 X148.518 Y164.074 E742.56286
G1 X149.249 Y164.042 E742.63587
G1 X149.417 Y164.027 E742.6527
G1 X149.831 Y163.973 E742.69436
G1 X71.9 Y86.042 E753.69127
G1 X71.9 Y86.008 E753.69466
G1 X71.936 Y85.002 E753.7951
G1 X71.945 Y84.867 E753.8086
G1 X71.965 Y84.693 E753.82608
G1 X151.04 Y163.768 E764.98442
G1 X151.351 Y163.706 E765.01606
G1 X151.51 Y163.668 E765.03237
G1 X152.168 Y163.482 E765.1006
G1 X72.137 Y83.451 E776.39384
G1 X72.322 Y82.518 E776.48875
G1 X72.361 Y82.344 E776.50654
G1 X72.379 Y82.278 E776.51336
G1 X153.227 Y163.126 E787.92189
G1 X154.073 Y162.806 E788.01214
G1 X154.246 Y162.732 E788.03092
G1 X72.697 Y81.182 E799.53843
G1 X72.713 Y81.134 E799.54348
G1 X73.02 Y80.303 E799.63188
G1 X73.078 Y80.161 E799.64718
G1 X73.081 Y80.152 E799.64813
G1 X155.195 Y162.266 E811.2353
G1 X155.209 Y162.258 E811.23691
G1 X155.96 Y161.824 E811.32346
G1 X156.087 Y161.744 E811.33843
G1 X73.527 Y79.183 E822.98861
G1 X73.947 Y78.414 E823.07604
G1 X74.029 Y78.272 E823.0924
G1 X156.928 Y161.171 E834.79035
G1 X157.003 Y161.116 E834.79963
G1 X157.698 Y160.567 E834.888
G1 X157.72 Y160.548 E834.8909
G1 X74.587 Y77.415 E846.62186
G1 X74.633 Y77.35 E846.62981
G1 X75.202 Y76.616 E846.72248
G1 X158.46 Y159.874 E858.47108
G1 X158.472 Y159.864 E858.47264
G1 X158.611 Y159.727 E858.49211
G1 X159.153 Y159.153 E858.57089
G1 X75.847 Y75.847 E870.32626
G1 X76.312 Y75.346 E870.39447
G1 X76.435 Y75.222 E870.41189
G1 X76.54 Y75.125 E870.42616
G1 X159.807 Y158.393 E882.1761
G1 X159.818 Y158.379 E882.17788
G1 X160.384 Y157.626 E882.27187
G1 X160.414 Y157.585 E882.27694
G1 X77.281 Y74.452 E894.0079
G1 X77.921 Y73.937 E894.08987
G1 X78.051 Y73.839 E894.10612
G1 X78.07 Y73.827 E894.10836
G1 X160.969 Y156.726 E905.8063
G1 X161.052 Y156.584 E905.82271
G1 X161.472 Y155.815 E905.91014
G1 X78.91 Y73.254 E917.56046
G1 X78.932 Y73.239 E917.56312
