;FLAVOR:Marlin
;TIME:8600
;Filament used: 5.56606m
;Layer height: 0.2
;MINX:74.5
;MINY:75.5
;MINZ:0.2
;MAXX:160.5
;MAXY:159.5
;MAXZ:15
;Generated with Cura_SteamEngine 4.8.0
M140 S50
M105
M190 S50
M104 S200
M105
M109 S200
M82 ;absolute extrusion mode
; Ender 3 Custom Start G-code
G92 E0 ; Reset Extruder
G28 ; Home all axes
G29 ; ABL
G1 Z2.0 F3000 ; Move Z Axis up little to prevent scratching of Heat Bed
G1 X0.1 Y20 Z0.3 F5000.0 ; Move to start position
G1 X0.1 Y200.0 Z0.3 F1500.0 E15 ; Draw the first line
G1 X0.4 Y200.0 Z0.3 F5000.0 ; Move to side a little
G1 X0.4 Y20 Z0.3 F1500.0 E30 ; Draw the second line
G92 E0 ; Reset Extruder
G1 Z2.0 F3000 ; Move Z Axis up little to prevent scratching of Heat Bed
G1 X5 Y20 Z0.3 F5000.0 ; Move over to prevent blob squish
G92 E0
G92 E0
G1 F2700 E-5
;LAYER_COUNT:75
;LAYER:0
M107
G0 F6000 X77.79 Y78.973 Z0.2
;TYPE:SKIRT
G1 F2700 E0
G1 F1200 X78.469 Y78.326 E0.03119
G1 X79.201 Y77.74 E0.06238
G1 X79.981 Y77.218 E0.0936
G1 X80.801 Y76.764 E0.12477
G1 X81.658 Y76.382 E0.15598
G1 X82.143 Y76.203 E0.17317
G1 X82.435 Y76.103 E0.18344
G1 X83.335 Y75.838 E0.21464
G1 X84.253 Y75.649 E0.24582
G1 X85.185 Y75.54 E0.27703
G1 X85.833 Y75.511 E0.2986
G1 X86.66 Y75.5 E0.32611
G1 X148.298 Y75.5 E2.3762
G1 X149.156 Y75.511 E2.40474
G1 X150.092 Y75.564 E2.43592
G1 X151.099 Y75.712 E2.46977
G1 X151.135 Y75.719 E2.47099
G1 X152.047 Y75.937 E2.50218
G1 X152.916 Y76.224 E2.53262
G1 X153.16 Y76.316 E2.54129
G1 X154.023 Y76.684 E2.5725
G1 X154.851 Y77.124 E2.60368
G1 X155.638 Y77.634 E2.63487
G1 X156.572 Y78.375 E2.67453
G1 X156.677 Y78.468 E2.67919
G1 X157.352 Y79.119 E2.71038
G1 X157.969 Y79.825 E2.74157
G1 X158.524 Y80.581 E2.77276
G1 X159.012 Y81.382 E2.80396
G1 X159.43 Y82.222 E2.83516
G1 X159.778 Y83.1 E2.86658
G1 X159.883 Y83.403 E2.87724
G1 X160.152 Y84.302 E2.90845
G1 X160.343 Y85.22 E2.93964
G1 X160.456 Y86.151 E2.97083
G1 X160.488 Y86.834 E2.99357
G1 X160.5 Y87.711 E3.02275
G1 X160.499 Y147.42 E5.00868
G1 X160.489 Y148.149 E5.03292
G1 X160.436 Y149.085 E5.06411
G1 X160.304 Y150.014 E5.09531
G1 X160.194 Y150.534 E5.11299
G1 X160.144 Y150.745 E5.12021
G1 X159.889 Y151.648 E5.15141
G1 X159.558 Y152.525 E5.18259
G1 X159.153 Y153.372 E5.21382
G1 X158.678 Y154.18 E5.24499
G1 X157.956 Y155.172 E5.2858
G1 X157.808 Y155.353 E5.29358
G1 X157.184 Y156.053 E5.32477
G1 X156.502 Y156.698 E5.35599
G1 X155.768 Y157.281 E5.38716
G1 X154.987 Y157.801 E5.41837
G1 X154.165 Y158.252 E5.44955
G1 X152.889 Y158.785 E5.49555
G1 X152.626 Y158.876 E5.5048
G1 X151.727 Y159.145 E5.53602
G1 X151.18 Y159.269 E5.55467
G1 X150.253 Y159.417 E5.58589
G1 X149.135 Y159.49 E5.62316
G1 X148.34 Y159.5 E5.6496
G1 X86.545 Y159.499 E7.70491
G1 X85.846 Y159.489 E7.72816
G1 X84.909 Y159.435 E7.75938
G1 X83.981 Y159.303 E7.79055
G1 X83.467 Y159.194 E7.80803
G1 X83.256 Y159.144 E7.81524
G1 X82.353 Y158.889 E7.84645
G1 X81.476 Y158.558 E7.87763
G1 X80.629 Y158.153 E7.90885
G1 X79.821 Y157.678 E7.94003
G1 X78.842 Y156.966 E7.98029
G1 X78.658 Y156.816 E7.98819
G1 X77.957 Y156.193 E8.01938
G1 X77.311 Y155.512 E8.0506
G1 X76.726 Y154.779 E8.08179
G1 X76.206 Y153.999 E8.11297
G1 X75.753 Y153.177 E8.14419
G1 X75.373 Y152.32 E8.17537
G1 X75.191 Y151.823 E8.19297
G1 X75.093 Y151.534 E8.20312
G1 X74.83 Y150.633 E8.23434
G1 X74.644 Y149.714 E8.26553
G1 X74.538 Y148.782 E8.29672
G1 X74.511 Y148.164 E8.3173
G1 X74.5 Y147.327 E8.34514
G1 X74.501 Y87.509 E10.33469
G1 X74.511 Y86.838 E10.35701
G1 X74.565 Y85.902 E10.3882
G1 X74.699 Y84.973 E10.41942
G1 X74.806 Y84.466 E10.43665
G1 X74.856 Y84.255 E10.44386
G1 X75.111 Y83.352 E10.47507
G1 X75.442 Y82.475 E10.50625
G1 X75.847 Y81.628 E10.53747
G1 X76.322 Y80.82 E10.56865
G1 X77.021 Y79.856 E10.60825
G1 X77.168 Y79.675 E10.61601
G1 X77.79 Y78.973 E10.6472
G0 F6000 X78.09 Y79.239
G1 F1200 X78.758 Y78.605 E10.67784
G1 X79.479 Y78.033 E10.70845
G1 X80.247 Y77.525 E10.73907
G1 X81.056 Y77.085 E10.7697
G1 X82.273 Y76.582 E10.8135
G1 X82.565 Y76.482 E10.82377
G1 X83.448 Y76.222 E10.85438
G1 X84.35 Y76.039 E10.88499
G1 X85.265 Y75.935 E10.91562
G1 X85.839 Y75.911 E10.93473
G1 X86.66 Y75.9 E10.96204
G1 X148.298 Y75.9 E13.01213
G1 X149.15 Y75.911 E13.04047
G1 X150.069 Y75.964 E13.07108
G1 X151.022 Y76.105 E13.10313
G1 X151.058 Y76.112 E13.10435
G1 X151.953 Y76.327 E13.13496
G1 X152.775 Y76.599 E13.16376
G1 X153.019 Y76.691 E13.17243
G1 X153.865 Y77.053 E13.20304
G1 X154.677 Y77.487 E13.23366
G1 X155.448 Y77.989 E13.26426
G1 X156.307 Y78.674 E13.3008
G1 X156.412 Y78.767 E13.30547
G1 X157.074 Y79.407 E13.33609
G1 X157.678 Y80.102 E13.36672
G1 X158.22 Y80.846 E13.39733
G1 X158.694 Y81.635 E13.42795
G1 X159.099 Y82.462 E13.45858
G1 X159.4 Y83.231 E13.48604
G1 X159.505 Y83.534 E13.49671
G1 X159.768 Y84.416 E13.52732
G1 X159.954 Y85.318 E13.55795
G1 X160.061 Y86.233 E13.58859
G1 X160.088 Y86.84 E13.6088
G1 X160.1 Y87.711 E13.63777
G1 X160.099 Y147.414 E15.6235
G1 X160.089 Y148.143 E15.64775
G1 X160.036 Y149.063 E15.6784
G1 X159.904 Y149.974 E15.70902
G1 X159.804 Y150.442 E15.72494
G1 X159.754 Y150.653 E15.73215
G1 X159.503 Y151.539 E15.76278
G1 X159.176 Y152.4 E15.79341
G1 X158.776 Y153.229 E15.82402
G1 X158.305 Y154.02 E15.85464
G1 X157.646 Y154.919 E15.89172
G1 X157.498 Y155.1 E15.89949
G1 X156.885 Y155.787 E15.93012
G1 X156.214 Y156.418 E15.96075
G1 X155.492 Y156.988 E15.99135
G1 X154.722 Y157.493 E16.02197
G1 X153.912 Y157.93 E16.05259
G1 X152.758 Y158.407 E16.09412
G1 X152.495 Y158.498 E16.10337
G1 X151.613 Y158.761 E16.13399
G1 X151.1 Y158.877 E16.15148
G1 X150.19 Y159.022 E16.18213
G1 X149.129 Y159.09 E16.21749
G1 X148.34 Y159.1 E16.24373
G1 X86.55 Y159.099 E18.29888
G1 X85.851 Y159.089 E18.32213
G1 X84.932 Y159.036 E18.35275
G1 X84.021 Y158.903 E18.38337
G1 X83.559 Y158.804 E18.39908
G1 X83.348 Y158.754 E18.40629
G1 X82.462 Y158.503 E18.43692
G1 X81.601 Y158.176 E18.46755
G1 X80.772 Y157.776 E18.49817
G1 X79.981 Y157.305 E18.52879
G1 X79.094 Y156.656 E18.56534
G1 X78.91 Y156.506 E18.57324
G1 X78.223 Y155.894 E18.60384
G1 X77.591 Y155.224 E18.63448
G1 X77.019 Y154.502 E18.66511
G1 X76.513 Y153.734 E18.6957
G1 X76.075 Y152.924 E18.72633
G1 X75.569 Y151.694 E18.77057
G1 X75.471 Y151.405 E18.78071
G1 X75.214 Y150.521 E18.81133
G1 X75.034 Y149.618 E18.84196
G1 X74.933 Y148.703 E18.87258
G1 X74.911 Y148.158 E18.89072
G1 X74.9 Y147.327 E18.91836
G1 X74.901 Y87.515 E20.90772
G1 X74.911 Y86.844 E20.93004
G1 X74.965 Y85.925 E20.96065
G1 X75.098 Y85.014 E20.99128
G1 X75.196 Y84.558 E21.00679
G1 X75.246 Y84.347 E21.014
G1 X75.497 Y83.461 E21.04463
G1 X75.824 Y82.6 E21.07526
G1 X76.224 Y81.771 E21.10588
G1 X76.695 Y80.98 E21.1365
G1 X77.332 Y80.108 E21.17241
G1 X77.479 Y79.927 E21.18017
G1 X78.09 Y79.239 E21.21077
G0 F6000 X78.389 Y79.504
G1 F1200 X79.046 Y78.885 E21.24079
G1 X79.756 Y78.326 E21.27085
G1 X80.512 Y77.832 E21.30089
G1 X81.309 Y77.407 E21.33093
G1 X82.402 Y76.96 E21.3702
G1 X82.694 Y76.86 E21.38047
G1 X83.561 Y76.606 E21.41052
G1 X84.446 Y76.429 E21.44054
G1 X85.344 Y76.331 E21.47058
G1 X85.845 Y76.311 E21.48726
G1 X86.66 Y76.3 E21.51437
G1 X148.298 Y76.3 E23.56446
G1 X149.144 Y76.311 E23.5926
G1 X150.046 Y76.364 E23.62265
G1 X150.946 Y76.498 E23.65291
G1 X150.982 Y76.505 E23.65413
G1 X151.86 Y76.716 E23.68417
G1 X152.634 Y76.973 E23.71129
G1 X152.878 Y77.065 E23.71997
G1 X153.708 Y77.421 E23.75
G1 X154.503 Y77.848 E23.78002
G1 X155.258 Y78.345 E23.81008
G1 X156.042 Y78.973 E23.84349
G1 X156.147 Y79.066 E23.84816
G1 X156.796 Y79.695 E23.87822
G1 X157.387 Y80.378 E23.90826
G1 X157.915 Y81.11 E23.93828
G1 X158.376 Y81.887 E23.96833
G1 X158.767 Y82.701 E23.99836
G1 X159.022 Y83.362 E24.02193
G1 X159.127 Y83.665 E24.03259
G1 X159.384 Y84.531 E24.06264
G1 X159.564 Y85.416 E24.09267
G1 X159.666 Y86.313 E24.1227
G1 X159.688 Y86.846 E24.14044
G1 X159.7 Y87.711 E24.16922
G1 X159.699 Y147.409 E26.15478
G1 X159.689 Y148.138 E26.17903
G1 X159.637 Y149.039 E26.20905
G1 X159.415 Y150.35 E26.25327
G1 X159.365 Y150.561 E26.26048
G1 X159.118 Y151.43 E26.29053
G1 X158.795 Y152.273 E26.32056
G1 X158.399 Y153.085 E26.35061
G1 X157.933 Y153.858 E26.38063
G1 X157.336 Y154.666 E26.41404
G1 X157.188 Y154.847 E26.42182
G1 X156.586 Y155.52 E26.45185
G1 X155.927 Y156.137 E26.48187
G1 X155.216 Y156.694 E26.51191
G1 X154.458 Y157.185 E26.54195
G1 X153.66 Y157.607 E26.57198
G1 X152.627 Y158.029 E26.60909
G1 X152.364 Y158.12 E26.61835
G1 X151.069 Y158.475 E26.66301
G1 X151.02 Y158.485 E26.66467
G1 X150.128 Y158.626 E26.69471
G1 X149.123 Y158.69 E26.7282
G1 X148.34 Y158.7 E26.75425
G1 X86.556 Y158.699 E28.80919
G1 X85.857 Y158.689 E28.83244
G1 X84.956 Y158.636 E28.86246
G1 X83.651 Y158.415 E28.90648
G1 X83.44 Y158.365 E28.9137
G1 X82.571 Y158.118 E28.94374
G1 X81.728 Y157.795 E28.97377
G1 X80.916 Y157.399 E29.00382
G1 X80.143 Y156.933 E29.03384
G1 X79.347 Y156.346 E29.06673
G1 X79.163 Y156.196 E29.07463
G1 X78.489 Y155.595 E29.10467
G1 X77.871 Y154.936 E29.13471
G1 X77.313 Y154.226 E29.16475
G1 X76.821 Y153.469 E29.19478
G1 X76.397 Y152.671 E29.22483
G1 X75.948 Y151.566 E29.2645
G1 X75.85 Y151.277 E29.27465
G1 X75.598 Y150.409 E29.30471
G1 X75.424 Y149.523 E29.33475
G1 X75.329 Y148.625 E29.36478
G1 X75.311 Y148.152 E29.38052
G1 X75.3 Y147.327 E29.40797
G1 X75.301 Y87.521 E31.39712
G1 X75.311 Y86.85 E31.41944
G1 X75.365 Y85.948 E31.4495
G1 X75.585 Y84.65 E31.49328
G1 X75.635 Y84.439 E31.5005
G1 X75.882 Y83.57 E31.53054
G1 X76.205 Y82.727 E31.56057
G1 X76.601 Y81.915 E31.59062
G1 X77.067 Y81.142 E31.62064
G1 X77.642 Y80.361 E31.65289
G1 X77.789 Y80.18 E31.66065
G1 X78.389 Y79.504 E31.69071
G1 F2700 E26.69071
;MESH:a32f0605-6718-41ee-9c1b-87a9802c9e62.stl
G0 F6000 X85.711 Y85.895
G0 X86.041 Y86.92
G0 X148.718 Y87.282
G0 X148.9 Y147.9
;TYPE:WALL-INNER
G1 F2700 E31.69071
G1 F1200 X86.1 Y147.9 E33.77945
G1 X86.1 Y87.1 E35.80167
G1 X148.9 Y87.1 E37.8904
G1 X148.9 Y147.9 E39.91262
G0 F6000 X149.169 Y148.24
;TYPE:WALL-OUTER
G1 F1200 X148.998 Y148.3 E39.91865
G1 X86.019 Y148.3 E42.01334
G1 X85.866 Y148.262 E42.01858
G1 X85.76 Y148.169 E42.02327
G1 X85.7 Y148 E42.02923
G1 X85.7 Y87.019 E44.05747
G1 X85.738 Y86.866 E44.06271
G1 X85.831 Y86.76 E44.0674
G1 X86.002 Y86.7 E44.07343
G1 X148.981 Y86.7 E46.16812
G1 X149.137 Y86.738 E46.17346
G1 X149.238 Y86.826 E46.17792
G1 X149.3 Y87 E46.18406
G1 X149.3 Y147.981 E48.2123
G1 X149.262 Y148.134 E48.21754
G1 X149.169 Y148.24 E48.22223
G0 F6000 X148.86 Y147.876
G0 X148.51 Y147.51
;TYPE:SKIN
G1 F1200 X86.49 Y147.51 E50.28502
G1 X86.49 Y87.49 E52.2813
G1 X148.51 Y87.49 E54.34409
G1 X148.51 Y147.51 E56.34036
G1 F2700 E51.34036
G0 F6000 X148.79 Y147.51
G0 X148.79 Y87.821
G0 X148.349 Y87.821
G1 F2700 E56.34036
G1 F1200 X148.178 Y87.65 E56.34841
G0 F6000 X147.612 Y87.65
G1 F1200 X148.349 Y88.386 E56.38305
G0 F6000 X148.349 Y88.952
G1 F1200 X147.047 Y87.65 E56.44429
G0 F6000 X146.481 Y87.65
G1 F1200 X148.349 Y89.518 E56.53216
G0 F6000 X148.349 Y90.083
G1 F1200 X145.915 Y87.65 E56.64662
G0 F6000 X145.35 Y87.65
G1 F1200 X148.349 Y90.649 E56.78769
G0 F6000 X148.349 Y91.215
G1 F1200 X144.784 Y87.65 E56.95537
G0 F6000 X144.218 Y87.65
G1 F1200 X148.349 Y91.781 E57.14968
G0 F6000 X148.349 Y92.346
G1 F1200 X143.652 Y87.65 E57.37059
G0 F6000 X143.087 Y87.65
G1 F1200 X148.349 Y92.912 E57.6181
G0 F6000 X148.349 Y93.478
G1 F1200 X142.521 Y87.65 E57.89223
G0 F6000 X141.955 Y87.65
G1 F1200 X148.349 Y94.043 E58.19296
G0 F6000 X148.349 Y94.609
G1 F1200 X141.39 Y87.65 E58.52029
G0 F6000 X140.824 Y87.65
G1 F1200 X148.349 Y95.175 E58.87424
G0 F6000 X148.349 Y95.74
G1 F1200 X140.258 Y87.65 E59.2548
G0 F6000 X139.693 Y87.65
G1 F1200 X148.349 Y96.306 E59.66195
G0 F6000 X148.349 Y96.872
G1 F1200 X139.127 Y87.65 E60.09572
G0 F6000 X138.561 Y87.65
G1 F1200 X148.349 Y97.437 E60.5561
G0 F6000 X148.349 Y98.003
G1 F1200 X137.996 Y87.65 E61.04307
G0 F6000 X137.43 Y87.65
G1 F1200 X148.349 Y98.569 E61.55667
G0 F6000 X148.349 Y99.134
G1 F1200 X136.864 Y87.65 E62.09686
G0 F6000 X136.299 Y87.65
G1 F1200 X148.349 Y99.7 E62.66366
G0 F6000 X148.349 Y100.266
G1 F1200 X135.733 Y87.65 E63.25708
G0 F6000 X135.167 Y87.65
G1 F1200 X148.349 Y100.832 E63.87712
G0 F6000 X148.349 Y101.397
G1 F1200 X134.602 Y87.65 E64.52373
G0 F6000 X134.036 Y87.65
G1 F1200 X148.349 Y101.963 E65.19697
G0 F6000 X148.349 Y102.529
G1 F1200 X133.47 Y87.65 E65.89683
G0 F6000 X132.904 Y87.65
G1 F1200 X148.349 Y103.094 E66.6233
G0 F6000 X148.349 Y103.66
G1 F1200 X132.339 Y87.65 E67.37636
G0 F6000 X131.773 Y87.65
G1 F1200 X148.349 Y104.226 E68.15604
G0 F6000 X148.349 Y104.791
G1 F1200 X131.207 Y87.65 E68.96233
G0 F6000 X130.642 Y87.65
G1 F1200 X148.349 Y105.357 E69.79521
G0 F6000 X148.349 Y105.923
G1 F1200 X130.076 Y87.65 E70.65471
G0 F6000 X129.51 Y87.65
G1 F1200 X148.349 Y106.488 E71.54082
G0 F6000 X148.349 Y107.054
G1 F1200 X128.945 Y87.65 E72.45352
G0 F6000 X128.379 Y87.65
G1 F1200 X148.349 Y107.62 E73.39285
G0 F6000 X148.349 Y108.185
G1 F1200 X127.813 Y87.65 E74.35878
G0 F6000 X127.248 Y87.65
G1 F1200 X148.349 Y108.751 E75.35131
G0 F6000 X148.349 Y109.317
G1 F1200 X126.682 Y87.65 E76.37045
G0 F6000 X126.116 Y87.65
G1 F1200 X148.349 Y109.882 E77.4162
G0 F6000 X148.349 Y110.448
G1 F1200 X125.551 Y87.65 E78.48855
G0 F6000 X124.985 Y87.65
G1 F1200 X148.349 Y111.014 E79.58752
G0 F6000 X148.349 Y111.58
G1 F1200 X124.419 Y87.65 E80.71312
G0 F6000 X123.853 Y87.65
G1 F1200 X148.349 Y112.145 E81.86531
G0 F6000 X148.349 Y112.711
G1 F1200 X123.288 Y87.65 E83.0441
G0 F6000 X122.722 Y87.65
G1 F1200 X148.349 Y113.277 E84.24952
G0 F6000 X148.349 Y113.842
G1 F1200 X122.156 Y87.65 E85.48153
G0 F6000 X121.591 Y87.65
G1 F1200 X148.349 Y114.408 E86.74015
G0 F6000 X148.349 Y114.974
G1 F1200 X121.025 Y87.65 E88.02538
G0 F6000 X120.459 Y87.65
G1 F1200 X148.349 Y115.539 E89.33722
G0 F6000 X148.349 Y116.105
G1 F1200 X119.894 Y87.65 E90.67566
G0 F6000 X119.328 Y87.65
G1 F1200 X148.349 Y116.671 E92.04072
G0 F6000 X148.349 Y117.236
G1 F1200 X118.762 Y87.65 E93.43237
G0 F6000 X118.197 Y87.65
G1 F1200 X148.349 Y117.802 E94.85063
G0 F6000 X148.349 Y118.368
G1 F1200 X117.631 Y87.65 E96.29551
G0 F6000 X117.065 Y87.65
G1 F1200 X148.349 Y118.933 E97.76699
G0 F6000 X148.349 Y119.499
G1 F1200 X116.5 Y87.65 E99.26507
G0 F6000 X115.934 Y87.65
G1 F1200 X148.349 Y120.065 E100.78977
G0 F6000 X148.349 Y120.631
G1 F1200 X115.368 Y87.65 E102.3411
G0 F6000 X114.803 Y87.65
G1 F1200 X148.349 Y121.196 E103.919
G0 F6000 X148.349 Y121.762
G1 F1200 X114.237 Y87.65 E105.52352
G0 F6000 X113.671 Y87.65
G1 F1200 X148.349 Y122.328 E107.15467
G0 F6000 X148.349 Y122.893
G1 F1200 X113.105 Y87.65 E108.81242
G0 F6000 X112.54 Y87.65
G1 F1200 X148.349 Y123.459 E110.49676
G0 F6000 X148.349 Y124.025
G1 F1200 X111.974 Y87.65 E112.20773
G0 F6000 X111.408 Y87.65
G1 F1200 X148.349 Y124.59 E113.9453
G0 F6000 X148.349 Y125.156
G1 F1200 X110.843 Y87.65 E115.70947
G0 F6000 X110.277 Y87.65
G1 F1200 X148.349 Y125.722 E117.50026
G0 F6000 X148.349 Y126.287
G1 F1200 X109.711 Y87.65 E119.31765
G0 F6000 X109.146 Y87.65
G1 F1200 X148.349 Y126.853 E121.16163
G0 F6000 X148.349 Y127.419
G1 F1200 X108.58 Y87.65 E123.03225
G0 F6000 X108.014 Y87.65
G1 F1200 X148.349 Y127.984 E124.92946
G0 F6000 X148.349 Y128.55
G1 F1200 X107.449 Y87.65 E126.85327
G0 F6000 X106.883 Y87.65
G1 F1200 X148.349 Y129.116 E128.8037
G0 F6000 X148.349 Y129.681
G1 F1200 X106.317 Y87.65 E130.78073
G0 F6000 X105.752 Y87.65
G1 F1200 X148.349 Y130.247 E132.78437
G0 F6000 X148.349 Y130.813
G1 F1200 X105.186 Y87.65 E134.81462
G0 F6000 X104.62 Y87.65
G1 F1200 X148.349 Y131.379 E136.8715
G0 F6000 X148.349 Y131.944
G1 F1200 X104.055 Y87.65 E138.95495
G0 F6000 X103.489 Y87.65
G1 F1200 X148.349 Y132.51 E141.06503
G0 F6000 X148.349 Y133.076
G1 F1200 X102.923 Y87.65 E143.20173
G0 F6000 X102.357 Y87.65
G1 F1200 X148.349 Y133.641 E145.36503
G0 F6000 X148.349 Y134.207
G1 F1200 X101.792 Y87.65 E147.55493
G0 F6000 X101.226 Y87.65
G1 F1200 X148.349 Y134.773 E149.77145
G0 F6000 X148.349 Y135.338
G1 F1200 X100.66 Y87.65 E152.01457
G0 F6000 X100.095 Y87.65
G1 F1200 X148.349 Y135.904 E154.28429
G0 F6000 X148.349 Y136.47
G1 F1200 X99.529 Y87.65 E156.58063
G0 F6000 X98.963 Y87.65
G1 F1200 X148.349 Y137.035 E158.90358
G0 F6000 X148.349 Y137.601
G1 F1200 X98.398 Y87.65 E161.25312
G0 F6000 X97.832 Y87.65
