;FLAVOR:Marlin
;TIME:12003
;Filament used: 7.51441m
;Layer height: 0.2
;MINX:70.835
;MINY:69.836
;MINZ:0.24
;MAXX:164.161
;MAXY:165.136
;MAXZ:16.09
;Generated with Cura_SteamEngine 4.8.0
M140 S60
M105
M190 S60
M104 S190
M105
M109 S190
M82 ;absolute extrusion mode
; Ender 3 Custom Start G-code
G92 E0 ; Reset Extruder
G28 ; Home all axes
M420 S1  ; use saved bed leveling
G1 Z2.0 F3000 ; Move Z Axis up little to prevent scratching of Heat Bed
G1 X0.1 Y20 Z0.3 F5000.0 ; Move to start position
G1 X0.1 Y200.0 Z0.3 F1500.0 E15 ; Draw the first line
G1 X0.4 Y200.0 Z0.3 F5000.0 ; Move to side a little
G1 X0.4 Y20 Z0.3 F1500.0 E30 ; Draw the second line
G92 E0 ; Reset Extruder
G1 Z2.0 F3000 ; Move Z Axis up little to prevent scratching of Heat Bed
G1 X5 Y20 Z0.3 F5000.0 ; Move over to prevent blob squish
G92 E0
G92 E0
G1 F2700 E-5
;LAYER_COUNT:75
;LAYER:-6
M107
G0 F9000 X76.313 Y75.346 Z0.24
;TYPE:SUPPORT-INTERFACE
G1 F2700 E0
G1 F900 X76.436 Y75.222 E0.01394
G1 X77.088 Y74.616 E0.085
G1 X77.228 Y74.495 E0.09977
G1 X77.922 Y73.937 E0.17085
G1 X78.052 Y73.84 E0.1838
G1 X78.778 Y73.339 E0.25421
G1 X78.934 Y73.239 E0.269
G1 X79.683 Y72.8 E0.3383
G1 X79.872 Y72.7 E0.35537
G1 X81.106 Y72.115 E0.46438
G1 X81.306 Y72.029 E0.48176
G1 X81.414 Y71.987 E0.49101
G1 X82.268 Y71.671 E0.5637
G1 X82.457 Y71.609 E0.57958
G1 X83.274 Y71.373 E0.64746
G1 X83.498 Y71.317 E0.66589
G1 X84.344 Y71.138 E0.73492
G1 X84.507 Y71.11 E0.74812
G1 X85.39 Y70.99 E0.81925
G1 X85.571 Y70.972 E0.83377
G1 X86.621 Y70.912 E0.91772
G1 X86.723 Y70.908 E0.92587
G1 X87.254 Y70.9 E0.96826
G1 X148.008 Y70.901 E5.81791
G1 X149.009 Y70.937 E5.89787
G1 X149.132 Y70.946 E5.90771
G1 X150.038 Y71.046 E5.98047
G1 X150.232 Y71.075 E5.99613
G1 X151.481 Y71.322 E6.09776
G1 X151.572 Y71.342 E6.1052
G1 X151.794 Y71.4 E6.12351
G1 X152.701 Y71.66 E6.19883
G1 X152.844 Y71.706 E6.21082
G1 X153.696 Y72.02 E6.2833
G1 X153.837 Y72.078 E6.29547
G1 X154.666 Y72.454 E6.36814
G1 X154.811 Y72.526 E6.38106
G1 X155.585 Y72.947 E6.45139
G1 X155.76 Y73.051 E6.46764
G1 X156.501 Y73.527 E6.53794
G1 X156.627 Y73.615 E6.55021
G1 X157.379 Y74.18 E6.62529
G1 X157.515 Y74.289 E6.63921
G1 X157.511 Y74.293 E6.63966
G1 X157.896 Y74.611 E6.67952
G1 X158.053 Y74.752 E6.69636
G1 X158.728 Y75.388 E6.77039
G1 X158.863 Y75.525 E6.78575
G1 X159.455 Y76.17 E6.85563
G1 X159.568 Y76.302 E6.8695
G1 X160.117 Y76.996 E6.94014
G1 X160.24 Y77.163 E6.9567
G1 X160.724 Y77.877 E7.02555
G1 X160.826 Y78.04 E7.0409
G1 X161.259 Y78.79 E7.11003
G1 X161.353 Y78.968 E7.1261
G1 X161.731 Y79.748 E7.19529
G1 X161.804 Y79.918 E7.21006
G1 X162.281 Y81.178 E7.3176
G1 X162.335 Y81.334 E7.33078
G1 X162.409 Y81.567 E7.35029
G1 X162.667 Y82.482 E7.42618
G1 X162.707 Y82.646 E7.43965
G1 X162.887 Y83.533 E7.5119
G1 X162.912 Y83.683 E7.52404
G1 X163.028 Y84.583 E7.59648
G1 X163.042 Y84.739 E7.60898
G1 X163.097 Y85.949 E7.70567
G1 X163.1 Y86.065 E7.71493
G1 X163.1 Y148.991 E12.73795
G1 X163.064 Y149.996 E12.81823
G1 X163.055 Y150.115 E12.82776
G1 X162.954 Y151.038 E12.90187
G1 X162.925 Y151.232 E12.91753
G1 X162.678 Y152.481 E13.01916
G1 X162.638 Y152.655 E13.03341
G1 X162.602 Y152.787 E13.04434
G1 X162.34 Y153.701 E13.12023
G1 X162.299 Y153.83 E13.13104
G1 X161.98 Y154.696 E13.20471
G1 X161.922 Y154.837 E13.21688
G1 X161.546 Y155.666 E13.28954
G1 X161.475 Y155.81 E13.30236
G1 X161.053 Y156.585 E13.3728
G1 X160.949 Y156.76 E13.38905
G1 X160.473 Y157.501 E13.45935
G1 X160.385 Y157.627 E13.47162
G1 X159.82 Y158.379 E13.5467
G1 X159.711 Y158.515 E13.56061
G1 X159.707 Y158.511 E13.56106
G1 X159.389 Y158.896 E13.60092
G1 X159.248 Y159.053 E13.61777
G1 X158.612 Y159.728 E13.6918
G1 X158.473 Y159.865 E13.70738
G1 X157.83 Y160.455 E13.77704
G1 X157.698 Y160.568 E13.79091
G1 X157.004 Y161.117 E13.86155
G1 X156.84 Y161.238 E13.87781
G1 X156.123 Y161.724 E13.94696
G1 X155.961 Y161.825 E13.9622
G1 X155.21 Y162.259 E14.03143
G1 X155.032 Y162.353 E14.0475
G1 X154.252 Y162.731 E14.11669
G1 X154.074 Y162.807 E14.13214
G1 X152.822 Y163.281 E14.239
G1 X152.666 Y163.335 E14.25218
G1 X152.426 Y163.411 E14.27228
G1 X151.511 Y163.669 E14.34816
G1 X151.352 Y163.707 E14.36121
G1 X150.454 Y163.889 E14.43435
G1 X150.317 Y163.912 E14.44544
G1 X149.417 Y164.028 E14.51788
G1 X149.25 Y164.043 E14.53126
G1 X148.043 Y164.097 E14.62771
G1 X147.925 Y164.1 E14.63713
G1 X86.992 Y164.099 E19.50107
G1 X85.991 Y164.063 E19.58102
G1 X85.868 Y164.054 E19.59087
G1 X84.962 Y163.954 E19.66363
G1 X84.768 Y163.925 E19.67928
G1 X83.519 Y163.678 E19.78092
G1 X83.428 Y163.658 E19.78835
G1 X83.206 Y163.6 E19.80667
G1 X82.299 Y163.34 E19.88199
G1 X82.156 Y163.294 E19.89398
G1 X81.304 Y162.98 E19.96646
G1 X81.163 Y162.922 E19.97863
G1 X80.332 Y162.545 E20.05147
G1 X80.189 Y162.474 E20.06421
G1 X79.415 Y162.053 E20.13455
G1 X79.24 Y161.949 E20.1508
G1 X78.487 Y161.465 E20.22225
G1 X78.373 Y161.385 E20.23337
G1 X77.612 Y160.813 E20.30936
G1 X77.485 Y160.711 E20.32236
G1 X77.489 Y160.707 E20.32281
G1 X77.104 Y160.389 E20.36267
G1 X77.014 Y160.31 E20.37223
G1 X76.272 Y159.612 E20.45355
G1 X76.135 Y159.473 E20.46913
G1 X75.536 Y158.82 E20.53986
G1 X75.429 Y158.694 E20.55306
G1 X74.883 Y158.004 E20.6233
G1 X74.76 Y157.837 E20.63985
G1 X74.268 Y157.111 E20.70986
G1 X74.174 Y156.96 E20.72406
G1 X73.741 Y156.21 E20.79319
G1 X73.647 Y156.032 E20.80925
G1 X73.267 Y155.248 E20.8788
G1 X73.19 Y155.067 E20.8945
G1 X72.715 Y153.811 E21.00169
G1 X72.662 Y153.658 E21.01462
G1 X72.583 Y153.407 E21.03562
G1 X72.331 Y152.511 E21.10992
G1 X72.293 Y152.353 E21.12289
G1 X72.111 Y151.455 E21.19603
G1 X72.088 Y151.317 E21.2072
G1 X71.972 Y150.417 E21.27963
G1 X71.957 Y150.25 E21.29302
G1 X71.903 Y149.043 E21.38946
G1 X71.9 Y148.923 E21.39905
G1 X71.9 Y86.009 E26.42111
G1 X71.936 Y85.003 E26.50147
G1 X71.946 Y84.868 E26.51227
G1 X72.046 Y83.962 E26.58503
G1 X72.076 Y83.765 E26.60094
G1 X72.322 Y82.519 E26.70232
G1 X72.362 Y82.345 E26.71657
G1 X72.398 Y82.213 E26.72749
G1 X72.66 Y81.299 E26.80339
G1 X72.714 Y81.135 E26.81717
G1 X73.02 Y80.304 E26.88786
G1 X73.078 Y80.163 E26.90003
G1 X73.454 Y79.334 E26.9727
G1 X73.526 Y79.189 E26.98562
G1 X73.947 Y78.415 E27.05595
G1 X74.051 Y78.24 E27.0722
G1 X74.517 Y77.515 E27.141
G1 X74.634 Y77.351 E27.15708
G1 X75.464 Y76.281 E27.26518
G1 X75.538 Y76.19 E27.27454
G1 X75.685 Y76.023 E27.2923
G1 X76.313 Y75.346 E27.36601
G0 F9000 X76.8 Y74.883
G1 F900 X76.8 Y160.108 E34.16904
G0 F9000 X78.4 Y161.403
G1 F900 X78.4 Y73.599 E41.17793
G0 F9000 X80 Y72.639
G1 F900 X80 Y162.371 E48.34073
G0 F9000 X81.6 Y163.089
G1 F900 X81.6 Y71.918 E55.61839
G0 F9000 X83.2 Y71.394
G1 F900 X83.2 Y163.598 E62.97851
G0 F9000 X84.8 Y163.929
G1 F900 X84.8 Y71.07 E70.39092
G0 F9000 X86.4 Y70.924
G1 F900 X86.4 Y164.077 E77.8268
G0 F9000 X88 Y164.099
G1 F900 X88 Y70.901 E85.26626
G0 F9000 X89.6 Y70.901
G1 F900 X89.6 Y164.099 E92.70573
G0 F9000 X91.2 Y164.099
G1 F900 X91.2 Y70.901 E100.1452
G0 F9000 X92.8 Y70.901
G1 F900 X92.8 Y164.099 E107.58467
G0 F9000 X94.4 Y164.099
G1 F900 X94.4 Y70.901 E115.02413
G0 F9000 X96 Y70.901
G1 F900 X96 Y164.099 E122.4636
G0 F9000 X97.6 Y164.099
G1 F900 X97.6 Y70.901 E129.90307
G0 F9000 X99.2 Y70.901
G1 F900 X99.2 Y164.099 E137.34253
G0 F9000 X100.8 Y164.099
G1 F900 X100.8 Y70.901 E144.782
G0 F9000 X102.4 Y70.901
G1 F900 X102.4 Y164.099 E152.22147
G0 F9000 X104 Y164.099
G1 F900 X104 Y70.901 E159.66094
G0 F9000 X105.6 Y70.901
G1 F900 X105.6 Y164.099 E167.1004
G0 F9000 X107.2 Y164.099
G1 F900 X107.2 Y70.901 E174.53987
G0 F9000 X108.8 Y70.901
G1 F900 X108.8 Y164.099 E181.97934
G0 F9000 X110.4 Y164.099
G1 F900 X110.4 Y70.901 E189.41881
G0 F9000 X112 Y70.901
G1 F900 X112 Y164.099 E196.85827
G0 F9000 X113.6 Y164.099
G1 F900 X113.6 Y70.901 E204.29774
G0 F9000 X115.2 Y70.901
G1 F900 X115.2 Y164.099 E211.73721
G0 F9000 X116.8 Y164.099
G1 F900 X116.8 Y70.901 E219.17668
G0 F9000 X118.4 Y70.901
G1 F900 X118.4 Y164.099 E226.61614
G0 F9000 X120 Y164.099
G1 F900 X120 Y70.901 E234.05561
G0 F9000 X121.6 Y70.901
G1 F900 X121.6 Y164.099 E241.49508
G0 F9000 X123.2 Y164.099
G1 F900 X123.2 Y70.901 E248.93455
G0 F9000 X124.8 Y70.901
G1 F900 X124.8 Y164.099 E256.37401
G0 F9000 X126.4 Y164.099
G1 F900 X126.4 Y70.901 E263.81348
G0 F9000 X128 Y70.901
G1 F900 X128 Y164.099 E271.25295
G0 F9000 X129.6 Y164.099
G1 F900 X129.6 Y70.901 E278.69241
G0 F9000 X131.2 Y70.901
G1 F900 X131.2 Y164.099 E286.13188
G0 F9000 X132.8 Y164.099
G1 F900 X132.8 Y70.901 E293.57135
G0 F9000 X134.4 Y70.901
G1 F900 X134.4 Y164.099 E301.01082
G0 F9000 X136 Y164.099
G1 F900 X136 Y70.901 E308.45028
G0 F9000 X137.6 Y70.901
G1 F900 X137.6 Y164.099 E315.88975
G0 F9000 X139.2 Y164.099
G1 F900 X139.2 Y70.901 E323.32922
G0 F9000 X140.8 Y70.901
G1 F900 X140.8 Y164.099 E330.76869
G0 F9000 X142.4 Y164.099
G1 F900 X142.4 Y70.901 E338.20815
G0 F9000 X144 Y70.901
G1 F900 X144 Y164.099 E345.64762
G0 F9000 X145.6 Y164.099
G1 F900 X145.6 Y70.901 E353.08709
G0 F9000 X147.2 Y70.901
G1 F900 X147.2 Y164.099 E360.52656
G0 F9000 X148.8 Y164.064
G1 F900 X148.8 Y70.93 E367.96091
G0 F9000 X150.4 Y71.109
G1 F900 X150.4 Y163.899 E375.36781
G0 F9000 X152 Y163.532
G1 F900 X152 Y71.46 E382.7174
G0 F9000 X153.6 Y71.985
G1 F900 X153.6 Y162.987 E389.98157
G0 F9000 X155.2 Y162.265
G1 F900 X155.2 Y72.738 E397.128
G0 F9000 X156.8 Y73.745
G1 F900 X156.8 Y161.266 E404.11431
G0 F9000 X158.4 Y159.932
G1 F900 X158.4 Y75.079 E410.88764
G0 F9000 X160 Y76.849
G1 F900 X160 Y158.14 E417.37664
G0 F9000 X161.6 Y155.547
G1 F900 X161.6 Y79.478 E423.4488
G1 F2700 E418.4488
G0 F9000 X162.558 Y79.014
G0 X161.62 Y77.303
G0 X160.395 Y75.632
G0 X159.069 Y74.223
G0 X157.256 Y72.756
G0 X156.117 Y72.026
G0 X154.252 Y71.098
G0 X153.005 Y70.639
G0 X151.702 Y70.28
G0 X150.169 Y69.989
G0 X147.992 Y69.836
G0 X86.573 Y69.849
G0 X85.271 Y69.932
G0 X83.253 Y70.282
G0 X81.924 Y70.664
G0 X80.671 Y71.143
G0 X79.173 Y71.866
G0 X77.439 Y72.97
G0 X76.383 Y73.819
G0 X75.493 Y74.715
G0 X74.634 Y75.615
G0 X75.2 Y76.621
G1 F2700 E423.4488
G1 F900 X75.2 Y158.404 E429.97707
G0 F9000 X73.6 Y155.935
G1 F900 X73.6 Y79.052 E436.1142
G1 F2700 E431.1142
G0 F9000 X72.495 Y78.871
G0 X71.707 Y80.791
G0 X71.362 Y82.011
G0 X70.989 Y83.831
G0 X72 Y84.378
G1 F2700 E436.1142
G1 F900 X72 Y150.634 E441.40304
G1 F2700 E436.40304
G0 F300 X72 Y150.634 Z0.54
G0 F9000 X71.034 Y151.465
G0 X71.299 Y152.773
G0 X71.716 Y154.179
G0 X72.044 Y155.031
G0 X72.688 Y156.494
G0 X73.647 Y156.03
;TIME_ELAPSED:381.989032
;LAYER:-5
;TYPE:SUPPORT
G1 F2700 E441.40304
G1 F900 X73.74 Y156.209 E441.42317
G1 X74.174 Y156.959 E441.50963
G1 X74.268 Y157.109 E441.5273
G1 X74.759 Y157.836 E441.61483
G1 X74.882 Y158.003 E441.63553
G1 X75.428 Y158.693 E441.72332
G1 X75.535 Y158.819 E441.73982
G1 X76.135 Y159.472 E441.8283
G1 X76.272 Y159.611 E441.84778
G1 X77.013 Y160.309 E441.94935
G1 X77.103 Y160.388 E441.9613
G1 X77.489 Y160.706 E442.0112
G1 X77.485 Y160.71 E442.01177
G1 X77.612 Y160.811 E442.02796
G1 X78.372 Y161.384 E442.12293
G1 X78.486 Y161.464 E442.13682
G1 X79.239 Y161.948 E442.22614
G1 X79.415 Y162.051 E442.24649
G1 X80.188 Y162.473 E442.33436
G1 X80.331 Y162.544 E442.35029
G1 X80.675 Y162.7 E442.38798
G1 X73.307 Y155.332 E443.42769
G1 X73.266 Y155.247 E443.4371
G1 X73.19 Y155.066 E443.45669
G1 X72.715 Y153.81 E443.59068
G1 X72.662 Y153.657 E443.60684
G1 X72.583 Y153.406 E443.63309
G1 X72.499 Y153.109 E443.66389
G1 X82.901 Y163.512 E445.13179
G1 X83.205 Y163.599 E445.16335
G1 X83.427 Y163.657 E445.18624
G1 X83.519 Y163.676 E445.19561
G1 X84.718 Y163.914 E445.31758
G1 X72.083 Y151.279 E447.10052
G1 X71.972 Y150.415 E447.18744
G1 X71.957 Y150.249 E447.20407
G1 X71.932 Y149.714 E447.25751
G1 X86.291 Y164.072 E449.28365
G1 X86.992 Y164.098 E449.35364
G1 X87.73 Y164.098 E449.42728
G1 X71.9 Y148.267 E451.66114
G1 X71.9 Y146.853 E451.80223
G1 X89.144 Y164.098 E454.23561
G1 X90.559 Y164.098 E454.3768
G1 X71.9 Y145.439 E457.00979
G1 X71.9 Y144.024 E457.15098
G1 X91.973 Y164.098 E459.98356
G1 X93.387 Y164.098 E460.12465
G1 X71.9 Y142.61 E463.15677
G1 X71.9 Y141.196 E463.29786
G1 X94.801 Y164.098 E466.52951
G1 X96.216 Y164.098 E466.6707
G1 X71.9 Y139.782 E470.10195
G1 X71.9 Y138.368 E470.24304
G1 X97.63 Y164.098 E473.87382
G1 X99.044 Y164.098 E474.01491
G1 X71.9 Y136.953 E477.84529
G1 X71.9 Y135.539 E477.98638
G1 X100.458 Y164.098 E482.01629
G1 X101.872 Y164.098 E482.15738
G1 X71.9 Y134.125 E486.38683
G1 X71.9 Y132.711 E486.52792
G1 X103.287 Y164.098 E490.95696
G1 X104.701 Y164.098 E491.09805
G1 X71.9 Y131.297 E495.72663
G1 X71.9 Y129.882 E495.86782
G1 X106.115 Y164.098 E500.69599
G1 X107.529 Y164.098 E500.83708
G1 X71.9 Y128.468 E505.86479
G1 X71.9 Y127.054 E506.00588
G1 X108.943 Y164.098 E511.23312
G1 X110.358 Y164.098 E511.37431
G1 X71.9 Y125.64 E516.80114
G1 X71.9 Y124.225 E516.94233
G1 X111.772 Y164.098 E522.56877
G1 X113.186 Y164.098 E522.70986
G1 X71.9 Y122.811 E528.53583
G1 X71.9 Y121.397 E528.67692
G1 X114.6 Y164.098 E534.70243
G1 X116.015 Y164.098 E534.84362
G1 X71.9 Y119.983 E541.06872
G1 X71.9 Y118.569 E541.20981
G1 X117.429 Y164.098 E547.63444
G1 X118.843 Y164.098 E547.77553
G1 X71.9 Y117.154 E554.39977
G1 X71.9 Y115.74 E554.54086
G1 X120.257 Y164.098 E561.36462
G1 X121.671 Y164.098 E561.50571
G1 X71.9 Y114.326 E568.52901
G1 X71.9 Y112.912 E568.6701
G1 X123.086 Y164.098 E575.89299
G1 X124.5 Y164.098 E576.03408
G1 X71.9 Y111.498 E583.45651
G1 X71.9 Y110.083 E583.5977
G1 X125.914 Y164.098 E591.21973
G1 X127.328 Y164.098 E591.36082
G1 X71.9 Y108.669 E599.18238
G1 X71.9 Y107.255 E599.32347
G1 X128.742 Y164.098 E607.34456
G1 X130.157 Y164.098 E607.48575
G1 X71.9 Y105.841 E615.70644
G1 X71.9 Y104.426 E615.84763
G1 X131.571 Y164.098 E624.26792
G1 X132.985 Y164.098 E624.40901
G1 X71.9 Y103.012 E633.02884
G1 X71.9 Y101.598 E633.16993
G1 X134.399 Y164.098 E641.98928
G1 X135.813 Y164.098 E642.13037
G1 X71.9 Y100.184 E651.14926
G1 X71.9 Y98.77 E651.29035
G1 X137.228 Y164.098 E660.50883
G1 X138.642 Y164.098 E660.64992
G1 X71.9 Y97.355 E670.06801
G1 X71.9 Y95.941 E670.2091
G1 X140.056 Y164.098 E679.82672
G1 X141.47 Y164.098 E679.96781
G1 X71.9 Y94.527 E689.78496
G1 X71.9 Y93.113 E689.92605
G1 X142.885 Y164.098 E699.9428
G1 X144.299 Y164.098 E700.08389
G1 X71.9 Y91.699 E710.30017
G1 X71.9 Y90.284 E710.44136
G1 X145.713 Y164.098 E720.85724
G1 X147.127 Y164.098 E720.99833
G1 X71.9 Y88.87 E731.61374
G1 X71.9 Y87.456 E731.75483
G1 X148.518 Y164.074 E742.56646
G1 X149.249 Y164.042 E742.63947
G1 X149.417 Y164.027 E742.6563
G1 X149.831 Y163.973 E742.69796
G1 X71.9 Y86.042 E753.69486
G1 X71.9 Y86.008 E753.69825
G1 X71.936 Y85.002 E753.7987
G1 X71.945 Y84.867 E753.8122
G1 X71.965 Y84.693 E753.82967
G1 X151.04 Y163.768 E764.98801
G1 X151.351 Y163.706 E765.01965
G1 X151.51 Y163.668 E765.03596
G1 X152.168 Y163.482 E765.10419
G1 X72.137 Y83.451 E776.39743
G1 X72.322 Y82.518 E776.49234
G1 X72.361 Y82.344 E776.51013
G1 X72.379 Y82.278 E776.51696
G1 X153.227 Y163.126 E787.92548
G1 X154.073 Y162.806 E788.01573
G1 X154.246 Y162.732 E788.03451
G1 X72.697 Y81.182 E799.54202
G1 X72.713 Y81.134 E799.54707
G1 X73.02 Y80.303 E799.63547
G1 X73.078 Y80.161 E799.65077
G1 X73.081 Y80.152 E799.65172
G1 X155.195 Y162.266 E811.23889
G1 X155.209 Y162.258 E811.2405
G1 X155.96 Y161.824 E811.32705
G1 X156.087 Y161.744 E811.34203
G1 X73.527 Y79.183 E822.9922
G1 X73.947 Y78.414 E823.07963
G1 X74.029 Y78.272 E823.096
G1 X156.928 Y161.171 E834.79394
G1 X157.003 Y161.116 E834.80322
G1 X157.698 Y160.567 E834.89159
G1 X157.72 Y160.548 E834.89449
G1 X74.587 Y77.415 E846.62546
G1 X74.633 Y77.35 E846.6334
G1 X75.202 Y76.616 E846.72607
G1 X158.46 Y159.874 E858.47467
G1 X158.472 Y159.864 E858.47623
G1 X158.611 Y159.727 E858.49571
G1 X159.153 Y159.153 E858.57448
G1 X75.847 Y75.847 E870.32986
G1 X76.312 Y75.346 E870.39806
G1 X76.435 Y75.222 E870.41549
G1 X76.54 Y75.125 E870.42975
G1 X159.807 Y158.393 E882.17969
G1 X159.818 Y158.379 E882.18147
G1 X160.384 Y157.626 E882.27546
G1 X160.414 Y157.585 E882.28053
G1 X77.281 Y74.452 E894.0115
G1 X77.921 Y73.937 E894.09346
G1 X78.051 Y73.839 E894.10971
G1 X78.07 Y73.827 E894.11195
G1 X160.969 Y156.726 E905.8099
G1 X161.052 Y156.584 E905.82631
G1 X161.472 Y155.815 E905.91374
G1 X78.91 Y73.254 E917.56406
G1 X78.932 Y73.239 E917.56671
