;FLAVOR:Marlin
;TIME:1078
;Filament used: 0.442852m
;Layer height: 0.12
;MINX:99.7
;MINY:83.853
;MINZ:0.12
;MAXX:135.298
;MAXY:173.819
;MAXZ:6
;Generated with Cura_SteamEngine 4.8.0
M140 S50
M105
M190 S50
M104 S200
M105
M109 S200
M82 ;absolute extrusion mode
; Ender 3 Custom Start G-code
G92 E0 ; Reset Extruder
G28 ; Home all axes
G29 ; ABL
G1 Z2.0 F3000 ; Move Z Axis up little to prevent scratching of Heat Bed
G1 X0.1 Y20 Z0.3 F5000.0 ; Move to start position
G1 X0.1 Y200.0 Z0.3 F1500.0 E15 ; Draw the first line
G1 X0.4 Y200.0 Z0.3 F5000.0 ; Move to side a little
G1 X0.4 Y20 Z0.3 F1500.0 E30 ; Draw the second line
G92 E0 ; Reset Extruder
G1 Z2.0 F3000 ; Move Z Axis up little to prevent scratching of Heat Bed
G1 X5 Y20 Z0.3 F5000.0 ; Move over to prevent blob squish
G92 E0
G92 E0
G1 F2700 E-5
;LAYER_COUNT:50
;LAYER:0
M107
G0 F6000 X102.276 Y87.79 Z0.12
;TYPE:SKIRT
G1 F2700 E0
G1 F1200 X102.908 Y87.097 E0.01872
G1 X103.597 Y86.461 E0.03743
G1 X104.337 Y85.885 E0.05614
G1 X105.124 Y85.375 E0.07486
G1 X105.952 Y84.934 E0.09358
G1 X106.814 Y84.564 E0.1123
G1 X107.704 Y84.27 E0.131
G1 X108.616 Y84.052 E0.14972
G1 X109.544 Y83.913 E0.16844
G1 X110.48 Y83.853 E0.18716
G1 X111.374 Y83.871 E0.205
G1 X112.523 Y83.942 E0.22798
G1 X121.374 Y84.644 E0.40516
G1 X124.96 Y84.863 E0.47686
G1 X125.893 Y84.96 E0.49558
G1 X126.814 Y85.136 E0.51429
G1 X127.717 Y85.39 E0.53301
G1 X128.595 Y85.72 E0.55173
G1 X129.442 Y86.123 E0.57045
G1 X130.251 Y86.597 E0.58916
G1 X131.017 Y87.139 E0.60788
G1 X131.734 Y87.743 E0.62659
G1 X132.397 Y88.407 E0.64532
G1 X133.001 Y89.124 E0.66403
G1 X133.541 Y89.891 E0.68275
G1 X134.015 Y90.7 E0.70146
G1 X134.418 Y91.547 E0.72018
G1 X134.747 Y92.425 E0.73889
G1 X135 Y93.329 E0.75762
G1 X135.175 Y94.25 E0.77633
G1 X135.286 Y95.524 E0.80185
G1 X135.294 Y95.8 E0.80736
G1 X135.298 Y96.281 E0.81696
G1 X135.289 Y96.892 E0.82915
G1 X135.235 Y97.828 E0.84786
G1 X135.102 Y98.757 E0.86659
G1 X134.89 Y99.67 E0.8853
G1 X134.686 Y100.327 E0.89903
G1 X133.903 Y102.761 E0.95005
G1 X133.202 Y105.169 E1.0001
G1 X132.561 Y107.627 E1.05079
G1 X131.99 Y110.099 E1.10142
G1 X131.503 Y112.532 E1.15094
G1 X131.078 Y115.007 E1.20105
G1 X130.72 Y117.524 E1.25179
G1 X130.438 Y119.994 E1.3014
G1 X130.222 Y122.527 E1.35213
G1 X130.078 Y125.044 E1.40244
G1 X130.007 Y127.529 E1.45205
G1 X130.007 Y130.053 E1.50242
G1 X130.077 Y132.576 E1.55279
G1 X130.22 Y135.098 E1.6032
G1 X130.433 Y137.621 E1.65373
G1 X130.712 Y140.083 E1.70318
G1 X131.072 Y142.615 E1.75421
G1 X131.494 Y145.081 E1.80414
G1 X131.986 Y147.539 E1.85417
G1 X132.544 Y149.971 E1.90396
G1 X133.179 Y152.414 E1.95433
G1 X133.894 Y154.876 E2.00549
G1 X134.757 Y157.553 E2.06162
G1 X135.007 Y158.457 E2.08034
G1 X135.178 Y159.379 E2.09905
G1 X135.286 Y160.745 E2.1264
G1 X135.294 Y161.227 E2.13602
G1 X135.295 Y161.569 E2.14284
G1 X135.289 Y161.983 E2.15111
G1 X135.235 Y162.92 E2.16984
G1 X135.102 Y163.848 E2.18855
G1 X134.89 Y164.762 E2.20727
G1 X134.602 Y165.654 E2.22598
G1 X134.238 Y166.519 E2.2447
G1 X133.802 Y167.349 E2.26341
G1 X133.297 Y168.139 E2.28212
G1 X132.726 Y168.883 E2.30084
G1 X132.094 Y169.576 E2.31956
G1 X131.405 Y170.213 E2.33828
G1 X130.665 Y170.788 E2.35699
G1 X129.878 Y171.299 E2.37571
G1 X129.051 Y171.74 E2.39441
G1 X128.189 Y172.11 E2.41313
G1 X127.298 Y172.405 E2.43186
G1 X126.386 Y172.622 E2.45057
G1 X125.459 Y172.762 E2.46928
G1 X124.916 Y172.806 E2.48015
G1 X123.623 Y172.879 E2.506
G1 X123.147 Y172.9 E2.51551
G1 X121.301 Y173.027 E2.55243
G1 X112.301 Y173.741 E2.7326
G1 X111.424 Y173.798 E2.75014
G1 X110.487 Y173.819 E2.76884
G1 X109.551 Y173.759 E2.78756
G1 X108.623 Y173.62 E2.80629
G1 X107.711 Y173.402 E2.825
G1 X106.82 Y173.108 E2.84372
G1 X105.958 Y172.738 E2.86244
G1 X105.131 Y172.297 E2.88115
G1 X104.344 Y171.787 E2.89986
G1 X103.603 Y171.211 E2.91859
G1 X102.914 Y170.575 E2.9373
G1 X102.282 Y169.882 E2.95602
G1 X101.712 Y169.138 E2.97472
G1 X101.206 Y168.348 E2.99344
G1 X100.77 Y167.517 E3.01217
G1 X100.406 Y166.653 E3.03088
G1 X100.117 Y165.761 E3.04959
G1 X99.905 Y164.847 E3.06832
G1 X99.772 Y163.919 E3.08703
G1 X99.719 Y163.024 E3.10492
G1 X99.702 Y162.102 E3.12332
G1 X99.7 Y161.899 E3.12737
G1 X99.701 Y95.369 E4.45505
G1 X99.711 Y94.689 E4.46862
G1 X99.765 Y93.753 E4.48733
G1 X99.898 Y92.825 E4.50604
G1 X100.11 Y91.911 E4.52476
G1 X100.399 Y91.019 E4.54348
G1 X100.763 Y90.154 E4.5622
G1 X101.199 Y89.324 E4.58091
G1 X101.705 Y88.534 E4.59964
G1 X102.276 Y87.79 E4.61835
G0 F6000 X102.67 Y87.944
G1 F1200 X103.299 Y87.272 E4.63672
G1 X103.985 Y86.657 E4.65511
G1 X104.721 Y86.105 E4.67347
G1 X105.503 Y85.618 E4.69185
G1 X106.324 Y85.201 E4.71023
G1 X107.177 Y84.857 E4.72858
G1 X108.058 Y84.588 E4.74696
G1 X108.959 Y84.397 E4.76534
G1 X109.872 Y84.284 E4.7837
G1 X110.792 Y84.251 E4.80207
G1 X111.35 Y84.27 E4.81322
G1 X112.293 Y84.327 E4.83207
G1 X112.492 Y84.341 E4.83605
G1 X121.374 Y85.046 E5.01386
G1 X124.936 Y85.263 E5.08507
G1 X125.851 Y85.358 E5.10343
G1 X126.755 Y85.533 E5.12181
G1 X127.641 Y85.786 E5.14019
G1 X128.501 Y86.115 E5.15857
G1 X129.329 Y86.517 E5.17694
G1 X130.119 Y86.989 E5.1953
G1 X130.865 Y87.528 E5.21367
G1 X131.562 Y88.13 E5.23205
G1 X132.204 Y88.79 E5.25042
G1 X132.786 Y89.503 E5.26879
G1 X133.304 Y90.264 E5.28716
G1 X133.754 Y91.067 E5.30553
G1 X134.133 Y91.907 E5.32392
G1 X134.437 Y92.775 E5.34227
G1 X134.665 Y93.667 E5.36065
G1 X134.815 Y94.576 E5.37903
G1 X134.887 Y95.536 E5.39824
G1 X134.895 Y95.812 E5.40375
G1 X134.898 Y96.275 E5.41299
G1 X134.889 Y96.886 E5.42519
G1 X134.835 Y97.805 E5.44356
G1 X134.702 Y98.716 E5.46193
G1 X134.491 Y99.612 E5.4803
G1 X134.311 Y100.186 E5.49231
G1 X133.524 Y102.633 E5.5436
G1 X132.814 Y105.071 E5.59428
G1 X132.17 Y107.541 E5.64522
G1 X131.603 Y109.996 E5.6955
G1 X131.109 Y112.464 E5.74573
G1 X130.683 Y114.949 E5.79604
G1 X130.325 Y117.459 E5.84664
G1 X130.037 Y119.986 E5.89739
G1 X129.825 Y122.471 E5.94716
G1 X129.68 Y125.009 E5.9979
G1 X129.607 Y127.552 E6.04866
G1 X129.607 Y130.064 E6.09879
G1 X129.678 Y132.611 E6.14964
G1 X129.819 Y135.118 E6.19975
G1 X130.032 Y137.628 E6.25002
G1 X130.317 Y140.148 E6.30063
G1 X130.676 Y142.673 E6.35153
G1 X131.1 Y145.149 E6.40166
G1 X131.599 Y147.643 E6.45241
G1 X132.151 Y150.048 E6.50166
G1 X132.805 Y152.563 E6.55351
G1 X133.496 Y154.942 E6.60295
G1 X134.377 Y157.676 E6.66028
G1 X134.621 Y158.563 E6.67863
G1 X134.787 Y159.469 E6.69702
G1 X134.887 Y160.752 E6.7227
G1 X134.895 Y161.234 E6.73232
G1 X134.895 Y161.564 E6.7389
G1 X134.889 Y161.978 E6.74716
G1 X134.836 Y162.897 E6.76553
G1 X134.703 Y163.808 E6.78391
G1 X134.491 Y164.704 E6.80228
G1 X134.203 Y165.578 E6.82065
G1 X133.84 Y166.424 E6.83902
G1 X133.405 Y167.235 E6.85738
G1 X132.901 Y168.006 E6.87576
G1 X132.332 Y168.73 E6.89414
G1 X131.702 Y169.402 E6.91252
G1 X131.017 Y170.016 E6.93088
G1 X130.281 Y170.569 E6.94925
G1 X129.499 Y171.056 E6.96764
G1 X128.678 Y171.473 E6.98601
G1 X127.825 Y171.817 E7.00437
G1 X126.944 Y172.086 E7.02275
G1 X126.044 Y172.278 E7.04111
G1 X124.894 Y172.407 E7.06421
G1 X123.605 Y172.479 E7.08997
G1 X123.145 Y172.5 E7.09916
G1 X121.234 Y172.631 E7.13739
G1 X112.113 Y173.353 E7.31998
G1 X111.399 Y173.399 E7.33425
G1 X110.478 Y173.418 E7.35264
G1 X109.559 Y173.358 E7.37102
G1 X108.649 Y173.217 E7.38939
G1 X107.755 Y172.999 E7.40776
G1 X106.883 Y172.703 E7.42613
G1 X106.04 Y172.333 E7.44451
G1 X105.232 Y171.892 E7.46287
G1 X104.466 Y171.382 E7.48124
G1 X103.747 Y170.807 E7.49961
G1 X103.08 Y170.172 E7.51799
G1 X102.471 Y169.482 E7.53636
G1 X101.924 Y168.741 E7.55474
G1 X101.444 Y167.956 E7.5731
G1 X101.033 Y167.132 E7.59147
G1 X100.696 Y166.275 E7.60985
G1 X100.434 Y165.392 E7.62823
G1 X100.249 Y164.49 E7.64661
G1 X100.144 Y163.576 E7.66497
G1 X100.119 Y163.016 E7.67615
G1 X100.1 Y161.899 E7.69845
G1 X100.101 Y95.375 E9.02601
G1 X100.111 Y94.695 E9.03958
G1 X100.165 Y93.776 E9.05795
G1 X100.298 Y92.865 E9.07632
G1 X100.509 Y91.969 E9.09469
G1 X100.798 Y91.095 E9.11306
G1 X101.161 Y90.249 E9.13143
G1 X101.597 Y89.438 E9.14981
G1 X102.101 Y88.667 E9.16819
G1 X102.67 Y87.944 E9.18655
G0 F6000 X103.064 Y88.1
G1 F1200 X103.691 Y87.45 E9.20457
G1 X104.373 Y86.859 E9.22258
G1 X105.105 Y86.329 E9.24062
G1 X105.88 Y85.867 E9.25862
G1 X106.694 Y85.475 E9.27665
G1 X107.539 Y85.156 E9.29468
G1 X108.409 Y84.914 E9.3127
G1 X109.297 Y84.749 E9.33072
G1 X110.196 Y84.664 E9.34874
G1 X111.325 Y84.67 E9.37127
G1 X112.46 Y84.74 E9.39397
G1 X121.319 Y85.443 E9.57131
G1 X124.911 Y85.662 E9.64313
G1 X125.81 Y85.757 E9.66117
G1 X126.696 Y85.931 E9.67919
G1 X127.563 Y86.182 E9.6972
G1 X128.405 Y86.509 E9.71523
G1 X129.214 Y86.91 E9.73324
G1 X129.985 Y87.38 E9.75126
G1 X130.711 Y87.917 E9.76929
G1 X131.387 Y88.516 E9.78731
G1 X132.008 Y89.173 E9.80535
G1 X132.567 Y89.881 E9.82335
G1 X133.062 Y90.637 E9.84139
G1 X133.488 Y91.433 E9.8594
G1 X133.842 Y92.264 E9.87743
G1 X134.122 Y93.123 E9.89546
G1 X134.324 Y94.003 E9.91348
G1 X134.447 Y94.897 E9.93148
G1 X134.487 Y95.547 E9.94448
G1 X134.495 Y95.823 E9.94999
G1 X134.498 Y96.269 E9.95889
G1 X134.489 Y96.88 E9.97109
G1 X134.436 Y97.782 E9.98912
G1 X134.303 Y98.675 E10.00713
G1 X134.092 Y99.553 E10.02516
G1 X133.942 Y100.03 E10.03513
G1 X133.142 Y102.514 E10.08721
G1 X132.429 Y104.963 E10.13811
G1 X131.779 Y107.455 E10.18951
G1 X131.215 Y109.899 E10.23956
G1 X130.718 Y112.383 E10.29012
G1 X130.285 Y114.902 E10.34112
G1 X129.931 Y117.389 E10.39125
G1 X129.64 Y119.946 E10.44261
G1 X129.423 Y122.482 E10.4934
G1 X129.281 Y124.974 E10.54322
G1 X129.207 Y127.54 E10.59444
G1 X129.207 Y130.075 E10.64503
G1 X129.278 Y132.608 E10.6956
G1 X129.42 Y135.138 E10.74617
G1 X129.638 Y137.709 E10.79766
G1 X129.918 Y140.178 E10.84725
G1 X130.28 Y142.725 E10.89859
G1 X130.708 Y145.23 E10.9493
G1 X131.202 Y147.698 E10.99953
G1 X131.77 Y150.173 E11.05021
G1 X132.417 Y152.661 E11.10151
G1 X133.117 Y155.07 E11.15157
G1 X133.996 Y157.798 E11.20877
G1 X134.235 Y158.669 E11.22679
G1 X134.396 Y159.558 E11.24482
G1 X134.487 Y160.759 E11.26886
G1 X134.495 Y161.241 E11.27848
G1 X134.495 Y161.558 E11.2848
G1 X134.489 Y161.972 E11.29307
G1 X134.436 Y162.873 E11.31108
G1 X134.303 Y163.767 E11.32911
G1 X134.092 Y164.645 E11.34713
G1 X133.804 Y165.501 E11.36516
G1 X133.442 Y166.328 E11.38317
G1 X133.008 Y167.12 E11.4012
G1 X132.505 Y167.87 E11.41922
G1 X131.938 Y168.573 E11.43724
G1 X131.311 Y169.223 E11.45526
G1 X130.629 Y169.815 E11.47329
G1 X129.897 Y170.344 E11.49131
G1 X129.122 Y170.807 E11.50932
G1 X128.308 Y171.199 E11.52735
G1 X127.463 Y171.518 E11.54538
G1 X126.593 Y171.761 E11.56341
G1 X125.705 Y171.925 E11.58143
G1 X124.871 Y172.007 E11.59815
G1 X123.587 Y172.08 E11.62381
G1 X123.098 Y172.102 E11.63358
G1 X121.183 Y172.233 E11.67189
G1 X112.087 Y172.954 E11.85398
G1 X111.373 Y173 E11.86826
G1 X110.47 Y173.018 E11.88628
G1 X109.569 Y172.956 E11.9043
G1 X108.677 Y172.815 E11.92233
G1 X107.801 Y172.595 E11.94035
G1 X106.948 Y172.299 E11.95837
G1 X106.124 Y171.928 E11.9764
G1 X105.337 Y171.487 E11.9944
G1 X104.591 Y170.977 E12.01244
G1 X103.894 Y170.403 E12.03046
G1 X103.25 Y169.77 E12.04848
G1 X102.665 Y169.082 E12.0665
G1 X102.142 Y168.345 E12.08453
G1 X101.687 Y167.565 E12.10255
G1 X101.303 Y166.748 E12.12057
G1 X100.993 Y165.9 E12.13859
G1 X100.758 Y165.027 E12.15663
G1 X100.602 Y164.138 E12.17464
G1 X100.519 Y163.009 E12.19723
G1 X100.5 Y161.899 E12.21939
G1 X100.501 Y95.381 E13.54683
G1 X100.511 Y94.701 E13.5604
G1 X100.564 Y93.799 E13.57843
G1 X100.697 Y92.906 E13.59645
G1 X100.908 Y92.028 E13.61447
G1 X101.197 Y91.172 E13.6325
G1 X101.559 Y90.345 E13.65051
G1 X101.994 Y89.553 E13.66854
G1 X102.496 Y88.803 E13.68655
G1 X103.064 Y88.1 E13.70459
G1 F2700 E8.70459
;MESH:ec33b000-7070-490a-9661-5caa72cee3c1.stl
G0 F6000 X110.035 Y95.279
G0 X111.113 Y95.279
G0 X111.3 Y162.184
;TYPE:WALL-INNER
G1 F2700 E13.70459
G1 F1200 X111.3 Y95.697 E15.03141
G1 X111.3 Y95.696 E15.03143
G1 X111.3 Y95.482 E15.0357
G1 X111.514 Y95.499 E15.03841
G1 X115.741 Y95.835 E15.12303
G1 X120.757 Y96.233 E15.22345
G1 X115.726 Y96.233 E15.27369
G1 X115.725 Y96.233 E15.27371
G1 X112.1 Y96.233 E15.34605
G1 X112.1 Y161.433 E16.64719
G1 X115.725 Y161.433 E16.71953
G1 X115.726 Y161.433 E16.71955
G1 X120.757 Y161.433 E16.81995
G1 X115.741 Y161.831 E16.87019
G1 X111.3 Y162.184 E16.9591
G0 F6000 X110.9 Y162.617
;TYPE:WALL-OUTER
G1 F1200 X110.9 Y95.049 E18.30749
G1 X123.292 Y96.033 E18.55556
G1 X124.1 Y96.033 E18.57169
G1 X124.1 Y96.597 E18.58294
G1 X123.5 Y96.837 E18.59584
G1 X123.5 Y96.633 E18.59991
G1 X112.5 Y96.633 E18.81943
G1 X112.5 Y161.033 E20.1046
G1 X123.5 Y161.033 E20.32412
G1 X123.5 Y160.829 E20.32819
G1 X124.1 Y161.069 E20.34108
G1 X124.1 Y161.633 E20.35234
G1 X123.292 Y161.633 E20.36846
G1 X110.9 Y162.617 E20.61654
G0 F6000 X111.554 Y161.9
;TYPE:SKIN
G1 F1200 X111.685 Y161.748 E20.6248
G0 F6000 X111.816 Y161.596
G1 F1200 X111.699 Y161.197 E20.63075
G1 X112.265 Y161.762 E20.64222
G1 X115.262 Y161.648 E20.6852
G0 F6000 X115.281 Y161.725
G0 X112.573 Y161.308
G0 X111.925 Y161.139
G0 X111.699 Y160.914
G1 F1200 X111.699 Y160.631 E20.69144
G1 X111.699 Y96.143 E22.1134
G1 X111.719 Y95.879 E22.11923
G1 X115.245 Y96.012 E22.19704
G0 F6000 X115.278 Y96.093
G0 X120.913 Y96.305
G1 F1200 X121.065 Y96.457 E22.19918
G0 F6000 X121.135 Y96.244
G1 F1200 X121.423 Y96.25 E22.20379
G1 X123.485 Y96.332 E22.23684
G1 X123.779 Y96.344 E22.24155
G1 F2700 E17.24155
G0 F6000 X123.643 Y96.333
G0 X112.272 Y96.405
G0 X112.272 Y161.261
G0 X123.756 Y161.255
G0 X123.864 Y161.199
G1 F2700 E22.24155
G1 F1200 X123.713 Y161.331 E22.24496
G1 X121.241 Y161.404 E22.28696
G0 F6000 X120.914 Y161.361
G1 F1200 X121.177 Y161.624 E22.29067
;MESH:NONMESH
G0 F300 X121.177 Y161.624 Z0.24
G0 F6000 X121.169 Y161.501
G0 X111.3 Y162.184
;TIME_ELAPSED:65.045192
;LAYER:1
M106 S85
;TYPE:WALL-INNER
;MESH:ec33b000-7070-490a-9661-5caa72cee3c1.stl
G1 F1350 X111.3 Y95.697 E23.61749
G1 X111.3 Y95.696 E23.61751
G1 X111.3 Y95.482 E23.62178
G1 X111.514 Y95.499 E23.6245
G1 X115.741 Y95.835 E23.70912
G1 X120.757 Y96.233 E23.80953
G1 X115.726 Y96.233 E23.85977
G1 X115.725 Y96.233 E23.85979
G1 X112.1 Y96.233 E23.93213
G1 X112.1 Y161.433 E25.23327
G1 X115.725 Y161.433 E25.30561
G1 X115.726 Y161.433 E25.30563
G1 X120.757 Y161.433 E25.40603
G1 X115.741 Y161.831 E25.45627
G1 X111.3 Y162.184 E25.54518
G0 F7500 X110.9 Y162.617
;TYPE:WALL-OUTER
G1 F1350 X110.9 Y95.049 E26.89357
G1 X123.292 Y96.033 E27.14164
G1 X124.1 Y96.033 E27.15777
G1 X124.1 Y96.597 E27.16902
G1 X123.5 Y96.837 E27.18192
G1 X123.5 Y96.633 E27.18599
G1 X112.5 Y96.633 E27.40551
G1 X112.5 Y161.033 E28.69068
G1 X123.5 Y161.033 E28.9102
G1 X123.5 Y160.829 E28.91427
G1 X124.1 Y161.069 E28.92716
G1 X124.1 Y161.633 E28.93842
G1 X123.292 Y161.633 E28.95454
G1 X110.9 Y162.617 E29.20262
G0 F7500 X111.72 Y161.787
;TYPE:SKIN
G1 F1350 X112.004 Y161.787 E29.20662
G1 X115.249 Y161.652 E29.25235
G0 F7500 X115.278 Y161.573
G0 X111.924 Y161.301
G0 X111.699 Y161.526
G1 F1350 X111.699 Y161.243 E29.25853
G1 X111.699 Y96.472 E30.67424
G1 X111.819 Y96.069 E30.68344
G1 X112.542 Y95.912 E30.69961
G1 X115.266 Y96.016 E30.75919
G0 F7500 X115.281 Y95.941
G0 X111.901 Y95.704
G1 F1350 X111.474 Y96.131 E30.76521
G0 F7500 X111.474 Y95.849
G1 F1350 X111.64 Y95.683 E30.76756
G0 F7500 X120.913 Y96.309
G0 X121.047 Y96.174
G1 F1350 X121.246 Y96.259 E30.77145
G1 X123.718 Y96.332 E30.81595
G1 X123.866 Y96.466 E30.81954
G1 F2700 E25.81954
G0 F7500 X123.765 Y96.407
G0 X112.272 Y96.405
G0 X112.272 Y161.261
G0 X123.67 Y161.283
G0 X123.718 Y161.103
G1 F2700 E30.81954
G1 F1350 X123.675 Y161.147 E30.82015
G0 F7500 X123.49 Y161.331
G1 F1350 X123.198 Y161.34 E30.82547
G1 X121.138 Y161.42 E30.86298
G1 X120.992 Y161.283 E30.86662
G0 F7500 X120.915 Y161.361
G0 X123.648 Y161.333
G0 X123.648 Y161.457
G1 F1350 X123.92 Y161.184 E30.87047
;MESH:NONMESH
G0 F300 X123.92 Y161.184 Z0.36
G0 F7500 X123.818 Y161.261
G0 X111.3 Y162.184
;TIME_ELAPSED:87.734701
;LAYER:2
M106 S170
;TYPE:WALL-INNER
;MESH:ec33b000-7070-490a-9661-5caa72cee3c1.stl
G1 F1500 X111.3 Y95.697 E32.19729
G1 X111.3 Y95.696 E32.19731
G1 X111.3 Y95.482 E32.20158
G1 X111.514 Y95.499 E32.20429
G1 X115.741 Y95.835 E32.28891
G1 X120.757 Y96.233 E32.38933
G1 X115.726 Y96.233 E32.43957
