;FLAVOR:Marlin
;TIME:3306
;Filament used: 1.11287m
;Layer height: 0.12
;MINX:95.088
;MINY:57.179
;MINZ:0.144
;MAXX:139.965
;MAXY:156.494
;MAXZ:6.714
;Generated with Cura_SteamEngine 4.8.0
M140 S60
M105
M190 S60
M104 S190
M105
M109 S190
M82 ;absolute extrusion mode
; Ender 3 Custom Start G-code
G92 E0 ; Reset Extruder
G28 ; Home all axes
M420 S1  ; use saved bed leveling
G1 Z2.0 F3000 ; Move Z Axis up little to prevent scratching of Heat Bed
G1 X0.1 Y20 Z0.3 F5000.0 ; Move to start position
G1 X0.1 Y200.0 Z0.3 F1500.0 E15 ; Draw the first line
G1 X0.4 Y200.0 Z0.3 F5000.0 ; Move to side a little
G1 X0.4 Y20 Z0.3 F1500.0 E30 ; Draw the second line
G92 E0 ; Reset Extruder
G1 Z2.0 F3000 ; Move Z Axis up little to prevent scratching of Heat Bed
G1 X5 Y20 Z0.3 F5000.0 ; Move over to prevent blob squish
G92 E0
G92 E0
G1 F2700 E-5
;LAYER_COUNT:50
;LAYER:-6
M107
G0 F9000 X98.476 Y64.855 Z0.144
;TYPE:SUPPORT-INTERFACE
G1 F2700 E0
G1 F675 X98.576 Y64.704 E0.00867
G1 X99.087 Y63.99 E0.05073
G1 X99.2 Y63.842 E0.05964
G1 X99.776 Y63.151 E0.10273
G1 X99.877 Y63.038 E0.10999
G1 X100.502 Y62.389 E0.15314
G1 X100.627 Y62.269 E0.16144
G1 X101.298 Y61.666 E0.20465
G1 X101.414 Y61.57 E0.21186
G1 X102.126 Y61.02 E0.25495
G1 X102.285 Y60.907 E0.26429
G1 X103.023 Y60.417 E0.30672
G1 X103.149 Y60.341 E0.31377
G1 X103.943 Y59.895 E0.35739
G1 X104.093 Y59.817 E0.36548
G1 X104.908 Y59.434 E0.40861
G1 X105.051 Y59.374 E0.41604
G1 X105.91 Y59.045 E0.4601
G1 X106.06 Y58.993 E0.4677
G1 X106.91 Y58.738 E0.5102
G1 X107.083 Y58.691 E0.51879
G1 X107.978 Y58.491 E0.56271
G1 X108.108 Y58.468 E0.56903
G1 X109.013 Y58.334 E0.61285
G1 X109.182 Y58.316 E0.62099
G1 X110.076 Y58.249 E0.66393
G1 X110.241 Y58.243 E0.67184
G1 X111.158 Y58.243 E0.71576
G1 X111.293 Y58.247 E0.72223
G1 X111.892 Y58.282 E0.75096
G1 X123.669 Y59.216 E1.31679
G1 X124.081 Y59.233 E1.33654
G1 X124.303 Y59.234 E1.34717
G1 X125.304 Y59.27 E1.39514
G1 X125.427 Y59.279 E1.40105
G1 X126.344 Y59.381 E1.44524
G1 X126.519 Y59.406 E1.45371
G1 X127.408 Y59.57 E1.497
G1 X127.531 Y59.598 E1.50305
G1 X128.425 Y59.832 E1.54731
G1 X128.588 Y59.881 E1.55546
G1 X129.43 Y60.167 E1.59805
G1 X129.596 Y60.231 E1.60657
G1 X130.399 Y60.572 E1.64835
G1 X130.588 Y60.66 E1.65834
G1 X131.382 Y61.068 E1.70109
G1 X131.499 Y61.135 E1.70755
G1 X132.278 Y61.609 E1.75122
G1 X132.429 Y61.709 E1.7599
G1 X133.143 Y62.22 E1.80195
G1 X133.291 Y62.333 E1.81087
G1 X133.982 Y62.909 E1.85396
G1 X134.095 Y63.01 E1.86121
G1 X134.744 Y63.635 E1.90437
G1 X134.864 Y63.76 E1.91267
G1 X135.467 Y64.431 E1.95587
G1 X135.563 Y64.547 E1.96309
G1 X136.113 Y65.259 E2.00618
G1 X136.226 Y65.418 E2.01552
G1 X136.716 Y66.156 E2.05795
G1 X136.792 Y66.282 E2.06499
G1 X137.238 Y67.076 E2.10861
G1 X137.316 Y67.226 E2.11671
G1 X137.699 Y68.041 E2.15984
G1 X137.759 Y68.184 E2.16727
G1 X138.088 Y69.043 E2.21132
G1 X138.14 Y69.193 E2.21892
G1 X138.395 Y70.043 E2.26143
G1 X138.442 Y70.216 E2.27001
G1 X138.64 Y71.102 E2.31349
G1 X138.665 Y71.241 E2.32026
G1 X138.798 Y72.14 E2.36378
G1 X138.816 Y72.302 E2.37159
G1 X138.883 Y73.204 E2.41491
G1 X138.892 Y73.388 E2.42373
G1 X138.9 Y73.889 E2.44773
G1 X138.9 Y74.719 E2.48749
G1 X138.864 Y75.725 E2.5357
G1 X138.854 Y75.86 E2.54218
G1 X138.752 Y76.777 E2.58637
G1 X138.727 Y76.952 E2.59484
G1 X138.565 Y77.83 E2.6376
G1 X138.535 Y77.964 E2.64418
G1 X138.304 Y78.849 E2.68798
G1 X138.252 Y79.021 E2.69659
G1 X137.966 Y79.863 E2.73918
G1 X137.902 Y80.029 E2.7477
G1 X137.561 Y80.832 E2.78948
G1 X137.48 Y81.007 E2.79872
G1 X137.065 Y81.815 E2.84222
G1 X136.998 Y81.932 E2.84868
G1 X136.524 Y82.711 E2.89236
G1 X136.424 Y82.862 E2.90103
G1 X135.913 Y83.576 E2.94308
G1 X135.8 Y83.724 E2.952
G1 X135.224 Y84.415 E2.99509
G1 X135.123 Y84.528 E3.00235
G1 X134.498 Y85.177 E3.0455
G1 X134.373 Y85.297 E3.0538
G1 X133.703 Y85.899 E3.09694
G1 X133.586 Y85.996 E3.10422
G1 X132.874 Y86.546 E3.14731
G1 X132.715 Y86.659 E3.15665
G1 X131.977 Y87.149 E3.19908
G1 X131.851 Y87.225 E3.20612
G1 X131.068 Y87.665 E3.24914
G1 X130.89 Y87.755 E3.25869
G1 X130.45 Y87.956 E3.28186
G1 X129.859 Y88.272 E3.31396
G1 X129.302 Y88.667 E3.34667
G1 X128.8 Y89.13 E3.37937
G1 X128.359 Y89.651 E3.41207
G1 X127.988 Y90.225 E3.4448
G1 X127.693 Y90.841 E3.47751
G1 X127.477 Y91.488 E3.51018
G1 X127.346 Y92.159 E3.54292
G1 X127.3 Y92.852 E3.57619
G1 X127.3 Y120.804 E4.91494
G1 X127.342 Y121.472 E4.94699
G1 X127.471 Y122.143 E4.97972
G1 X127.684 Y122.792 E5.01244
G1 X127.976 Y123.409 E5.04513
G1 X128.344 Y123.984 E5.07783
G1 X128.782 Y124.508 E5.11053
G1 X129.282 Y124.972 E5.14321
G1 X129.839 Y125.372 E5.17605
G1 X130.507 Y125.726 E5.21226
G1 X130.631 Y125.781 E5.21875
G1 X130.777 Y125.852 E5.22653
G1 X131.55 Y126.265 E5.2685
G1 X131.727 Y126.367 E5.27829
G1 X132.467 Y126.835 E5.32022
G1 X132.61 Y126.933 E5.32853
G1 X133.321 Y127.458 E5.37086
G1 X133.478 Y127.583 E5.38047
G1 X134.128 Y128.141 E5.4215
G1 X134.261 Y128.264 E5.43018
G1 X134.902 Y128.9 E5.47342
G1 X135.011 Y129.017 E5.48108
G1 X135.609 Y129.704 E5.5247
G1 X135.715 Y129.835 E5.53278
G1 X136.248 Y130.548 E5.57541
G1 X136.337 Y130.676 E5.58288
G1 X136.836 Y131.455 E5.62719
G1 X136.908 Y131.576 E5.63393
G1 X137.344 Y132.381 E5.67778
G1 X137.408 Y132.51 E5.68467
G1 X137.784 Y133.344 E5.72849
G1 X137.849 Y133.502 E5.73667
G1 X138.159 Y134.35 E5.77992
G1 X138.206 Y134.493 E5.78713
G1 X138.453 Y135.361 E5.83035
G1 X138.496 Y135.536 E5.83898
G1 X138.674 Y136.398 E5.88114
G1 X138.704 Y136.569 E5.88945
G1 X138.822 Y137.462 E5.93259
G1 X138.838 Y137.646 E5.94144
G1 X138.9 Y138.981 E6.00545
G1 X138.9 Y139.819 E6.04558
G1 X138.864 Y140.825 E6.09379
G1 X138.854 Y140.96 E6.10028
G1 X138.752 Y141.877 E6.14447
G1 X138.727 Y142.052 E6.15293
G1 X138.565 Y142.93 E6.1957
G1 X138.535 Y143.064 E6.20227
G1 X138.304 Y143.949 E6.24608
G1 X138.252 Y144.121 E6.25469
G1 X137.966 Y144.963 E6.29728
G1 X137.902 Y145.129 E6.3058
G1 X137.561 Y145.932 E6.34758
G1 X137.48 Y146.107 E6.35682
G1 X137.065 Y146.915 E6.40032
G1 X136.998 Y147.032 E6.40678
G1 X136.524 Y147.811 E6.45045
G1 X136.424 Y147.962 E6.45913
G1 X135.913 Y148.676 E6.50118
G1 X135.8 Y148.824 E6.5101
G1 X135.224 Y149.515 E6.55318
G1 X135.123 Y149.628 E6.56044
G1 X134.498 Y150.277 E6.60359
G1 X134.373 Y150.397 E6.61189
G1 X133.703 Y150.999 E6.65503
G1 X133.586 Y151.096 E6.66231
G1 X132.874 Y151.646 E6.7054
G1 X132.715 Y151.759 E6.71475
G1 X131.977 Y152.249 E6.75717
G1 X131.851 Y152.325 E6.76422
G1 X131.057 Y152.771 E6.80784
G1 X130.906 Y152.849 E6.81598
G1 X130.092 Y153.232 E6.85906
G1 X129.949 Y153.292 E6.86649
G1 X129.09 Y153.621 E6.91055
G1 X128.94 Y153.673 E6.91815
G1 X128.09 Y153.928 E6.96065
G1 X127.917 Y153.975 E6.96924
G1 X127.022 Y154.175 E7.01316
G1 X126.892 Y154.198 E7.01949
G1 X125.987 Y154.332 E7.0633
G1 X125.819 Y154.35 E7.0714
G1 X124.929 Y154.416 E7.11414
G1 X124.745 Y154.425 E7.12296
G1 X124.24 Y154.433 E7.14715
G1 X124.081 Y154.433 E7.15477
G1 X123.669 Y154.45 E7.17452
G1 X111.795 Y155.39 E7.745
G1 X110.878 Y155.429 E7.78895
G1 X110.71 Y155.43 E7.797
G1 X109.801 Y155.402 E7.84056
G1 X109.641 Y155.39 E7.84824
G1 X108.754 Y155.299 E7.89095
G1 X108.587 Y155.276 E7.89902
G1 X107.689 Y155.116 E7.94271
G1 X107.539 Y155.083 E7.95006
G1 X106.663 Y154.861 E7.99335
G1 X106.499 Y154.812 E8.00154
G1 X105.639 Y154.525 E8.04497
G1 X105.5 Y154.473 E8.05207
G1 X104.69 Y154.135 E8.09411
G1 X104.49 Y154.042 E8.10468
G1 X103.723 Y153.653 E8.14587
G1 X103.55 Y153.558 E8.15532
G1 X102.797 Y153.105 E8.19741
G1 X102.65 Y153.009 E8.20581
G1 X101.915 Y152.49 E8.24891
G1 X101.781 Y152.388 E8.25697
G1 X101.101 Y151.83 E8.2991
G1 X100.966 Y151.71 E8.30776
G1 X100.301 Y151.077 E8.35173
G1 X100.214 Y150.989 E8.35765
G1 X99.588 Y150.299 E8.40228
G1 X99.478 Y150.168 E8.41047
G1 X98.93 Y149.467 E8.45308
G1 X98.843 Y149.347 E8.46018
G1 X98.327 Y148.58 E8.50446
G1 X98.251 Y148.456 E8.51142
G1 X97.795 Y147.654 E8.55561
G1 X97.722 Y147.516 E8.56309
G1 X97.342 Y146.717 E8.60546
G1 X97.27 Y146.549 E8.61422
G1 X96.937 Y145.696 E8.65807
G1 X96.888 Y145.555 E8.66522
G1 X96.622 Y144.692 E8.70847
G1 X96.577 Y144.524 E8.7168
G1 X96.378 Y143.653 E8.75959
G1 X96.349 Y143.5 E8.76705
G1 X96.208 Y142.592 E8.81106
G1 X96.193 Y142.452 E8.81781
G1 X96.118 Y141.516 E8.86278
G1 X96.113 Y141.402 E8.86824
G1 X96.1 Y140.833 E8.8955
G1 X96.1 Y72.847 E12.15167
G1 X96.136 Y71.841 E12.19988
G1 X96.146 Y71.706 E12.20636
G1 X96.248 Y70.789 E12.25055
G1 X96.273 Y70.614 E12.25902
G1 X96.435 Y69.736 E12.30178
G1 X96.465 Y69.602 E12.30836
G1 X96.699 Y68.707 E12.35266
G1 X96.748 Y68.545 E12.36077
G1 X97.034 Y67.703 E12.40336
G1 X97.098 Y67.537 E12.41188
G1 X97.439 Y66.734 E12.45366
G1 X97.52 Y66.559 E12.4629
G1 X97.935 Y65.751 E12.5064
G1 X98.002 Y65.634 E12.51286
G1 X98.476 Y64.855 E12.55654
G0 F9000 X99.2 Y63.842
G1 F675 X99.2 Y149.812 E16.67403
G0 F9000 X100.8 Y151.551
G1 F675 X100.8 Y62.113 E20.95763
G0 F9000 X102.4 Y60.83
G1 F675 X102.4 Y152.832 E25.36403
G0 F9000 X104 Y153.793
G1 F675 X104 Y59.865 E29.86267
G0 F9000 X105.6 Y59.163
G1 F675 X105.6 Y154.51 E34.42928
G0 F9000 X107.2 Y154.997
G1 F675 X107.2 Y58.664 E39.04311
G0 F9000 X108.8 Y58.365
G1 F675 X108.8 Y155.303 E43.68591
G0 F9000 X110.4 Y155.42
G1 F675 X110.4 Y58.243 E48.34017
G0 F9000 X112 Y58.291
G1 F675 X112 Y155.374 E52.98992
G0 F9000 X113.6 Y155.248
G1 F675 X113.6 Y58.418 E57.62755
G0 F9000 X115.2 Y58.545
G1 F675 X115.2 Y155.121 E62.25302
G0 F9000 X116.8 Y154.994
G1 F675 X116.8 Y58.672 E66.86632
G0 F9000 X118.4 Y58.799
G1 F675 X118.4 Y154.868 E71.46751
G0 F9000 X120 Y154.741
G1 F675 X120 Y58.926 E76.05653
G0 F9000 X121.6 Y59.052
G1 F675 X121.6 Y154.614 E80.63343
G0 F9000 X123.2 Y154.488
G1 F675 X123.2 Y59.179 E85.19822
G0 F9000 X124.8 Y59.252
G1 F675 X124.8 Y154.423 E89.7564
G0 F9000 X126.4 Y154.271
G1 F675 X126.4 Y59.389 E94.30073
G0 F9000 X128 Y59.721
G1 F675 X128 Y90.207 E95.76085
G0 F9000 X129.6 Y88.456
G1 F675 X129.6 Y60.233 E97.11257
G0 F9000 X131.2 Y60.975
G1 F675 X131.2 Y87.591 E98.38734
G0 F9000 X132.8 Y86.599
G1 F675 X132.8 Y61.975 E99.56669
G0 F9000 X134.4 Y63.304
G1 F675 X134.4 Y85.272 E100.61884
G0 F9000 X136 Y83.455
G1 F675 X136 Y65.113 E101.49732
G0 F9000 X137.6 Y67.831
G1 F675 X137.6 Y80.741 E102.11564
G1 F2700 E97.11564
G0 F9000 X138.58 Y81.156
G0 X139.327 Y79.143
G0 X139.779 Y77.116
G0 X139.926 Y75.79
G0 X139.946 Y73.143
G0 X139.717 Y71.075
G0 X139.421 Y69.76
G0 X138.75 Y67.794
G0 X138.178 Y66.576
G0 X137.099 Y64.81
G0 X136.268 Y63.73
G0 X134.814 Y62.225
G0 X133.781 Y61.367
G0 X132.043 Y60.22
G0 X130.838 Y59.602
G0 X128.92 Y58.869
G0 X127.616 Y58.527
G0 X125.531 Y58.22
G0 X111.179 Y57.179
G0 X109.079 Y57.257
G0 X107.766 Y57.448
G0 X105.742 Y57.977
G0 X104.483 Y58.458
G0 X102.618 Y59.418
G0 X101.499 Y60.16
G0 X99.898 Y61.493
G0 X98.975 Y62.45
G0 X97.704 Y64.094
G0 X96.653 Y65.917
G0 X97.6 Y66.403
G1 F2700 E102.11564
G1 F675 X97.6 Y147.259 E105.98821
G1 F2700 E100.98821
G0 F9000 X96.774 Y147.999
G0 X97.437 Y149.163
G0 X98.655 Y150.844
G0 X99.558 Y151.84
G0 X101.128 Y153.229
G0 X102.238 Y154.011
G0 X104.031 Y155.002
G0 X105.284 Y155.528
G0 X107.3 Y156.12
G0 X108.631 Y156.357
G0 X110.692 Y156.494
G0 X112.003 Y156.442
G0 X126.12 Y155.388
G0 X128.178 Y155.006
G0 X128 Y153.953
G1 F2700 E105.98821
G1 F675 X128 Y123.447 E107.44928
G0 F9000 X129.6 Y125.201
G1 F675 X129.6 Y153.426 E108.80111
G0 F9000 X131.2 Y152.691
G1 F675 X131.2 Y126.079 E110.07568
G0 F9000 X132.8 Y127.074
G1 F675 X132.8 Y151.699 E111.25508
G0 F9000 X134.4 Y150.372
G1 F675 X134.4 Y128.402 E112.30733
G0 F9000 X136 Y130.217
G1 F675 X136 Y148.555 E113.18562
G0 F9000 X137.6 Y145.841
G1 F675 X137.6 Y132.936 E113.8037
G0 F300 X137.6 Y132.936 Z0.324
G0 F9000 X136.335 Y130.676
;TIME_ELAPSED:221.728547
;LAYER:-5
;TYPE:SUPPORT
G1 F675 X136.247 Y130.548 E113.813
G1 X135.714 Y129.835 E113.86629
G1 X135.608 Y129.703 E113.87643
G1 X135.01 Y129.016 E113.93095
G1 X134.901 Y128.899 E113.94053
G1 X134.26 Y128.264 E113.99455
G1 X134.127 Y128.141 E114.00539
G1 X133.477 Y127.583 E114.05668
G1 X133.32 Y127.458 E114.06869
G1 X132.609 Y126.932 E114.12164
G1 X132.547 Y126.89 E114.12612
G1 X136.341 Y130.684 E114.44735
G1 X136.835 Y131.455 E114.50217
G1 X136.907 Y131.575 E114.51055
G1 X137.343 Y132.38 E114.56536
G1 X137.407 Y132.509 E114.57398
G1 X137.783 Y133.344 E114.6288
G1 X137.848 Y133.502 E114.63903
G1 X137.908 Y133.665 E114.64943
G1 X96.099 Y91.856 E118.18925
G1 X96.099 Y93.27 E118.2739
G1 X138.529 Y135.701 E121.86635
G1 X138.673 Y136.398 E121.90895
G1 X138.703 Y136.569 E121.91935
G1 X138.813 Y137.399 E121.96947
G1 X96.099 Y94.685 E125.58592
G1 X96.099 Y96.099 E125.67057
G1 X138.896 Y138.896 E129.29404
G1 X138.899 Y138.98 E129.29907
G1 X138.9 Y139.818 E129.34924
G1 X138.883 Y140.297 E129.37794
G1 X96.099 Y97.513 E133.00031
G1 X96.099 Y98.927 E133.08496
G1 X138.781 Y141.61 E136.69874
G1 X138.752 Y141.876 E136.71476
G1 X138.726 Y142.051 E136.72535
G1 X138.584 Y142.827 E136.77258
G1 X96.099 Y100.341 E140.36968
G1 X96.099 Y101.756 E140.45439
G1 X138.301 Y143.958 E144.02749
G1 X138.251 Y144.12 E144.03764
G1 X137.966 Y144.962 E144.09086
G1 X137.945 Y145.016 E144.09432
G1 X96.099 Y103.17 E147.63728
G1 X96.099 Y104.584 E147.72193
G1 X137.524 Y146.009 E151.22924
G1 X137.479 Y146.106 E151.23564
G1 X137.064 Y146.914 E151.29002
G1 X137.047 Y146.946 E151.29219
G1 X96.099 Y105.998 E154.75912
G1 X96.099 Y107.413 E154.84383
G1 X136.513 Y147.827 E158.26554
G1 X136.424 Y147.961 E158.27517
G1 X135.927 Y148.655 E158.32628
G1 X96.099 Y108.827 E161.69837
G1 X96.099 Y110.241 E161.78303
G1 X135.291 Y149.433 E165.10127
G1 X135.223 Y149.514 E165.10761
G1 X135.123 Y149.627 E165.11664
G1 X134.607 Y150.164 E165.16123
G1 X96.099 Y111.655 E168.4216
G1 X96.099 Y113.069 E168.50626
G1 X133.873 Y150.844 E171.70449
G1 X133.702 Y150.998 E171.71827
G1 X133.585 Y151.095 E171.72737
G1 X133.091 Y151.476 E171.76472
G1 X96.099 Y114.484 E174.8967
G1 X96.099 Y115.898 E174.98135
G1 X132.26 Y152.059 E178.04298
G1 X131.977 Y152.248 E178.06335
G1 X131.85 Y152.324 E178.07221
G1 X131.376 Y152.59 E178.10475
G1 X96.099 Y117.312 E181.09158
G1 X96.099 Y118.726 E181.17623
G1 X130.439 Y153.067 E184.08372
G1 X130.092 Y153.231 E184.1067
G1 X129.949 Y153.29 E184.11596
G1 X129.442 Y153.484 E184.14846
G1 X96.099 Y120.14 E186.97153
G1 X96.099 Y121.555 E187.05625
G1 X128.383 Y153.838 E189.78958
G1 X128.089 Y153.927 E189.80797
G1 X127.917 Y153.973 E189.81863
G1 X127.252 Y154.122 E189.85943
G1 X96.099 Y122.969 E192.49704
G1 X96.099 Y124.383 E192.58169
G1 X126.038 Y154.323 E195.11657
G1 X125.987 Y154.331 E195.11966
G1 X125.819 Y154.349 E195.12977
G1 X124.928 Y154.415 E195.18326
G1 X124.745 Y154.424 E195.19423
G1 X124.725 Y154.424 E195.19543
G1 X96.099 Y125.797 E197.61913
G1 X96.099 Y127.212 E197.70385
G1 X123.36 Y154.473 E200.01194
G1 X122.05 Y154.577 E200.09061
G1 X96.099 Y128.626 E202.28779
G1 X96.099 Y130.04 E202.37245
G1 X120.739 Y154.681 E204.45867
G1 X119.428 Y154.784 E204.5374
G1 X96.099 Y131.454 E206.51263
G1 X96.099 Y132.868 E206.59728
G1 X118.118 Y154.888 E208.46159
G1 X116.808 Y154.992 E208.54027
G1 X96.099 Y134.283 E210.29363
G1 X96.099 Y135.697 E210.37828
G1 X115.498 Y155.096 E212.02073
G1 X114.187 Y155.199 E212.09945
G1 X96.099 Y137.111 E213.6309
G1 X96.099 Y138.525 E213.71556
G1 X112.876 Y155.303 E215.13605
G1 X111.794 Y155.389 E215.20103
G1 X111.558 Y155.399 E215.21517
G1 X96.099 Y139.939 E216.52407
G1 X96.099 Y140.832 E216.57753
G1 X96.111 Y141.366 E216.60951
G1 X110.156 Y155.411 E217.79865
G1 X109.8 Y155.4 E217.81998
G1 X109.641 Y155.389 E217.82952
G1 X108.753 Y155.298 E217.88296
G1 X108.609 Y155.278 E217.89166
G1 X96.26 Y142.929 E218.93721
G1 X96.348 Y143.498 E218.97168
G1 X96.377 Y143.652 E218.98106
G1 X96.577 Y144.523 E219.03456
G1 X96.621 Y144.691 E219.04496
G1 X96.627 Y144.71 E219.04615
G1 X106.815 Y154.898 E219.90874
G1 X106.662 Y154.86 E219.91817
G1 X106.498 Y154.811 E219.92842
G1 X105.638 Y154.524 E219.9827
G1 X105.499 Y154.472 E219.99158
G1 X104.689 Y154.133 E220.04415
G1 X104.589 Y154.087 E220.05074
G1 X104.489 Y154.041 E220.05733
G1 X103.723 Y153.652 E220.10877
G1 X103.55 Y153.556 E220.12061
G1 X102.797 Y153.104 E220.17319
G1 X102.649 Y153.008 E220.18375
G1 X101.915 Y152.488 E220.23761
G1 X101.78 Y152.387 E220.2477
