;FLAVOR:Marlin
;TIME:4605
;Filament used: 2.74714m
;Layer height: 0.2
;MINX:78.676
;MINY:74.114
;MINZ:0.24
;MAXX:156.311
;MAXY:160.882
;MAXZ:7.29
;Generated with Cura_SteamEngine 4.8.0
M140 S60
M105
M190 S60
M104 S190
M105
M109 S190
M82 ;absolute extrusion mode
; Ender 3 Custom Start G-code
G92 E0 ; Reset Extruder
G28 ; Home all axes
M420 S1  ; use saved bed leveling
G1 Z2.0 F3000 ; Move Z Axis up little to prevent scratching of Heat Bed
G1 X0.1 Y20 Z0.3 F5000.0 ; Move to start position
G1 X0.1 Y200.0 Z0.3 F1500.0 E15 ; Draw the first line
G1 X0.4 Y200.0 Z0.3 F5000.0 ; Move to side a little
G1 X0.4 Y20 Z0.3 F1500.0 E30 ; Draw the second line
G92 E0 ; Reset Extruder
G1 Z2.0 F3000 ; Move Z Axis up little to prevent scratching of Heat Bed
G1 X5 Y20 Z0.3 F5000.0 ; Move over to prevent blob squish
G92 E0
G92 E0
G1 F2700 E-5
;LAYER_COUNT:31
;LAYER:-6
M107
G0 F9000 X104.334 Y83.069 Z0.24
;TYPE:SUPPORT-INTERFACE
G1 F2700 E0
G1 F900 X104.448 Y82.932 E0.01423
G1 X105.065 Y82.251 E0.08758
G1 X105.168 Y82.145 E0.09938
G1 X105.813 Y81.53 E0.17052
G1 X105.95 Y81.408 E0.18516
G1 X106.639 Y80.84 E0.25644
G1 X106.764 Y80.744 E0.26902
G1 X107.512 Y80.215 E0.34215
G1 X107.653 Y80.123 E0.35559
G1 X108.412 Y79.664 E0.4264
G1 X108.569 Y79.578 E0.44069
G1 X109.348 Y79.182 E0.51044
G1 X109.527 Y79.099 E0.52619
G1 X110.357 Y78.752 E0.598
G1 X110.489 Y78.703 E0.60924
G1 X111.354 Y78.412 E0.68209
G1 X111.501 Y78.368 E0.69434
G1 X112.508 Y78.114 E0.77724
G1 X112.805 Y78.049 E0.80151
G1 X112.898 Y78.031 E0.80907
G1 X113.856 Y77.865 E0.88668
G1 X113.968 Y77.849 E0.89572
G1 X114.371 Y77.804 E0.92808
G1 X115.031 Y77.689 E0.98156
G1 X115.684 Y77.487 E1.03612
G1 X116.321 Y77.196 E1.09203
G1 X116.365 Y77.171 E1.09607
G1 X116.474 Y77.118 E1.10574
G1 X117.331 Y76.737 E1.18061
G1 X117.465 Y76.683 E1.19214
G1 X118.294 Y76.385 E1.26246
G1 X118.473 Y76.328 E1.27746
G1 X119.299 Y76.093 E1.34601
G1 X119.709 Y75.992 E1.37971
G1 X120.78 Y75.767 E1.46707
G1 X121.103 Y75.713 E1.49321
G1 X122.518 Y75.542 E1.60699
G1 X122.612 Y75.533 E1.61452
G1 X122.952 Y75.509 E1.64173
G1 X123.951 Y75.473 E1.72153
G1 X124.428 Y75.472 E1.7596
G1 X125.127 Y75.487 E1.81541
G1 X125.654 Y75.51 E1.85752
G1 X126.23 Y75.548 E1.9036
G1 X126.3 Y75.554 E1.90921
G1 X126.974 Y75.569 E1.96302
G1 X127.814 Y75.466 E2.03058
G1 X128.213 Y75.385 E2.06308
G1 X128.343 Y75.363 E2.0736
G1 X129.282 Y75.243 E2.14917
G1 X129.414 Y75.231 E2.15975
G1 X130.303 Y75.183 E2.23081
G1 X130.492 Y75.179 E2.2459
G1 X131.4 Y75.196 E2.3184
G1 X131.547 Y75.205 E2.33015
G1 X132.43 Y75.286 E2.40093
G1 X132.618 Y75.31 E2.41606
G1 X133.488 Y75.454 E2.48646
G1 X133.681 Y75.494 E2.50219
G1 X134.681 Y75.738 E2.58435
G1 X134.965 Y75.82 E2.60795
G1 X135.731 Y76.059 E2.672
G1 X136.021 Y76.159 E2.69649
G1 X136.378 Y76.286 E2.72674
G1 X136.782 Y76.436 E2.76114
G1 X137.078 Y76.549 E2.78643
G1 X137.411 Y76.68 E2.81499
G1 X137.814 Y76.848 E2.84985
G1 X138.119 Y76.979 E2.87634
G1 X138.214 Y77.022 E2.88467
G1 X139.066 Y77.427 E2.95997
G1 X139.292 Y77.542 E2.98021
G1 X140.197 Y78.054 E3.06321
G1 X140.353 Y78.15 E3.07783
G1 X141.237 Y78.747 E3.16298
G1 X141.454 Y78.905 E3.18441
G1 X141.562 Y78.988 E3.19528
G1 X142.273 Y79.552 E3.26773
G1 X142.421 Y79.678 E3.28324
G1 X143.535 Y80.706 E3.40424
G1 X143.544 Y80.689 E3.40578
G1 X143.594 Y80.732 E3.41104
G1 X144.265 Y81.166 E3.47483
G1 X144.926 Y81.54 E3.53546
G1 X145.118 Y81.655 E3.55332
G1 X145.26 Y81.743 E3.56666
G1 X145.848 Y82.116 E3.62224
G1 X146.089 Y82.278 E3.64542
G1 X146.171 Y82.335 E3.65339
G1 X146.976 Y82.924 E3.73301
G1 X147.171 Y83.076 E3.75275
G1 X147.987 Y83.768 E3.83816
G1 X148.067 Y83.838 E3.84664
G1 X148.242 Y84.001 E3.86573
G1 X149.038 Y84.792 E3.95531
G1 X149.147 Y84.904 E3.96778
G1 X149.302 Y85.076 E3.98627
G1 X150.008 Y85.906 E4.07325
G1 X150.173 Y86.113 E4.09438
G1 X150.242 Y86.205 E4.10356
G1 X150.815 Y86.993 E4.18133
G1 X150.945 Y87.184 E4.19977
G1 X151.024 Y87.307 E4.21144
G1 X151.448 Y87.981 E4.275
G1 X151.662 Y88.347 E4.30885
G1 X151.959 Y88.886 E4.35797
G1 X152.121 Y89.193 E4.38568
G1 X152.379 Y89.714 E4.43209
G1 X152.531 Y90.034 E4.46037
G1 X152.85 Y90.763 E4.52389
G1 X153.085 Y91.341 E4.57369
G1 X153.425 Y92.261 E4.65199
G1 X153.646 Y92.927 E4.708
G1 X153.848 Y93.583 E4.76279
G1 X154.05 Y94.303 E4.82248
G1 X154.2 Y94.883 E4.87031
G1 X154.38 Y95.644 E4.93273
G1 X154.498 Y96.186 E4.97701
G1 X154.652 Y96.964 E5.04031
G1 X154.742 Y97.462 E5.08071
G1 X154.871 Y98.253 E5.14469
G1 X154.945 Y98.765 E5.18598
G1 X155.048 Y99.577 E5.25132
G1 X155.105 Y100.091 E5.2926
G1 X155.166 Y100.77 E5.34702
G1 X155.214 Y101.469 E5.40295
G1 X155.247 Y102.176 E5.45944
G1 X155.263 Y103.006 E5.52571
G1 X155.258 Y103.595 E5.57273
G1 X155.208 Y104.698 E5.66087
G1 X155.168 Y105.2 E5.70106
G1 X155.157 Y105.292 E5.70846
G1 X154.952 Y106.777 E5.82812
G1 X154.935 Y106.881 E5.83654
G1 X154.85 Y107.313 E5.87168
G1 X154.637 Y108.233 E5.94706
G1 X154.59 Y108.412 E5.96183
G1 X154.386 Y109.091 E6.01843
G1 X154.284 Y109.393 E6.04387
G1 X153.895 Y110.42 E6.13154
G1 X153.787 Y110.681 E6.15408
G1 X153.731 Y110.808 E6.16516
G1 X153.331 Y111.658 E6.24015
G1 X153.276 Y111.771 E6.25018
G1 X153.135 Y112.041 E6.2745
G1 X152.775 Y112.693 E6.33395
G1 X152.66 Y112.891 E6.35223
G1 X152.538 Y113.094 E6.37113
G1 X152.195 Y113.642 E6.42274
G1 X151.988 Y113.956 E6.45276
G1 X151.609 Y114.504 E6.50595
G1 X151.342 Y114.872 E6.54224
G1 X151.051 Y115.26 E6.58095
G1 X150.795 Y115.589 E6.61423
G1 X150.515 Y115.94 E6.65007
G1 X150.203 Y116.317 E6.68913
G1 X149.968 Y116.594 E6.71813
G1 X149.62 Y116.994 E6.76045
G1 X149.424 Y117.215 E6.78403
G1 X149.086 Y117.588 E6.82421
G1 X148.669 Y118.111 E6.87761
G1 X148.315 Y118.691 E6.93185
G1 X148.111 Y119.127 E6.97027
G1 X147.996 Y119.4 E6.99392
G1 X147.824 Y119.796 E7.02838
G1 X147.647 Y120.184 E7.06242
G1 X147.46 Y120.58 E7.09738
G1 X147.224 Y121.057 E7.13986
G1 X147.031 Y121.431 E7.17346
G1 X146.768 Y121.916 E7.2175
G1 X146.586 Y122.24 E7.24716
G1 X146.301 Y122.727 E7.29221
G1 X146.099 Y123.056 E7.32302
G1 X145.733 Y123.625 E7.37703
G1 X145.538 Y123.916 E7.40499
G1 X145.093 Y124.541 E7.46623
G1 X144.905 Y124.793 E7.49133
G1 X144.399 Y125.429 E7.55621
G1 X144.049 Y125.85 E7.59991
G1 X143.664 Y126.398 E7.65337
G1 X143.345 Y127.002 E7.70789
G1 X143.105 Y127.641 E7.76238
G1 X142.949 Y128.304 E7.81675
G1 X142.886 Y128.841 E7.85991
G1 X142.839 Y129.541 E7.91591
G1 X142.821 Y129.709 E7.9294
G1 X142.697 Y130.599 E8.00113
G1 X142.671 Y130.747 E8.01312
G1 X142.647 Y130.855 E8.02196
G1 X142.549 Y131.513 E8.07506
G1 X142.529 Y131.887 E8.10496
G1 X142.515 Y132.67 E8.16747
G1 X142.507 Y132.835 E8.18066
G1 X142.425 Y133.732 E8.25256
G1 X142.404 Y133.896 E8.26575
G1 X142.256 Y134.798 E8.33872
G1 X142.231 Y134.924 E8.34897
G1 X142.013 Y135.829 E8.42328
G1 X141.969 Y135.986 E8.4363
G1 X141.699 Y136.832 E8.50718
G1 X141.635 Y137.007 E8.52206
G1 X141.311 Y137.814 E8.59147
G1 X141.236 Y137.983 E8.60623
G1 X140.844 Y138.785 E8.67749
G1 X140.76 Y138.942 E8.6917
G1 X140.316 Y139.7 E8.76183
G1 X139.999 Y140.199 E8.80902
G1 X140.007 Y140.207 E8.80992
G1 X139.857 Y140.457 E8.83319
G1 X139.586 Y141.081 E8.8875
G1 X139.568 Y141.139 E8.89234
G1 X139.554 Y141.135 E8.89351
G1 X139.41 Y141.657 E8.93673
G1 X139.34 Y141.896 E8.95661
G1 X138.879 Y143.22 E9.06852
G1 X138.773 Y143.487 E9.09145
G1 X138.713 Y143.63 E9.10383
G1 X138.331 Y144.486 E9.17866
G1 X138.276 Y144.599 E9.18869
G1 X137.988 Y145.156 E9.23874
G1 X137.862 Y145.384 E9.25954
G1 X137.358 Y146.232 E9.33828
G1 X137.278 Y146.357 E9.35013
G1 X136.775 Y147.086 E9.42083
G1 X136.615 Y147.328 E9.44398
G1 X136.416 Y147.648 E9.47406
G1 X136.053 Y148.206 E9.5272
G1 X135.856 Y148.495 E9.55512
G1 X135.551 Y148.92 E9.59688
G1 X135.302 Y149.257 E9.63033
G1 X135.048 Y149.592 E9.66388
G1 X134.767 Y149.951 E9.70028
G1 X134.521 Y150.254 E9.73143
G1 X134.238 Y150.596 E9.76687
G1 X133.968 Y150.913 E9.8001
G1 X133.734 Y151.18 E9.82844
G1 X133.327 Y151.71 E9.88179
G1 X133.038 Y152.191 E9.92658
G1 X132.914 Y152.425 E9.94772
G1 X132.824 Y152.582 E9.96216
G1 X132.349 Y153.343 E10.03377
G1 X132.262 Y153.471 E10.04613
G1 X131.733 Y154.195 E10.1177
G1 X131.62 Y154.337 E10.13219
G1 X131.038 Y155.021 E10.20388
G1 X130.931 Y155.138 E10.21653
G1 X130.299 Y155.779 E10.28839
G1 X130.18 Y155.891 E10.30143
G1 X129.484 Y156.502 E10.37536
G1 X129.375 Y156.592 E10.38665
G1 X128.643 Y157.144 E10.45983
G1 X128.516 Y157.232 E10.47216
G1 X127.746 Y157.729 E10.54532
G1 X127.634 Y157.796 E10.55574
G1 X126.841 Y158.23 E10.6279
G1 X126.657 Y158.322 E10.64432
G1 X125.869 Y158.681 E10.71344
G1 X125.702 Y158.75 E10.72787
G1 X124.85 Y159.066 E10.8004
G1 X124.704 Y159.114 E10.81267
G1 X123.843 Y159.363 E10.88422
G1 X123.685 Y159.403 E10.89723
G1 X122.787 Y159.593 E10.9705
G1 X122.637 Y159.619 E10.98265
G1 X121.756 Y159.739 E11.05362
G1 X121.565 Y159.758 E11.06894
G1 X120.69 Y159.812 E11.13892
G1 X120.515 Y159.817 E11.1529
G1 X119.602 Y159.807 E11.22578
G1 X119.463 Y159.8 E11.23689
G1 X118.531 Y159.723 E11.31154
G1 X118.393 Y159.706 E11.32264
G1 X117.482 Y159.562 E11.39626
G1 X117.336 Y159.533 E11.40815
G1 X116.464 Y159.329 E11.47963
G1 X116.304 Y159.286 E11.49286
G1 X115.424 Y159.011 E11.56645
G1 X115.298 Y158.967 E11.57711
G1 X114.545 Y158.676 E11.64155
G1 X114.326 Y158.583 E11.66054
G1 X113.489 Y158.195 E11.73418
G1 X113.307 Y158.1 E11.75057
G1 X113.235 Y158.059 E11.75718
G1 X112.627 Y157.763 E11.81116
G1 X112.235 Y157.642 E11.84391
G1 X112.243 Y157.61 E11.84654
G1 X110.861 Y157.265 E11.96025
G1 X110.726 Y157.227 E11.97144
G1 X110.217 Y157.068 E12.01401
G1 X109.937 Y156.975 E12.03756
G1 X109.022 Y156.636 E12.11545
G1 X108.855 Y156.567 E12.12987
G1 X108.056 Y156.203 E12.19996
G1 X107.896 Y156.124 E12.2142
G1 X107.102 Y155.689 E12.28647
G1 X106.992 Y155.623 E12.29671
G1 X106.396 Y155.317 E12.35019
G1 X105.759 Y155.087 E12.40425
G1 X105.427 Y155.002 E12.43161
G1 X105.255 Y154.964 E12.44567
G1 X104.411 Y154.743 E12.51531
G1 X104.244 Y154.693 E12.52923
G1 X103.393 Y154.402 E12.60102
G1 X103.216 Y154.335 E12.61613
G1 X102.424 Y153.998 E12.68483
G1 X102.235 Y153.91 E12.70148
G1 X101.441 Y153.502 E12.77274
G1 X101.324 Y153.435 E12.7835
G1 X100.545 Y152.961 E12.85629
G1 X100.394 Y152.861 E12.87074
G1 X99.68 Y152.35 E12.94083
G1 X99.532 Y152.237 E12.9557
G1 X98.841 Y151.661 E13.0275
G1 X98.728 Y151.56 E13.0396
G1 X98.079 Y150.935 E13.11153
G1 X97.959 Y150.81 E13.12536
G1 X97.332 Y150.111 E13.20031
G1 X97.266 Y150.033 E13.20847
G1 X96.9 Y149.573 E13.25539
G1 X96.724 Y149.327 E13.27954
G1 X96.567 Y149.118 E13.3004
G1 X95.806 Y148.153 E13.3985
G1 X95.704 Y148.016 E13.41214
G1 X95.483 Y147.703 E13.44272
G1 X94.948 Y146.885 E13.52075
G1 X94.871 Y146.759 E13.53253
G1 X94.451 Y145.998 E13.60192
G1 X94.348 Y145.792 E13.6203
G1 X93.862 Y144.718 E13.7144
G1 X93.697 Y144.303 E13.75005
G1 X93.38 Y143.411 E13.82562
G1 X93.328 Y143.246 E13.83943
G1 X93.094 Y142.398 E13.90965
G1 X93.047 Y142.199 E13.92597
G1 X92.882 Y141.369 E13.99352
G1 X92.85 Y141.169 E14.00969
G1 X92.823 Y140.951 E14.02722
G1 X92.698 Y140.293 E14.08069
G1 X92.488 Y139.643 E14.13521
G1 X92.197 Y139.026 E14.18967
G1 X91.83 Y138.449 E14.24425
G1 X91.392 Y137.922 E14.29895
G1 X90.823 Y137.401 E14.36054
G1 X90.347 Y137.023 E14.40906
G1 X90.11 Y136.83 E14.43346
G1 X89.4 Y136.344 E14.50214
G1 X89.129 Y136.191 E14.52698
G1 X88.909 Y136.057 E14.54754
G1 X87.78 Y135.282 E14.65685
G1 X87.605 Y135.15 E14.67435
G1 X87.522 Y135.085 E14.68277
G1 X86.504 Y134.23 E14.78889
G1 X86.356 Y134.098 E14.80472
G1 X86.216 Y133.961 E14.82035
G1 X85.282 Y133.004 E14.9271
G1 X85.172 Y132.886 E14.93997
G1 X85.016 Y132.704 E14.95911
G1 X84.145 Y131.609 E15.0708
G1 X84.059 Y131.49 E15.08252
G1 X83.976 Y131.37 E15.09416
G1 X83.33 Y130.393 E15.18766
G1 X83.157 Y130.1 E15.21482
G1 X82.668 Y129.218 E15.29532
G1 X82.515 Y128.915 E15.32242
G1 X82.148 Y128.14 E15.39087
G1 X82.027 Y127.862 E15.41507
G1 X81.776 Y127.255 E15.4675
G1 X81.561 Y126.701 E15.51494
G1 X81.264 Y125.861 E15.58606
G1 X81.043 Y125.173 E15.64374
G1 X80.976 Y124.963 E15.66133
G1 X80.721 Y124.13 E15.73087
G1 X80.505 Y123.389 E15.79249
G1 X80.334 Y122.759 E15.84459
G1 X80.27 Y122.497 E15.86612
G1 X80.116 Y121.813 E15.92209
G1 X80.047 Y121.465 E15.95041
G1 X79.883 Y120.449 E16.03256
G1 X79.865 Y120.313 E16.04351
G1 X79.8 Y119.668 E16.09526
G1 X79.778 Y119.365 E16.11951
G1 X79.741 Y118.429 E16.19428
G1 X79.74 Y118.267 E16.20722
G1 X79.769 Y117.367 E16.27909
G1 X79.779 Y117.218 E16.29102
G1 X79.877 Y116.281 E16.36622
G1 X79.928 Y115.905 E16.39651
G1 X80.109 Y114.901 E16.47794
G1 X80.147 Y114.724 E16.49239
G1 X80.355 Y113.912 E16.5593
G1 X80.42 Y113.695 E16.57739
G1 X80.814 Y112.559 E16.67337
G1 X80.879 Y112.389 E16.68789
G1 X80.934 Y112.258 E16.69924
G1 X81.303 Y111.423 E16.77211
G1 X81.372 Y111.283 E16.78457
G1 X81.792 Y110.497 E16.8557
G1 X81.894 Y110.32 E16.87201
G1 X82.356 Y109.59 E16.94097
G1 X82.46 Y109.437 E16.95574
G1 X82.979 Y108.734 E17.02549
G1 X83.122 Y108.555 E17.04378
G1 X83.668 Y107.919 E17.11069
G1 X83.791 Y107.786 E17.12515
G1 X84.423 Y107.149 E17.19678
G1 X84.544 Y107.036 E17.21
G1 X85.231 Y106.438 E17.2827
G1 X85.362 Y106.332 E17.29615
G1 X86.075 Y105.799 E17.36721
G1 X86.203 Y105.71 E17.37966
G1 X86.982 Y105.211 E17.4535
G1 X87.104 Y105.139 E17.46481
G1 X87.94 Y104.686 E17.54071
G1 X88.034 Y104.639 E17.5491
G1 X88.521 Y104.409 E17.59209
G1 X88.63 Y104.363 E17.60154
G1 X89.483 Y104.018 E17.67498
G1 X89.636 Y103.962 E17.68799
G1 X90.507 Y103.681 E17.76105
G1 X91.112 Y103.511 E17.81121
G1 X91.109 Y103.498 E17.81227
G1 X91.245 Y103.456 E17.82364
G1 X91.867 Y103.176 E17.87809
G1 X92.391 Y102.857 E17.92706
G1 X92.402 Y102.871 E17.92848
G1 X93.616 Y101.901 E18.05252
G1 X93.881 Y101.704 E18.07888
G1 X93.982 Y101.633 E18.08873
G1 X94.833 Y101.052 E18.17098
G1 X94.953 Y100.974 E18.18241
G1 X95.284 Y100.769 E18.21349
G1 X96.081 Y100.307 E18.28702
G1 X96.471 Y100.097 E18.32238
G1 X96.595 Y100.032 E18.33356
G1 X97.12 Y99.767 E18.3805
G1 X97.761 Y99.462 E18.43717
G1 X97.878 Y99.408 E18.44745
G1 X98.47 Y99.096 E18.50087
G1 X99.029 Y98.704 E18.55537
G1 X99.534 Y98.244 E18.6099
G1 X99.977 Y97.724 E18.66443
G1 X100.351 Y97.153 E18.71891
G1 X100.649 Y96.538 E18.77346
G1 X100.867 Y95.892 E18.82789
G1 X101.003 Y95.223 E18.88238
G1 X101.053 Y94.544 E18.93673
G1 X101.027 Y93.968 E18.98276
G1 X101.008 Y93.777 E18.99808
G1 X100.955 Y92.916 E19.06694
G1 X100.95 Y92.752 E19.08003
G1 X100.96 Y91.828 E19.1538
G1 X100.966 Y91.7 E19.16402
G1 X101.044 Y90.757 E19.23956
G1 X101.059 Y90.632 E19.2496
G1 X101.203 Y89.721 E19.32323
G1 X101.235 Y89.558 E19.33649
G1 X101.441 Y88.68 E19.40848
G1 X101.479 Y88.539 E19.42013
G1 X101.753 Y87.662 E19.49348
G1 X101.804 Y87.515 E19.5059
G1 X102.152 Y86.63 E19.58181
G1 X102.581 Y85.723 E19.6619
G1 X102.656 Y85.58 E19.67479
G1 X103.088 Y84.819 E19.74464
G1 X103.209 Y84.624 E19.76296
G1 X103.688 Y83.908 E19.83172
G1 X103.796 Y83.759 E19.84641
G1 X104.334 Y83.069 E19.91625
G0 F9000 X104 Y83.497
G1 F900 X104 Y154.609 E25.59272
G0 F9000 X105.6 Y155.046
G1 F900 X105.6 Y81.733 E31.44488
G0 F9000 X107.2 Y80.435
G1 F900 X107.2 Y155.742 E37.45621
G0 F9000 X108.8 Y156.541
G1 F900 X108.8 Y79.46 E43.60915
G0 F9000 X110.4 Y78.736
G1 F900 X110.4 Y157.125 E49.8665
G0 F9000 X112 Y157.549
G1 F900 X112 Y78.242 E56.19713
G0 F9000 X113.6 Y77.909
G1 F900 X113.6 Y158.246 E62.60998
G0 F9000 X115.2 Y158.929
G1 F900 X115.2 Y77.636 E69.09913
G0 F9000 X116.8 Y76.973
G1 F900 X116.8 Y159.407 E75.67937
G0 F9000 X118.4 Y159.706
G1 F900 X118.4 Y76.351 E82.33313
G0 F9000 X120 Y75.93
G1 F900 X120 Y159.811 E89.02887
G0 F9000 X121.6 Y159.755
G1 F900 X121.6 Y75.652 E95.74234
G0 F9000 X123.2 Y75.5
G1 F900 X123.2 Y159.506 E102.44806
G0 F9000 X124.8 Y159.083
G1 F900 X124.8 Y75.48 E109.12161
G0 F9000 X126.4 Y75.557
G1 F900 X126.4 Y158.44 E115.73769
G0 F9000 X128 Y157.566
G1 F900 X128 Y75.428 E122.2943
G0 F9000 X129.6 Y75.22
G1 F900 X129.6 Y156.401 E128.77452
G0 F9000 X131.2 Y154.831
G1 F900 X131.2 Y75.193 E135.13157
G0 F9000 X132.8 Y75.341
G1 F900 X132.8 Y152.621 E141.30039
G0 F9000 X134.4 Y150.401
G1 F900 X134.4 Y75.67 E147.26575
G0 F9000 X136 Y76.152
G1 F900 X136 Y148.284 E153.02363
G0 F9000 X137.6 Y145.825
