;FLAVOR:Marlin
;TIME:461
;Filament used: 0.337024m
;Layer height: 0.2
;MINX:99.839
;MINY:99.856
;MINZ:0.24
;MAXX:135.156
;MAXY:134.848
;MAXZ:13.09
;Generated with Cura_SteamEngine 4.8.0
M140 S50
M105
M190 S50
M104 S200
M105
M109 S200
M82 ;absolute extrusion mode
; Ender 3 Custom Start G-code
G92 E0 ; Reset Extruder
G28 ; Home all axes
G29 ; ABL
G1 Z2.0 F3000 ; Move Z Axis up little to prevent scratching of Heat Bed
G1 X0.1 Y20 Z0.3 F5000.0 ; Move to start position
G1 X0.1 Y200.0 Z0.3 F1500.0 E15 ; Draw the first line
G1 X0.4 Y200.0 Z0.3 F5000.0 ; Move to side a little
G1 X0.4 Y20 Z0.3 F1500.0 E30 ; Draw the second line
G92 E0 ; Reset Extruder
G1 Z2.0 F3000 ; Move Z Axis up little to prevent scratching of Heat Bed
G1 X5 Y20 Z0.3 F5000.0 ; Move over to prevent blob squish
G92 E0
G92 E0
G1 F2700 E-5
;LAYER_COUNT:60
;LAYER:-6
M107
G0 F9000 X105.645 Y105.885 Z0.24
;TYPE:SUPPORT-INTERFACE
G1 F2700 E0
G1 F1125 X106.393 Y105.172 E0.08249
G1 X106.631 Y104.959 E0.10798
G1 X107.41 Y104.323 E0.18826
G1 X107.558 Y104.212 E0.20303
G1 X108.419 Y103.613 E0.28675
G1 X108.533 Y103.537 E0.29769
G1 X108.689 Y103.438 E0.31244
G1 X109.572 Y102.92 E0.39416
G1 X109.738 Y102.831 E0.40919
G1 X110.72 Y102.353 E0.49637
G1 X110.97 Y102.244 E0.51814
G1 X111.896 Y101.878 E0.59762
G1 X112.056 Y101.822 E0.61116
G1 X113.05 Y101.515 E0.6942
G1 X113.341 Y101.435 E0.71829
G1 X114.338 Y101.207 E0.79993
G1 X114.528 Y101.171 E0.81537
G1 X115.628 Y101.013 E0.90407
G1 X115.756 Y100.997 E0.91437
G1 X116.038 Y100.97 E0.93698
G1 X116.962 Y100.912 E1.01089
G1 X117.126 Y100.908 E1.02398
G1 X118.166 Y100.92 E1.107
G1 X118.275 Y100.923 E1.11571
G1 X118.593 Y100.944 E1.14115
G1 X119.486 Y101.023 E1.21271
G1 X119.646 Y101.043 E1.22558
G1 X120.697 Y101.218 E1.31063
G1 X121.052 Y101.29 E1.33955
G1 X121.995 Y101.524 E1.4171
G1 X122.15 Y101.569 E1.42999
G1 X123.159 Y101.902 E1.5148
G1 X123.433 Y102.003 E1.53811
G1 X124.394 Y102.404 E1.62123
G1 X124.562 Y102.482 E1.63602
G1 X125.594 Y103.013 E1.72866
G1 X125.784 Y103.122 E1.74615
G1 X125.849 Y103.16 E1.75216
G1 X126.651 Y103.655 E1.82739
G1 X126.786 Y103.745 E1.84034
G1 X127.668 Y104.386 E1.92738
G1 X127.904 Y104.574 E1.95146
G1 X128.626 Y105.186 E2.02701
G1 X128.756 Y105.305 E2.04108
G1 X129.582 Y106.126 E2.13405
G1 X129.746 Y106.302 E2.15325
G1 X129.848 Y106.416 E2.16546
G1 X130.45 Y107.12 E2.2394
G1 X130.538 Y107.231 E2.25071
G1 X131.174 Y108.097 E2.33648
G1 X131.33 Y108.328 E2.35873
G1 X131.86 Y109.177 E2.43862
G1 X131.93 Y109.3 E2.44992
G1 X132.458 Y110.319 E2.54153
G1 X132.587 Y110.591 E2.56556
G1 X132.984 Y111.525 E2.64657
G1 X133.051 Y111.705 E2.6619
G1 X133.356 Y112.611 E2.73821
G1 X133.403 Y112.76 E2.75068
G1 X133.479 Y113.029 E2.77299
G1 X133.705 Y113.919 E2.84629
G1 X133.746 Y114.109 E2.86181
G1 X133.925 Y115.151 E2.9462
G1 X133.95 Y115.32 E2.95984
G1 X133.984 Y115.59 E2.98156
G1 X134.067 Y116.507 E3.05506
G1 X134.077 Y116.711 E3.07137
G1 X134.091 Y117.687 E3.14928
G1 X134.086 Y118.027 E3.17643
G1 X134.025 Y119.037 E3.25719
G1 X134.006 Y119.228 E3.27252
G1 X133.846 Y120.365 E3.36417
G1 X133.807 Y120.575 E3.38122
G1 X133.589 Y121.576 E3.463
G1 X133.551 Y121.722 E3.47504
G1 X133.217 Y122.825 E3.56703
G1 X133.119 Y123.104 E3.59064
G1 X132.773 Y123.996 E3.66701
G1 X132.711 Y124.138 E3.67938
G1 X132.257 Y125.085 E3.76321
G1 X132.109 Y125.372 E3.78899
G1 X132.062 Y125.458 E3.79681
G1 X131.573 Y126.298 E3.8744
G1 X131.49 Y126.429 E3.88678
G1 X130.898 Y127.287 E3.96999
G1 X130.716 Y127.536 E3.99461
G1 X130.645 Y127.627 E4.00382
G1 X130.04 Y128.372 E4.08043
G1 X129.934 Y128.492 E4.09321
G1 X129.259 Y129.206 E4.17164
G1 X129.162 Y129.305 E4.18271
G1 X128.998 Y129.466 E4.20105
G1 X128.271 Y130.127 E4.27948
G1 X128.126 Y130.249 E4.29461
G1 X127.285 Y130.901 E4.37955
G1 X127.044 Y131.075 E4.40328
G1 X126.979 Y131.12 E4.40959
G1 X126.196 Y131.636 E4.48445
G1 X126.027 Y131.739 E4.50025
G1 X124.984 Y132.312 E4.59524
G1 X124.752 Y132.426 E4.61587
G1 X123.866 Y132.827 E4.6935
G1 X123.725 Y132.885 E4.70567
G1 X122.643 Y133.277 E4.79754
G1 X122.364 Y133.364 E4.82087
G1 X121.462 Y133.617 E4.89565
G1 X121.297 Y133.657 E4.9092
G1 X120.225 Y133.868 E4.99641
G1 X119.921 Y133.918 E5.02101
G1 X119.837 Y133.928 E5.02776
G1 X118.909 Y134.037 E5.10234
G1 X118.748 Y134.049 E5.11523
G1 X117.688 Y134.092 E5.19991
G1 X117.378 Y134.094 E5.22466
G1 X116.372 Y134.058 E5.30502
G1 X116.177 Y134.043 E5.32063
G1 X115.097 Y133.92 E5.40739
G1 X114.79 Y133.871 E5.43221
G1 X113.859 Y133.692 E5.50789
G1 X113.684 Y133.652 E5.52222
G1 X112.652 Y133.369 E5.60764
G1 X112.359 Y133.278 E5.63213
G1 X112.253 Y133.242 E5.64106
G1 X111.391 Y132.932 E5.71419
G1 X111.225 Y132.864 E5.72851
G1 X110.264 Y132.433 E5.81258
G1 X110.024 Y132.315 E5.83393
G1 X109.915 Y132.259 E5.84371
G1 X109.09 Y131.81 E5.91869
G1 X108.964 Y131.734 E5.93043
G1 X108.02 Y131.12 E6.02032
G1 X107.8 Y130.964 E6.04185
G1 X107.691 Y130.883 E6.05269
G1 X106.982 Y130.338 E6.12408
G1 X106.828 Y130.21 E6.14006
G1 X105.978 Y129.442 E6.23151
G1 X105.774 Y129.24 E6.25442
G1 X105.104 Y128.536 E6.332
G1 X105.02 Y128.441 E6.34212
G1 X104.303 Y127.562 E6.43267
G1 X104.148 Y127.355 E6.45331
G1 X103.594 Y126.56 E6.53066
G1 X103.492 Y126.4 E6.54581
G1 X102.937 Y125.456 E6.63322
G1 X102.772 Y125.146 E6.66125
G1 X102.353 Y124.284 E6.73776
G1 X102.283 Y124.125 E6.75163
G1 X101.881 Y123.101 E6.83944
G1 X101.839 Y122.989 E6.84899
G1 X101.786 Y122.832 E6.86222
G1 X101.746 Y122.708 E6.87262
G1 X101.475 Y121.82 E6.94673
G1 X101.438 Y121.68 E6.95829
G1 X101.207 Y120.642 E7.04317
G1 X101.151 Y120.345 E7.0673
G1 X101.003 Y119.318 E7.15012
G1 X100.989 Y119.193 E7.16016
G1 X100.929 Y118.447 E7.21991
G1 X100.919 Y118.211 E7.23876
G1 X100.904 Y117.263 E7.31444
G1 X100.906 Y117.121 E7.32578
G1 X100.944 Y116.383 E7.38477
G1 X100.963 Y116.116 E7.40614
G1 X100.974 Y116.003 E7.4152
G1 X101.083 Y115.061 E7.4909
G1 X101.106 Y114.913 E7.50285
G1 X101.324 Y113.795 E7.59378
G1 X101.392 Y113.51 E7.61716
G1 X101.648 Y112.587 E7.69362
G1 X101.705 Y112.406 E7.70877
G1 X102.05 Y111.448 E7.79005
G1 X102.095 Y111.331 E7.80006
G1 X102.19 Y111.1 E7.81999
G1 X102.573 Y110.247 E7.89463
G1 X102.669 Y110.052 E7.91198
G1 X103.163 Y109.149 E7.99415
G1 X103.316 Y108.888 E8.0183
G1 X103.362 Y108.814 E8.02525
G1 X103.885 Y108.009 E8.10188
G1 X103.986 Y107.866 E8.11586
G1 X104.693 Y106.949 E8.20828
G1 X104.895 Y106.709 E8.23332
G1 X105.512 Y106.024 E8.30692
G1 X105.645 Y105.885 E8.32227
G0 F9000 X105.6 Y105.932
G1 F1125 X105.6 Y129.057 E10.16821
G0 F9000 X107.2 Y130.505
G1 F1125 X107.2 Y104.494 E12.24452
G0 F9000 X108.8 Y103.372
G1 F1125 X108.8 Y131.627 E14.49996
G0 F9000 X110.4 Y132.493
G1 F1125 X110.4 Y102.508 E16.89349
G0 F9000 X112 Y101.841
G1 F1125 X112 Y133.151 E19.39279
G0 F9000 X113.6 Y133.628
G1 F1125 X113.6 Y101.375 E21.96736
G0 F9000 X115.2 Y101.074
G1 F1125 X115.2 Y133.931 E24.59015
G0 F9000 X116.8 Y134.073
G1 F1125 X116.8 Y100.922 E27.23641
G0 F9000 X118.4 Y100.932
G1 F1125 X118.4 Y134.064 E29.88115
G0 F9000 X120 Y133.906
G1 F1125 X120 Y101.102 E32.4997
G0 F9000 X121.6 Y101.426
G1 F1125 X121.6 Y133.579 E35.06629
G0 F9000 X123.2 Y133.076
G1 F1125 X123.2 Y101.918 E37.55346
G0 F9000 X124.8 Y102.605
G1 F1125 X124.8 Y132.403 E39.93207
G0 F9000 X126.4 Y131.502
G1 F1125 X126.4 Y103.501 E42.16723
G0 F9000 X128 Y104.656
G1 F1125 X128 Y130.347 E44.21799
G0 F9000 X129.6 Y128.846
G1 F1125 X129.6 Y106.146 E46.03001
G0 F9000 X131.2 Y108.136
G1 F1125 X131.2 Y126.85 E47.52384
G0 F9000 X132.8 Y123.927
G1 F1125 X132.8 Y111.093 E48.5483
G1 F2700 E43.5483
G0 F9000 X133.78 Y110.677
G0 X132.779 Y108.64
G0 X132.039 Y107.478
G0 X131.275 Y106.448
G0 X130.345 Y105.383
G0 X129.324 Y104.383
G0 X128.258 Y103.498
G0 X126.403 Y102.252
G0 X124.817 Y101.427
G0 X123.501 Y100.894
G0 X122.271 Y100.496
G0 X120.878 Y100.169
G0 X119.605 Y99.965
G0 X118.197 Y99.856
G0 X115.958 Y99.91
G0 X114.119 Y100.165
G0 X112.753 Y100.493
G0 X111.533 Y100.877
G0 X110.244 Y101.401
G0 X109.058 Y101.988
G0 X107.817 Y102.736
G0 X106.756 Y103.482
G0 X105.669 Y104.392
G0 X104.729 Y105.303
G0 X104.473 Y105.594
G0 X103.157 Y107.199
G0 X104 Y107.847
G1 F2700 E48.5483
G1 F1125 X104 Y127.142 E50.08851
G0 F9000 X102.4 Y124.38
G1 F1125 X102.4 Y110.632 E51.18594
G1 F2700 E46.18594
G0 F300 X102.4 Y110.632 Z0.54
G0 F9000 X101.215 Y110.673
G0 X100.625 Y112.291
G0 X100.267 Y113.651
G0 X100.029 Y114.912
G0 X99.839 Y117.257
G0 X99.948 Y119.46
G0 X100.165 Y120.862
G0 X100.453 Y122.118
G0 X100.884 Y123.475
G0 X101.39 Y124.737
G0 X101.566 Y125.091
G0 X102.575 Y126.94
G0 X103.492 Y126.399
;TIME_ELAPSED:42.788997
;LAYER:-5
;TYPE:SUPPORT
G1 F2700 E51.18594
G1 F1125 X103.593 Y126.559 E51.20482
G1 X104.148 Y127.354 E51.30156
G1 X104.303 Y127.561 E51.32736
G1 X105.019 Y128.44 E51.44049
G1 X105.104 Y128.535 E51.45321
G1 X105.773 Y129.238 E51.55004
G1 X105.978 Y129.441 E51.57882
G1 X106.828 Y130.209 E51.69313
G1 X106.981 Y130.337 E51.71303
G1 X107.69 Y130.882 E51.80226
G1 X107.799 Y130.963 E51.81581
G1 X108.019 Y131.119 E51.84272
G1 X108.964 Y131.733 E51.95517
G1 X109.09 Y131.809 E51.96985
G1 X109.291 Y131.918 E51.99267
G1 X103.091 Y125.719 E52.86749
G1 X102.937 Y125.455 E52.89798
G1 X102.772 Y125.145 E52.93302
G1 X102.352 Y124.283 E53.0287
G1 X102.282 Y124.124 E53.04603
G1 X101.881 Y123.1 E53.15576
G1 X101.877 Y123.091 E53.15675
G1 X111.901 Y133.114 E54.57117
G1 X112.253 Y133.241 E54.60851
G1 X112.359 Y133.276 E54.61965
G1 X112.652 Y133.368 E54.65029
G1 X113.683 Y133.65 E54.75694
G1 X113.858 Y133.691 E54.77488
G1 X113.9 Y133.699 E54.77914
G1 X101.31 Y121.109 E56.55573
G1 X101.206 Y120.64 E56.60366
G1 X101.15 Y120.344 E56.63372
G1 X101.014 Y119.399 E56.72899
G1 X115.59 Y133.974 E58.78575
G1 X116.176 Y134.042 E58.84461
G1 X116.372 Y134.056 E58.86422
G1 X117.112 Y134.083 E58.9381
G1 X100.913 Y117.883 E61.22403
G1 X100.904 Y117.262 E61.286
G1 X100.906 Y117.12 E61.30017
G1 X100.937 Y116.493 E61.36281
G1 X118.501 Y134.058 E63.84135
G1 X118.747 Y134.048 E63.86591
G1 X118.908 Y134.036 E63.88202
G1 X119.789 Y133.931 E63.97055
G1 X101.065 Y115.207 E66.61271
G1 X101.083 Y115.059 E66.62759
G1 X101.105 Y114.912 E66.64242
G1 X101.281 Y114.009 E66.73422
G1 X120.988 Y133.716 E69.51509
G1 X121.297 Y133.655 E69.54651
G1 X121.462 Y133.616 E69.56343
G1 X122.118 Y133.432 E69.63141
G1 X101.565 Y112.879 E72.53166
G1 X101.648 Y112.586 E72.56205
G1 X101.705 Y112.405 E72.58098
G1 X101.916 Y111.816 E72.64341
G1 X123.181 Y133.081 E75.64413
G1 X123.724 Y132.884 E75.70177
G1 X123.866 Y132.826 E75.71707
G1 X124.192 Y132.677 E75.75284
G1 X102.321 Y110.806 E78.83907
G1 X102.572 Y110.246 E78.90031
G1 X102.669 Y110.051 E78.92204
G1 X102.778 Y109.849 E78.94494
G1 X125.148 Y132.219 E82.10159
G1 X126.027 Y131.738 E82.20157
G1 X126.06 Y131.717 E82.20547
G1 X103.284 Y108.941 E85.41941
G1 X103.316 Y108.886 E85.42576
G1 X103.362 Y108.813 E85.43437
G1 X103.837 Y108.079 E85.52161
G1 X126.917 Y131.159 E88.77845
G1 X126.978 Y131.119 E88.78572
G1 X127.043 Y131.074 E88.79361
G1 X127.285 Y130.9 E88.82335
G1 X127.728 Y130.556 E88.87932
G1 X104.443 Y107.271 E92.16508
G1 X104.692 Y106.948 E92.20578
G1 X104.895 Y106.708 E92.23714
G1 X105.083 Y106.498 E92.26526
G1 X128.501 Y129.915 E95.56973
G1 X128.998 Y129.464 E95.63669
G1 X129.161 Y129.304 E95.65948
G1 X129.232 Y129.232 E95.66957
G1 X105.768 Y105.768 E98.9806
G1 X106.392 Y105.172 E99.0667
G1 X106.495 Y105.081 E99.08041
G1 X129.92 Y128.506 E102.38593
G1 X129.932 Y128.491 E102.38785
G1 X130.039 Y128.371 E102.40389
G1 X130.559 Y127.731 E102.48617
G1 X107.267 Y104.438 E105.77299
G1 X107.408 Y104.322 E105.79121
G1 X107.557 Y104.212 E105.80969
G1 X108.086 Y103.844 E105.87399
G1 X131.156 Y126.913 E109.12935
G1 X131.489 Y126.429 E109.18797
G1 X131.572 Y126.298 E109.20344
G1 X131.713 Y126.056 E109.23139
G1 X108.944 Y103.287 E112.44434
G1 X109.571 Y102.92 E112.51683
G1 X109.736 Y102.831 E112.53554
G1 X109.848 Y102.777 E112.54794
G1 X132.222 Y125.151 E115.70516
G1 X132.256 Y125.085 E115.71257
G1 X132.682 Y124.196 E115.81093
G1 X110.802 Y102.317 E118.89836
G1 X110.969 Y102.244 E118.91655
G1 X111.811 Y101.911 E119.0069
G1 X133.086 Y123.187 E122.0091
G1 X133.118 Y123.104 E122.01797
G1 X133.216 Y122.825 E122.04748
G1 X133.431 Y122.117 E122.12131
G1 X112.881 Y101.567 E125.02114
G1 X113.049 Y101.515 E125.03869
G1 X113.34 Y101.435 E125.0688
G1 X114.01 Y101.282 E125.13737
G1 X133.716 Y120.988 E127.9181
G1 X133.806 Y120.575 E127.96028
G1 X133.845 Y120.365 E127.98159
G1 X133.927 Y119.785 E128.04004
G1 X115.215 Y101.073 E130.6805
G1 X115.627 Y101.013 E130.72205
G1 X115.755 Y100.996 E130.73493
G1 X116.036 Y100.969 E130.7631
G1 X116.497 Y100.941 E130.80918
G1 X134.056 Y118.5 E133.28695
G1 X134.085 Y118.026 E133.33433
G1 X134.09 Y117.686 E133.36826
G1 X134.082 Y117.111 E133.42564
G1 X117.888 Y100.917 E135.71079
G1 X118.165 Y100.92 E135.73843
G1 X118.274 Y100.923 E135.74931
G1 X118.592 Y100.944 E135.78111
G1 X119.4 Y101.015 E135.86204
G1 X133.984 Y115.599 E137.92
G1 X133.983 Y115.59 E137.9209
G1 X133.949 Y115.319 E137.94816
G1 X133.924 Y115.15 E137.9652
G1 X133.745 Y114.108 E138.0707
G1 X133.703 Y113.919 E138.09002
G1 X133.699 Y113.9 E138.09195
G1 X121.101 Y101.302 E139.86967
G1 X121.994 Y101.523 E139.96146
G1 X122.149 Y101.569 E139.97759
G1 X123.095 Y101.882 E140.07702
G1 X133.117 Y111.903 E141.49116
G1 X133.049 Y111.705 E141.51205
G1 X132.982 Y111.524 E141.53131
G1 X132.586 Y110.59 E141.63253
G1 X132.457 Y110.319 E141.66248
G1 X131.931 Y109.303 E141.77664
G1 X125.703 Y103.076 E142.6554
G1 X125.782 Y103.121 E142.66448
G1 X125.848 Y103.159 E142.67207
G1 X126.649 Y103.654 E142.76603
G1 X126.785 Y103.745 E142.78236
G1 X127.666 Y104.385 E142.89101
G1 X127.902 Y104.574 E142.92118
G1 X128.625 Y105.186 E143.0157
G1 X128.755 Y105.305 E143.03328
G1 X129.58 Y106.126 E143.14942
G1 X129.745 Y106.302 E143.17349
G1 X129.846 Y106.416 E143.18868
G1 X130.449 Y107.12 E143.28117
G1 X130.537 Y107.231 E143.29531
G1 X131.173 Y108.097 E143.40252
G1 X131.328 Y108.328 E143.43028
G1 X131.859 Y109.176 E143.53011
G1 X131.929 Y109.3 E143.54432
G1 F2700 E138.54432
G0 F300 X131.929 Y109.3 Z0.74
G0 F9000 X132.875 Y108.809
G0 X133.586 Y110.217
G0 X134.369 Y112.284
G0 X134.793 Y113.916
G0 X135.043 Y115.488
G0 X135.156 Y117.686
G0 X135.104 Y118.636
G0 X134.912 Y120.427
G0 X134.042 Y120.4
;TIME_ELAPSED:93.880126
;LAYER:-4
;TYPE:SUPPORT-INTERFACE
G1 F2700 E143.54432
G1 F1500 X134.098 Y120 E143.55775
G1 X100.897 Y120 E144.66202
G1 X100.84 Y119.6 E144.67546
G1 X134.155 Y119.6 E145.78352
G1 X134.204 Y119.255 E145.79511
G1 X134.209 Y119.2 E145.79695
G1 X100.786 Y119.2 E146.9086
G1 X100.756 Y118.8 E146.92194
G1 X134.239 Y118.8 E148.03559
G1 X134.263 Y118.4 E148.04892
G1 X100.727 Y118.4 E149.16433
G1 X100.719 Y118.217 E149.17042
G1 X100.715 Y118 E149.17764
G1 X134.286 Y118 E150.29422
G1 X134.291 Y117.687 E150.30463
G1 X134.29 Y117.6 E150.30752
G1 X100.709 Y117.6 E151.42443
G1 X100.704 Y117.26 E151.43574
G1 X100.705 Y117.2 E151.43774
G1 X134.285 Y117.2 E152.55461
G1 X134.279 Y116.8 E152.56792
G1 X100.723 Y116.8 E153.684
G1 X100.744 Y116.4 E153.69732
G1 X134.258 Y116.4 E154.812
G1 X134.222 Y116 E154.82536
G1 X100.775 Y116 E155.93781
G1 X100.776 Y115.98 E155.93847
G1 X100.82 Y115.6 E155.9512
G1 X134.186 Y115.6 E157.06096
G1 X134.183 Y115.571 E157.06192
G1 X134.172 Y115.469 E157.06534
G1 X134.135 Y115.2 E157.07437
G1 X100.867 Y115.2 E158.18087
G1 X100.886 Y115.03 E158.18656
G1 X100.911 Y114.867 E158.19204
G1 X100.925 Y114.8 E158.19432
G1 X134.068 Y114.8 E159.29666
G1 X133.999 Y114.4 E159.31016
G1 X101.002 Y114.4 E160.40764
G1 X101.08 Y114 E160.4212
G1 X133.927 Y114 E161.51369
G1 X133.897 Y113.862 E161.51839
G1 X133.831 Y113.6 E161.52738
G1 X101.166 Y113.6 E162.61382
G1 X101.186 Y113.511 E162.61685
G1 X101.272 Y113.2 E162.62759
G1 X133.73 Y113.2 E163.70714
G1 X133.673 Y112.979 E163.71473
G1 X133.637 Y112.847 E163.71928
G1 X133.623 Y112.8 E163.72092
G1 X101.382 Y112.8 E164.79326
G1 X101.453 Y112.541 E164.80219
G1 X101.498 Y112.4 E164.80711
G1 X133.496 Y112.4 E165.87137
G1 X133.362 Y112 E165.8854
G1 X101.64 Y112 E166.94048
G1 X101.784 Y111.6 E166.95462
G1 X133.226 Y111.6 E168.00038
G1 X133.172 Y111.454 E168.00556
G1 X133.065 Y111.2 E168.01473
