;FLAVOR:Marlin
;TIME:381
;Filament used: 0.112688m
;Layer height: 0.2
;MINX:44.027
;MINY:104.317
;MINZ:0.2
;MAXX:146.464
;MAXY:132.698
;MAXZ:17
;Generated with Cura_SteamEngine 4.8.0
M140 S50
M105
M190 S50
M104 S200
M105
M109 S200
M82 ;absolute extrusion mode
; Ender 3 Custom Start G-code
G92 E0 ; Reset Extruder
G28 ; Home all axes
G29 ; ABL
G1 Z2.0 F3000 ; Move Z Axis up little to prevent scratching of Heat Bed
G1 X0.1 Y20 Z0.3 F5000.0 ; Move to start position
G1 X0.1 Y200.0 Z0.3 F1500.0 E15 ; Draw the first line
G1 X0.4 Y200.0 Z0.3 F5000.0 ; Move to side a little
G1 X0.4 Y20 Z0.3 F1500.0 E30 ; Draw the second line
G92 E0 ; Reset Extruder
G1 Z2.0 F3000 ; Move Z Axis up little to prevent scratching of Heat Bed
G1 X5 Y20 Z0.3 F5000.0 ; Move over to prevent blob squish
G92 E0
G92 E0
G1 F2700 E-5
;LAYER_COUNT:60
;LAYER:0
M107
G0 F6000 X51.911 Y105.489 Z0.2
;TYPE:SKIRT
G1 F2700 E0
G1 F1200 X52.111 Y105.401 E0.00727
G1 X53 Y105.054 E0.03901
G1 X53.598 Y104.867 E0.05985
G1 X53.962 Y104.764 E0.07243
G1 X54.891 Y104.542 E0.1042
G1 X55.787 Y104.405 E0.13435
G1 X55.973 Y104.384 E0.14057
G1 X56.925 Y104.317 E0.17231
G1 X57.603 Y104.317 E0.19486
G1 X57.993 Y104.329 E0.20784
G1 X58.945 Y104.399 E0.23959
G1 X59.731 Y104.517 E0.26603
G1 X60.01 Y104.569 E0.27547
G1 X60.94 Y104.783 E0.30721
G1 X61.734 Y105.033 E0.33489
G1 X62.027 Y105.137 E0.34523
G1 X62.913 Y105.493 E0.37699
G1 X63.608 Y105.837 E0.40278
G1 X63.891 Y105.989 E0.41347
G1 X64.713 Y106.476 E0.44525
G1 X65.397 Y106.958 E0.47308
G1 X65.685 Y107.177 E0.48511
G1 X66.42 Y107.786 E0.51686
G1 X67.153 Y108.509 E0.5511
G1 X67.289 Y108.656 E0.55776
G1 X67.908 Y109.384 E0.58955
G1 X68.245 Y109.839 E0.60838
G1 X68.475 Y110.166 E0.62167
G1 X68.992 Y110.97 E0.65347
G1 X69.452 Y111.841 E0.68623
G1 X69.553 Y112.054 E0.69407
G1 X69.925 Y112.933 E0.72582
G1 X70.134 Y113.539 E0.74714
G1 X70.243 Y113.888 E0.7593
G1 X70.489 Y114.811 E0.79107
G1 X70.661 Y115.78 E0.8238
G1 X70.691 Y116.005 E0.83135
G1 X70.777 Y116.956 E0.86311
G1 X70.791 Y117.579 E0.88384
G1 X70.789 Y117.917 E0.89508
G1 X70.743 Y118.871 E0.92685
G1 X70.647 Y119.644 E0.95275
G1 X70.6 Y119.939 E0.96269
G1 X70.41 Y120.874 E0.99442
G1 X70.192 Y121.644 E1.02104
G1 X70.093 Y121.951 E1.03177
G1 X69.762 Y122.846 E1.06351
G1 X69.415 Y123.599 E1.09108
G1 X69.248 Y123.929 E1.10338
G1 X68.781 Y124.763 E1.13518
G1 X68.203 Y125.613 E1.16936
G1 X68.087 Y125.768 E1.1758
G1 X67.483 Y126.507 E1.20755
G1 X67.084 Y126.934 E1.22698
G1 X66.832 Y127.19 E1.23893
G1 X66.135 Y127.842 E1.27068
G1 X65.487 Y128.359 E1.29825
G1 X65.199 Y128.572 E1.31016
G1 X64.408 Y129.107 E1.34192
G1 X63.563 Y129.58 E1.37413
G1 X63.381 Y129.672 E1.38091
G1 X62.512 Y130.067 E1.41266
G1 X61.932 Y130.283 E1.43325
G1 X61.605 Y130.395 E1.44474
G1 X60.689 Y130.666 E1.47652
G1 X59.916 Y130.832 E1.50281
G1 X59.541 Y130.899 E1.51548
G1 X58.595 Y131.028 E1.54724
G1 X57.493 Y131.077 E1.58393
G1 X57.226 Y131.076 E1.59281
G1 X56.273 Y131.032 E1.62454
G1 X55.609 Y130.954 E1.64677
G1 X55.378 Y130.92 E1.65454
G1 X54.44 Y130.742 E1.6863
G1 X53.816 Y130.577 E1.70776
G1 X53.48 Y130.478 E1.71941
G1 X52.576 Y130.17 E1.75118
G1 X51.801 Y129.836 E1.77925
G1 X51.465 Y129.676 E1.79162
G1 X50.621 Y129.229 E1.82339
G1 X49.745 Y128.663 E1.85808
G1 X49.581 Y128.546 E1.86478
G1 X48.828 Y127.96 E1.89651
G1 X48.418 Y127.594 E1.91479
G1 X48.173 Y127.365 E1.92595
G1 X47.503 Y126.685 E1.9577
G1 X46.987 Y126.072 E1.98435
G1 X46.747 Y125.766 E1.99728
G1 X46.19 Y124.991 E2.02903
G1 X45.69 Y124.155 E2.06143
G1 X45.604 Y123.996 E2.06744
G1 X45.185 Y123.137 E2.09923
G1 X44.929 Y122.499 E2.12209
G1 X44.809 Y122.172 E2.13368
G1 X44.518 Y121.263 E2.16542
G1 X44.341 Y120.524 E2.1907
G1 X44.28 Y120.225 E2.20084
G1 X44.129 Y119.282 E2.23261
G1 X44.081 Y118.78 E2.24938
G1 X44.057 Y118.453 E2.26029
G1 X44.027 Y117.499 E2.29203
G1 X44.067 Y116.654 E2.32017
G1 X44.08 Y116.501 E2.32528
G1 X44.201 Y115.554 E2.35703
G1 X44.295 Y115.064 E2.37362
G1 X44.367 Y114.73 E2.38499
G1 X44.607 Y113.806 E2.41674
G1 X44.865 Y113.054 E2.44318
G1 X45.001 Y112.699 E2.45583
G1 X45.38 Y111.822 E2.4876
G1 X45.877 Y110.903 E2.52235
G1 X45.975 Y110.74 E2.52868
G1 X46.501 Y109.943 E2.56044
G1 X46.831 Y109.508 E2.5786
G1 X47.055 Y109.227 E2.59055
G1 X47.681 Y108.506 E2.62231
G1 X48.316 Y107.884 E2.65187
G1 X48.539 Y107.682 E2.66188
G1 X49.272 Y107.071 E2.69362
G1 X49.861 Y106.65 E2.7177
G1 X50.171 Y106.443 E2.7301
G1 X50.987 Y105.947 E2.76186
G1 X51.911 Y105.489 E2.79616
G0 F6000 X52.072 Y105.856
G1 F1200 X52.272 Y105.768 E2.80343
G1 X53.146 Y105.427 E2.83463
G1 X53.707 Y105.252 E2.85418
G1 X54.071 Y105.149 E2.86676
G1 X54.983 Y104.932 E2.89794
G1 X55.832 Y104.802 E2.92651
G1 X56.018 Y104.781 E2.93273
G1 X56.953 Y104.716 E2.96391
G1 X57.59 Y104.717 E2.98509
G1 X57.98 Y104.729 E2.99807
G1 X58.916 Y104.798 E3.02929
G1 X59.657 Y104.91 E3.05421
G1 X59.936 Y104.962 E3.06365
G1 X60.85 Y105.173 E3.09485
G1 X61.601 Y105.41 E3.12104
G1 X61.894 Y105.514 E3.13138
G1 X62.763 Y105.865 E3.16256
G1 X63.419 Y106.189 E3.18689
G1 X63.702 Y106.341 E3.19757
G1 X64.508 Y106.82 E3.22876
G1 X65.155 Y107.276 E3.25509
G1 X65.443 Y107.495 E3.26712
G1 X66.165 Y108.094 E3.29832
G1 X66.859 Y108.781 E3.3308
G1 X66.995 Y108.928 E3.33746
G1 X67.602 Y109.643 E3.36866
G1 X67.918 Y110.07 E3.38632
G1 X68.148 Y110.397 E3.39962
G1 X68.655 Y111.186 E3.43082
G1 X69.09 Y112.012 E3.46186
G1 X69.191 Y112.225 E3.46971
G1 X69.557 Y113.089 E3.50091
G1 X69.752 Y113.659 E3.52095
G1 X69.861 Y114.008 E3.53311
G1 X70.102 Y114.914 E3.56429
G1 X70.265 Y115.833 E3.59534
G1 X70.295 Y116.058 E3.60289
G1 X70.379 Y116.992 E3.63408
G1 X70.391 Y117.577 E3.65354
G1 X70.389 Y117.915 E3.66478
G1 X70.343 Y118.852 E3.69598
G1 X70.252 Y119.581 E3.72042
G1 X70.205 Y119.876 E3.73035
G1 X70.018 Y120.795 E3.76155
G1 X69.811 Y121.521 E3.78665
G1 X69.712 Y121.828 E3.79738
G1 X69.386 Y122.708 E3.8286
G1 X69.058 Y123.419 E3.85464
G1 X68.891 Y123.749 E3.86694
G1 X68.432 Y124.567 E3.89814
G1 X67.883 Y125.373 E3.93057
G1 X67.767 Y125.528 E3.93701
G1 X67.173 Y126.254 E3.96821
G1 X66.799 Y126.654 E3.98642
G1 X66.547 Y126.91 E3.99837
G1 X65.861 Y127.549 E4.02955
G1 X65.249 Y128.037 E4.05559
G1 X64.961 Y128.25 E4.0675
G1 X64.184 Y128.775 E4.09869
G1 X63.382 Y129.223 E4.12925
G1 X63.2 Y129.315 E4.13603
G1 X62.346 Y129.702 E4.16721
G1 X61.802 Y129.905 E4.18653
G1 X61.475 Y130.017 E4.19802
G1 X60.576 Y130.282 E4.22919
G1 X59.846 Y130.439 E4.25403
G1 X59.471 Y130.506 E4.2667
G1 X58.541 Y130.631 E4.29791
G1 X57.495 Y130.677 E4.33273
G1 X57.228 Y130.676 E4.34161
G1 X56.291 Y130.632 E4.37281
G1 X55.667 Y130.559 E4.39371
G1 X55.436 Y130.525 E4.40147
G1 X54.515 Y130.349 E4.43266
G1 X53.929 Y130.194 E4.45282
G1 X53.593 Y130.095 E4.46447
G1 X52.706 Y129.791 E4.49566
G1 X51.973 Y129.474 E4.52222
G1 X51.637 Y129.314 E4.5346
G1 X50.808 Y128.876 E4.56578
G1 X49.978 Y128.338 E4.59868
G1 X49.814 Y128.221 E4.60538
G1 X49.074 Y127.644 E4.63659
G1 X48.691 Y127.302 E4.65367
G1 X48.446 Y127.073 E4.66482
G1 X47.788 Y126.404 E4.69603
G1 X47.302 Y125.826 E4.72115
G1 X47.062 Y125.52 E4.73409
G1 X46.515 Y124.758 E4.76528
G1 X46.042 Y123.964 E4.79602
G1 X45.956 Y123.805 E4.80204
G1 X45.545 Y122.962 E4.83323
G1 X45.304 Y122.362 E4.85473
G1 X45.184 Y122.035 E4.86632
G1 X44.899 Y121.141 E4.89753
G1 X44.733 Y120.444 E4.92136
G1 X44.672 Y120.145 E4.93151
G1 X44.524 Y119.219 E4.9627
G1 X44.48 Y118.751 E4.97833
G1 X44.456 Y118.424 E4.98924
G1 X44.427 Y117.487 E5.02042
G1 X44.465 Y116.688 E5.04702
G1 X44.478 Y116.535 E5.05213
G1 X44.686 Y115.148 E5.09878
G1 X44.758 Y114.814 E5.11014
G1 X44.995 Y113.906 E5.14135
G1 X45.239 Y113.197 E5.16629
G1 X45.375 Y112.842 E5.17894
G1 X45.748 Y111.981 E5.21015
G1 X46.22 Y111.109 E5.24313
G1 X46.318 Y110.946 E5.24945
G1 X46.835 Y110.164 E5.28063
G1 X47.144 Y109.757 E5.29763
G1 X47.368 Y109.476 E5.30958
G1 X47.983 Y108.769 E5.34075
G1 X48.584 Y108.18 E5.36873
G1 X48.807 Y107.978 E5.37874
G1 X49.528 Y107.379 E5.40992
G1 X50.083 Y106.983 E5.43259
G1 X50.393 Y106.776 E5.44499
G1 X51.195 Y106.289 E5.4762
G1 X52.072 Y105.856 E5.50873
G0 F6000 X52.233 Y106.222
G1 F1200 X52.433 Y106.134 E5.516
G1 X53.291 Y105.8 E5.54662
G1 X53.816 Y105.636 E5.56492
G1 X54.18 Y105.533 E5.5775
G1 X55.076 Y105.322 E5.60811
G1 X55.877 Y105.2 E5.63506
G1 X56.063 Y105.179 E5.64129
G1 X56.981 Y105.115 E5.67189
G1 X57.578 Y105.117 E5.69175
G1 X57.968 Y105.129 E5.70473
G1 X58.886 Y105.197 E5.73535
G1 X59.584 Y105.303 E5.75883
G1 X59.863 Y105.355 E5.76827
G1 X60.76 Y105.563 E5.79889
G1 X61.467 Y105.787 E5.82356
G1 X61.76 Y105.891 E5.8339
G1 X62.613 Y106.236 E5.8645
G1 X63.23 Y106.542 E5.88741
G1 X63.513 Y106.694 E5.89809
G1 X64.304 Y107.164 E5.9287
G1 X64.913 Y107.594 E5.95349
G1 X65.201 Y107.813 E5.96553
G1 X65.909 Y108.402 E5.99616
G1 X66.566 Y109.052 E6.0269
G1 X66.702 Y109.199 E6.03356
G1 X67.297 Y109.902 E6.06419
G1 X67.591 Y110.3 E6.08065
G1 X67.821 Y110.627 E6.09395
G1 X68.318 Y111.402 E6.12457
G1 X68.729 Y112.183 E6.15392
G1 X68.83 Y112.396 E6.16176
G1 X69.188 Y113.245 E6.19241
G1 X69.37 Y113.778 E6.21114
G1 X69.479 Y114.127 E6.2233
G1 X69.715 Y115.017 E6.25392
G1 X69.868 Y115.886 E6.28327
G1 X69.898 Y116.111 E6.29082
G1 X69.98 Y117.028 E6.32144
G1 X69.991 Y117.575 E6.33964
G1 X69.989 Y117.913 E6.35088
G1 X69.943 Y118.832 E6.38149
G1 X69.857 Y119.518 E6.40448
G1 X69.81 Y119.813 E6.41442
G1 X69.626 Y120.715 E6.44504
G1 X69.43 Y121.398 E6.46867
G1 X69.331 Y121.705 E6.4794
G1 X69.011 Y122.568 E6.51001
G1 X68.701 Y123.238 E6.53456
G1 X68.534 Y123.568 E6.54687
G1 X68.083 Y124.371 E6.5775
G1 X67.563 Y125.133 E6.60818
G1 X67.447 Y125.288 E6.61462
G1 X66.863 Y126.001 E6.64527
G1 X66.514 Y126.373 E6.66224
G1 X66.262 Y126.629 E6.67419
G1 X65.588 Y127.257 E6.70483
G1 X65.011 Y127.715 E6.72933
G1 X64.723 Y127.928 E6.74124
G1 X63.96 Y128.443 E6.77186
G1 X63.202 Y128.866 E6.80073
G1 X63.02 Y128.958 E6.80751
G1 X62.181 Y129.337 E6.83814
G1 X61.673 Y129.526 E6.85616
G1 X61.346 Y129.638 E6.86766
G1 X60.463 Y129.898 E6.89827
G1 X59.775 Y130.045 E6.92167
G1 X59.4 Y130.112 E6.93434
G1 X58.488 Y130.234 E6.96495
G1 X57.496 Y130.277 E6.99797
G1 X57.229 Y130.276 E7.00685
G1 X56.31 Y130.232 E7.03745
G1 X55.725 Y130.163 E7.05705
G1 X55.494 Y130.129 E7.06481
G1 X54.59 Y129.956 E7.09542
G1 X54.042 Y129.81 E7.11429
G1 X53.706 Y129.711 E7.12594
G1 X52.835 Y129.413 E7.15656
G1 X52.145 Y129.113 E7.18158
G1 X51.809 Y128.953 E7.19396
G1 X50.995 Y128.522 E7.22459
G1 X50.21 Y128.012 E7.25573
G1 X50.046 Y127.895 E7.26243
G1 X49.32 Y127.328 E7.29307
G1 X48.964 Y127.01 E7.30894
G1 X48.719 Y126.781 E7.3201
G1 X48.074 Y126.124 E7.35072
G1 X47.616 Y125.579 E7.3744
G1 X47.376 Y125.273 E7.38733
G1 X46.84 Y124.524 E7.41797
G1 X46.393 Y123.774 E7.44701
G1 X46.307 Y123.615 E7.45302
G1 X45.905 Y122.787 E7.48363
G1 X45.68 Y122.224 E7.5038
G1 X45.56 Y121.897 E7.51538
G1 X45.281 Y121.02 E7.54599
G1 X45.125 Y120.364 E7.56842
G1 X45.064 Y120.065 E7.57857
G1 X44.878 Y118.722 E7.62366
G1 X44.854 Y118.395 E7.63457
G1 X44.827 Y117.475 E7.66518
G1 X44.864 Y116.722 E7.69026
G1 X44.877 Y116.569 E7.69536
G1 X45.077 Y115.232 E7.74033
G1 X45.149 Y114.898 E7.75169
G1 X45.382 Y114.008 E7.78229
G1 X45.613 Y113.34 E7.8058
G1 X45.749 Y112.985 E7.81844
G1 X46.115 Y112.14 E7.84907
G1 X46.562 Y111.315 E7.88028
G1 X46.66 Y111.152 E7.88661
G1 X47.169 Y110.384 E7.91725
G1 X47.456 Y110.007 E7.93301
G1 X47.68 Y109.726 E7.94496
G1 X48.285 Y109.031 E7.97561
G1 X48.853 Y108.477 E8.002
G1 X49.076 Y108.275 E8.01201
G1 X49.784 Y107.687 E8.04262
G1 X50.306 Y107.316 E8.06392
G1 X50.616 Y107.109 E8.07631
G1 X51.403 Y106.631 E8.10694
G1 X52.233 Y106.222 E8.13772
G0 F6000 X52.394 Y106.588
G1 F1200 X52.594 Y106.5 E8.14498
G1 X53.436 Y106.173 E8.17503
G1 X53.925 Y106.021 E8.19206
G1 X54.289 Y105.918 E8.20464
G1 X55.168 Y105.711 E8.23468
G1 X55.922 Y105.597 E8.26004
G1 X56.108 Y105.576 E8.26626
G1 X57.009 Y105.515 E8.2963
G1 X57.566 Y105.517 E8.31483
G1 X57.956 Y105.529 E8.3278
G1 X58.856 Y105.597 E8.35782
G1 X59.511 Y105.697 E8.37986
G1 X59.79 Y105.749 E8.3893
G1 X60.67 Y105.953 E8.41935
G1 X61.333 Y106.164 E8.44249
G1 X61.626 Y106.268 E8.45283
G1 X62.463 Y106.607 E8.48286
G1 X63.04 Y106.894 E8.5043
G1 X63.323 Y107.046 E8.51498
G1 X64.099 Y107.508 E8.54502
G1 X64.671 Y107.913 E8.56833
G1 X64.959 Y108.132 E8.58036
G1 X65.653 Y108.71 E8.6104
G1 X66.272 Y109.324 E8.6394
G1 X66.408 Y109.471 E8.64606
G1 X66.992 Y110.16 E8.6761
G1 X67.264 Y110.53 E8.69138
G1 X67.494 Y110.857 E8.70467
G1 X67.98 Y111.618 E8.73471
G1 X68.367 Y112.355 E8.76239
G1 X68.468 Y112.568 E8.77023
G1 X68.819 Y113.4 E8.80027
G1 X68.988 Y113.897 E8.81773
G1 X69.097 Y114.246 E8.82989
G1 X69.328 Y115.119 E8.85992
G1 X69.472 Y115.939 E8.88761
G1 X69.502 Y116.164 E8.89516
G1 X69.581 Y117.064 E8.92521
G1 X69.591 Y117.572 E8.94211
G1 X69.589 Y117.91 E8.95335
G1 X69.544 Y118.812 E8.98339
G1 X69.462 Y119.455 E9.00495
G1 X69.415 Y119.75 E9.01489
G1 X69.234 Y120.635 E9.04493
G1 X69.05 Y121.276 E9.06711
G1 X68.951 Y121.583 E9.07784
G1 X68.636 Y122.429 E9.10787
G1 X68.344 Y123.058 E9.13093
G1 X68.177 Y123.388 E9.14323
G1 X67.734 Y124.175 E9.17327
G1 X67.242 Y124.894 E9.20225
G1 X67.126 Y125.049 E9.20869
G1 X66.554 Y125.747 E9.2387
G1 X66.229 Y126.092 E9.25447
G1 X65.977 Y126.348 E9.26641
G1 X65.316 Y126.963 E9.29644
G1 X64.773 Y127.394 E9.3195
G1 X64.485 Y127.607 E9.33142
G1 X63.736 Y128.111 E9.36144
G1 X63.022 Y128.509 E9.38863
G1 X62.84 Y128.601 E9.39541
G1 X62.016 Y128.972 E9.42547
G1 X61.543 Y129.148 E9.44225
G1 X61.216 Y129.26 E9.45375
G1 X60.35 Y129.514 E9.48377
G1 X59.705 Y129.651 E9.5057
G1 X59.33 Y129.718 E9.51837
G1 X58.435 Y129.837 E9.5484
G1 X57.498 Y129.877 E9.57959
G1 X57.231 Y129.876 E9.58847
G1 X56.329 Y129.833 E9.61851
G1 X55.784 Y129.767 E9.63677
G1 X55.553 Y129.733 E9.64453
G1 X54.666 Y129.562 E9.67458
G1 X54.155 Y129.426 E9.69216
G1 X53.819 Y129.327 E9.70382
G1 X52.965 Y129.034 E9.73384
G1 X52.317 Y128.752 E9.75735
G1 X51.981 Y128.592 E9.76973
G1 X51.183 Y128.168 E9.79978
G1 X50.442 Y127.687 E9.82917
G1 X50.278 Y127.57 E9.83587
G1 X49.237 Y126.718 E9.88061
G1 X48.992 Y126.489 E9.89176
G1 X48.36 Y125.843 E9.92182
G1 X47.931 Y125.332 E9.94401
G1 X47.691 Y125.026 E9.95695
G1 X47.166 Y124.291 E9.98699
G1 X46.745 Y123.584 E10.01436
G1 X46.659 Y123.425 E10.02037
G1 X46.265 Y122.612 E10.05042
G1 X46.055 Y122.086 E10.06926
G1 X45.935 Y121.759 E10.08084
G1 X45.662 Y120.898 E10.11088
G1 X45.517 Y120.284 E10.13187
G1 X45.456 Y119.985 E10.14202
G1 X45.277 Y118.693 E10.1854
G1 X45.253 Y118.366 E10.1963
G1 X45.227 Y117.463 E10.22635
G1 X45.263 Y116.755 E10.24993
G1 X45.276 Y116.602 E10.25504
G1 X45.468 Y115.317 E10.29825
G1 X45.54 Y114.983 E10.30961
G1 X45.769 Y114.109 E10.33966
G1 X45.986 Y113.483 E10.3617
G1 X46.122 Y113.128 E10.37434
G1 X46.482 Y112.3 E10.40437
G1 X46.905 Y111.521 E10.43386
G1 X47.003 Y111.358 E10.44018
G1 X47.769 Y110.256 E10.48482
G1 X47.993 Y109.975 E10.49677
G1 X48.587 Y109.294 E10.52683
G1 X49.121 Y108.773 E10.55164
G1 X49.344 Y108.571 E10.56165
G1 X50.04 Y107.995 E10.5917
G1 X50.528 Y107.648 E10.61161
G1 X50.838 Y107.441 E10.62401
G1 X51.61 Y106.974 E10.65402
G1 X52.394 Y106.588 E10.68309
G1 F2700 E5.68309
;MESH:253ba55a-0893-4e53-829e-e08f6f0f9ac2.stl
G0 F6000 X56.244 Y115.302
G0 X56.677 Y116.294
G0 X56.201 Y117.509
G0 X56.192 Y117.802
G0 X56.292 Y118.184
G0 X56.492 Y118.5
G0 X56.781 Y118.741
G0 X57.938 Y118.987
;TYPE:WALL-INNER
G1 F2700 E10.68309
G1 F1200 X57.519 Y119.086 E10.69741
G1 X57.091 Y119.052 E10.71169
G1 X56.692 Y118.89 E10.72601
G1 X56.363 Y118.615 E10.74027
G1 X56.134 Y118.255 E10.75446
G1 X56.02 Y117.821 E10.76939
G1 X56.031 Y117.481 E10.7807
G1 X56.162 Y117.066 E10.79518
G1 X56.411 Y116.716 E10.80946
G1 X56.757 Y116.457 E10.82384
G1 X57.16 Y116.317 E10.83803
G1 X57.381 Y116.294 E10.84542
G1 X57.81 Y116.351 E10.85981
G1 X58.195 Y116.533 E10.87397
G1 X58.507 Y116.821 E10.8881
G1 X58.719 Y117.193 E10.90234
G1 X58.809 Y117.617 E10.91675
G1 X58.765 Y118.047 E10.93113
G1 X58.593 Y118.442 E10.94546
G1 X58.311 Y118.764 E10.9597
G1 X57.938 Y118.987 E10.97415
G0 F6000 X58.339 Y119.235
;TYPE:WALL-OUTER
G1 F1200 X58.088 Y119.359 E10.98346
G1 X57.831 Y119.442 E10.99244
G1 X57.549 Y119.486 E11.00194
G1 X57.277 Y119.486 E11.01098
